%
(bottom-gndrst-v)
(T1  D=6.35 CR=0 TAPER=30deg - ZMIN=-0.609 - chamfer mill)
G90 G94
G17
G21

(Engrave2)
M9
T1 M6
S5000 M3
G54
G0 X63.416 Y15.727
Z15
Z5
G1 Z-0.001 F762
X63.625 Y15.937 Z-0.364
X63.416 Y16.146 Z-0.001
X63.625 Y15.937 Z-0.364
X64.467 Z-0.365
X64.518 Y15.934 Z-0.37
X64.569 Y15.925 Z-0.387
X64.62 Y15.91 Z-0.413
X64.671 Y15.888 Z-0.451
X64.931 Y16.148 Z-0.001
X64.671 Y15.888 Z-0.451
X64.687 Y15.834 Z-0.423
X64.696 Y15.78 Z-0.407
X64.699 Y15.726 Z-0.402
Y15.06
X64.696 Y15.002 Z-0.408
X64.685 Y14.944 Z-0.427
X64.93 Y14.821 Z-0.002
X64.685 Y14.944 Z-0.427
X64.676 Y14.934 Z-0.422
X64.652 Y14.91 Z-0.412
X64.627 Y14.889 Z-0.406
X64.572 Y14.848 Z-0.402
X64.472 Y14.781 Z-0.396
X64.386 Y14.73 Z-0.39
X64.298 Y14.685 Z-0.387
X64.186 Y14.634 Z-0.386
X64.109 Y14.602 Z-0.385
X64.021 Y14.573 Z-0.383
X63.907 Y14.537 Z-0.38
X63.824 Y14.517 Z-0.378
X63.738 Y14.5 Z-0.375
X63.65 Y14.489 Z-0.373
X63.535 Y14.48 Z-0.371
X63.433 Y14.476 Z-0.369
X63.378 Y14.478 Z-0.368
X63.221 Y14.49 Z-0.369
X63.109 Y14.504 Z-0.37
X63.027 Y14.52 Z-0.371
X62.961 Y14.536 Z-0.373
X62.867 Y14.566 Z-0.374
X62.75 Y14.612 Z-0.375
X62.641 Y14.659 Z-0.376
X62.588 Y14.687 Z-0.382
X62.479 Y14.757 Z-0.383
X62.395 Y14.817 Z-0.386
X62.339 Y14.863 Z-0.39
X62.285 Y14.914 Z-0.394
X62.242 Y14.962 Z-0.397
X62.196 Y15.019 Z-0.399
X62.138 Y15.103 Z-0.401
X62.075 Y15.203 Z-0.403
X62.05 Y15.249 Z-0.408
X61.982 Y15.418 Z-0.412
X61.945 Y15.524 Z-0.415
X61.916 Y15.625 Z-0.418
X61.899 Y15.71 Z-0.42
X61.886 Y15.796
X61.875 Y15.907 Z-0.421
X61.867 Y16.066 Z-0.423
X61.866 Y16.117 Z-0.422
X61.868 Y16.166 Z-0.421
X61.878 Y16.329 Z-0.418
X61.89 Y16.437 Z-0.417
X61.908 Y16.543 Z-0.415
X61.932 Y16.642 Z-0.412
X61.955 Y16.719 Z-0.409
X61.995 Y16.833 Z-0.404
X62.037 Y16.944 Z-0.4
X62.052 Y16.976 Z-0.401
X62.114 Y17.09 Z-0.395
X62.154 Y17.156 Z-0.393
X62.207 Y17.232 Z-0.394
X62.263 Y17.302 Z-0.392
X62.288 Y17.329 Z-0.39
X62.328 Y17.37 Z-0.386
X62.403 Y17.435 Z-0.379
X62.47 Y17.486 Z-0.373
X62.531 Y17.529 Z-0.37
X62.572 Y17.555 Z-0.371
X62.654 Y17.596 Z-0.363
X62.769 Y17.646 Z-0.357
X62.811 Y17.662 Z-0.358
X62.908 Y17.694
X63.006 Y17.719 Z-0.355
X63.075 Y17.733 Z-0.352
X63.153 Y17.743 Z-0.35
X63.262 Y17.753 Z-0.349
X63.414 Y17.76 Z-0.351
X63.512 Y17.756
X63.628 Y17.747 Z-0.353
X63.707 Y17.736 Z-0.355
X63.777 Y17.722 Z-0.357
X63.851 Y17.702 Z-0.36
X63.938 Y17.675 Z-0.362
X63.999 Y17.654 Z-0.365
X64.051 Y17.632 Z-0.369
X64.145 Y17.585 Z-0.373
X64.21 Y17.547 Z-0.378
X64.266 Y17.507 Z-0.382
X64.301 Y17.478 Z-0.384
X64.362 Y17.42 Z-0.386
X64.431 Y17.346 Z-0.388
X64.473 Y17.282 Z-0.389
X64.53 Y17.188 Z-0.39
X64.568 Y17.115
X64.593 Y17.055 Z-0.389
X64.52 Y16.913 Z-0.184
X64.451 Y16.784 Z-0.001
X64.52 Y16.913 Z-0.184
X64.593 Y17.055 Z-0.389
X64.652 Y17.025 Z-0.31
X64.877 Y16.901 Z-0.001
G0 Z5
X65.625 Y14.323
G1 Z-0.001 F762
X65.852 Y14.55 Z-0.393
X66.078 Y14.323 Z-0.001
X65.852 Y14.55 Z-0.393
Y17.135
X65.855 Y17.191 Z-0.399
X65.866 Y17.247 Z-0.417
X65.883 Y17.303 Z-0.447
X65.907 Y17.359 Z-0.489
X65.938 Y17.415 Z-0.543
X65.976 Y17.471 Z-0.608
X65.941 Y17.585 Z-0.548
X66.11 Y17.901 Z-0.001
X65.941 Y17.585 Z-0.548
X65.625 Y17.901 Z-0.001
X65.941 Y17.585 Z-0.548
X65.976 Y17.471 Z-0.608
X66.039 Y17.446 Z-0.542
X66.096 Y17.416 Z-0.488
X66.147 Y17.383 Z-0.446
X66.193 Y17.346 Z-0.416
X66.233 Y17.306 Z-0.398
X66.267 Y17.261 Z-0.392
X67.802 Y14.965 Z-0.393
X67.836 Y14.921 Z-0.399
X67.876 Y14.88 Z-0.417
X67.921 Y14.843 Z-0.447
X67.973 Y14.81 Z-0.489
X68.03 Y14.78 Z-0.543
X68.093 Y14.755 Z-0.609
X68.128 Y14.639 Z-0.548
X68.444 Y14.323 Z-0.001
X68.128 Y14.639 Z-0.548
X67.959 Y14.323 Z-0.001
X68.128 Y14.639 Z-0.548
X68.093 Y14.755 Z-0.609
X68.131 Y14.811 Z-0.543
X68.162 Y14.867 Z-0.489
X68.186 Y14.923 Z-0.447
X68.204 Y14.979 Z-0.417
X68.214 Y15.036 Z-0.399
X68.217 Y15.092 Z-0.393
Y17.675
X67.991 Y17.901 Z-0.001
X68.217 Y17.675 Z-0.393
X68.444 Y17.901 Z-0.001
G0 Z5
X69.241 Y14.323
G1 Z-0.001 F762
X69.504 Y14.586 Z-0.456
X69.556 Y14.563 Z-0.417
X69.609 Y14.547 Z-0.388
X69.661 Y14.537 Z-0.371
X69.714 Y14.534 Z-0.366
X70.627 Y14.536
X70.754 Y14.543 Z-0.368
X70.842 Y14.553 Z-0.369
X70.95 Y14.571 Z-0.371
X71.086 Y14.602 Z-0.374
X71.123 Y14.613 Z-0.375
X71.216 Y14.646 Z-0.38
X71.281 Y14.675 Z-0.382
X71.342 Y14.708 Z-0.384
X71.402 Y14.746 Z-0.389
X71.428 Y14.765 Z-0.39
X71.508 Y14.83 Z-0.392
X71.544 Y14.866 Z-0.396
X71.579 Y14.906 Z-0.399
X71.639 Y14.98 Z-0.4
X71.683 Y15.042 Z-0.402
X71.724 Y15.11 Z-0.403
X71.755 Y15.166 Z-0.406
X71.789 Y15.237 Z-0.41
X71.824 Y15.325 Z-0.411
X71.849 Y15.395 Z-0.412
X71.878 Y15.496 Z-0.417
X71.909 Y15.629 Z-0.418
X71.927 Y15.727 Z-0.42
X71.94 Y15.826 Z-0.421
X71.948 Y15.933 Z-0.422
X71.954 Y16.077 Z-0.423
Y16.182 Z-0.422
X71.946 Y16.367 Z-0.42
X71.938 Y16.464 Z-0.418
X71.925 Y16.556 Z-0.416
X71.907 Y16.648 Z-0.414
X71.889 Y16.721 Z-0.412
X71.862 Y16.81 Z-0.413
X71.825 Y16.918 Z-0.417
X71.767 Y17.048 Z-0.413
X71.73 Y17.122 Z-0.409
X71.691 Y17.181 Z-0.411
X71.649 Y17.24 Z-0.409
X71.598 Y17.301 Z-0.404
X71.537 Y17.367 Z-0.4
X71.479 Y17.423 Z-0.399
X71.436 Y17.457 Z-0.396
X71.361 Y17.508 Z-0.395
X71.305 Y17.542 Z-0.394
X71.254 Y17.568 Z-0.39
X71.181 Y17.6 Z-0.38
X71.141 Y17.615 Z-0.377
X71.049 Y17.639 Z-0.379
X70.918 Y17.664 Z-0.371
X70.825 Y17.676 Z-0.369
X70.729 Y17.685 Z-0.367
X70.626 Y17.689 Z-0.366
X70.466 Y17.691
X69.714
X69.661 Y17.687 Z-0.371
X69.609 Y17.677 Z-0.388
X69.556 Y17.661 Z-0.417
X69.504 Y17.638 Z-0.456
X69.241 Y17.901 Z-0.001
X69.504 Y17.638 Z-0.456
X69.489 Y17.585 Z-0.431
X69.48 Y17.532 Z-0.415
X69.477 Y17.479 Z-0.41
Y14.745
X69.48 Y14.692 Z-0.415
X69.489 Y14.639 Z-0.431
X69.504 Y14.586 Z-0.456
G0 Z5
X92.777 Y14.294
G1 Z-0.001 F762
X93.014 Y14.53 Z-0.41
X93.25 Y14.294 Z-0.001
X93.014 Y14.53 Z-0.41
Y15.882
X93.016 Y15.934 Z-0.415
X93.025 Y15.985 Z-0.429
X93.039 Y16.036 Z-0.453
X93.058 Y16.088 Z-0.487
X93.095 Z-0.446
X93.127 Z-0.415
X93.154 Z-0.393
X93.177 Z-0.377
X93.198 Z-0.367
X93.234 Z-0.356
X93.8 Z-0.355
X93.894 Y16.087 Z-0.356
X93.982 Y16.085 Z-0.36
X94.095 Y16.078 Z-0.372
X94.158 Y16.07 Z-0.386
X94.242 Y16.056 Z-0.41
X94.301 Y16.044 Z-0.432
X94.38 Y16.025 Z-0.468
X94.39 Y15.997 Z-0.436
X94.413 Y15.942 Z-0.377
X94.427 Y15.913 Z-0.352
X94.442 Y15.885 Z-0.331
X94.461 Y15.857 Z-0.313
X94.482 Y15.83 Z-0.301
X94.505 Y15.805 Z-0.296
X94.53 Y15.782 Z-0.297
X94.557 Y15.761 Z-0.306
X94.636 Y15.699 Z-0.339
X94.687 Y15.655 Z-0.36
X94.766 Y15.575 Z-0.388
X94.839 Y15.49 Z-0.403
X94.912 Y15.399 Z-0.417
X94.971 Y15.32 Z-0.425
X95.057 Y15.194 Z-0.431
X95.473 Y14.544 Z-0.434
X95.93 Y14.294 Z-0.001
X95.473 Y14.544 Z-0.434
X95.336 Y14.294 Z-0.001
X95.473 Y14.544 Z-0.434
X95.057 Y15.194 Z-0.431
X94.971 Y15.32 Z-0.425
X94.912 Y15.399 Z-0.417
X94.839 Y15.49 Z-0.403
X94.766 Y15.575 Z-0.388
X94.687 Y15.655 Z-0.36
X94.636 Y15.699 Z-0.339
X94.557 Y15.761 Z-0.306
X94.53 Y15.782 Z-0.297
X94.505 Y15.805 Z-0.296
X94.482 Y15.83 Z-0.301
X94.461 Y15.857 Z-0.313
X94.442 Y15.885 Z-0.331
X94.427 Y15.913 Z-0.352
X94.413 Y15.942 Z-0.377
X94.39 Y15.997 Z-0.436
X94.38 Y16.025 Z-0.468
X94.429 Y16.055 Z-0.418
X94.455 Y16.069 Z-0.396
X94.5 Y16.089 Z-0.367
X94.525 Y16.098 Z-0.356
X94.548 Y16.105 Z-0.348
X94.573 Y16.111 Z-0.343
X94.622 Y16.12 Z-0.342
X94.719 Y16.139 Z-0.345
X94.826 Y16.165 Z-0.348
X94.883 Y16.183 Z-0.354
X94.95 Y16.211 Z-0.36
X94.991 Y16.231 Z-0.363
X95.048 Y16.265 Z-0.367
X95.097 Y16.3 Z-0.373
X95.148 Y16.343 Z-0.381
X95.221 Y16.412 Z-0.4
X95.226 Y16.418 Z-0.401
X95.258 Y16.462 Z-0.403
X95.299 Y16.528 Z-0.411
X95.329 Y16.583 Z-0.417
X95.351 Y16.635 Z-0.421
X95.367 Y16.69
X95.38 Y16.754
X95.39 Y16.847
X95.394 Y16.898 Z-0.422
X95.386 Y16.991 Z-0.423
X95.376 Y17.064 Z-0.424
X95.362 Y17.126 Z-0.423
X95.341 Y17.188 Z-0.42
X95.316 Y17.244 Z-0.418
X95.285 Y17.301 Z-0.42
X95.266 Y17.33
X95.22 Y17.392
X95.187 Y17.43
X95.157 Y17.461 Z-0.417
X95.121 Y17.492 Z-0.41
X95.094 Y17.51 Z-0.407
X95.019 Y17.553 Z-0.402
X94.964 Y17.576 Z-0.391
X94.891 Y17.604 Z-0.377
X94.813 Y17.629 Z-0.365
X94.759 Y17.643 Z-0.359
X94.681 Y17.657 Z-0.352
X94.587 Y17.667 Z-0.347
X94.483 Y17.672 Z-0.344
X93.251 Y17.675 Z-0.343
X93.196 Y17.671 Z-0.349
X93.142 Y17.66 Z-0.368
X93.088 Y17.641 Z-0.4
X93.034 Y17.615 Z-0.445
X92.777 Y17.872 Z-0.001
X93.034 Y17.615 Z-0.445
X93.023 Y17.569 Z-0.426
X93.016 Y17.523 Z-0.414
X93.014 Y17.477 Z-0.41
Y16.293
X93.016 Y16.241 Z-0.415
X93.025 Y16.19 Z-0.429
X93.039 Y16.139 Z-0.453
X93.058 Y16.088 Z-0.487
G0 Z5
X96.22 Y15.443
G1 Z-0.001 F762
X96.312 Y15.366 Z-0.147
X96.425 Y15.274 Z-0.323
X96.478 Y15.234 Z-0.401
X96.557 Y15.342 Z-0.226
X96.665 Y15.481 Z-0.001
X96.557 Y15.342 Z-0.226
X96.478 Y15.234 Z-0.401
X96.494 Y15.175 Z-0.403
X96.52 Y15.107
X96.55 Y15.041
X96.601 Y14.945
X96.617 Y14.919 Z-0.402
X96.65 Y14.876 Z-0.401
X96.721 Y14.794 Z-0.403
X96.772 Y14.742
X96.809 Y14.712 Z-0.401
X96.858 Y14.676 Z-0.399
X96.922 Y14.636 Z-0.396
X97.009 Y14.59 Z-0.395
X97.036 Y14.578 Z-0.393
X97.1 Y14.553 Z-0.387
X97.222 Y14.513 Z-0.382
X97.321 Y14.486 Z-0.378
X97.405 Y14.469 Z-0.374
X97.488 Y14.458 Z-0.371
X97.593 Y14.45 Z-0.369
X97.729 Y14.445 Z-0.368
X97.771 Y14.446
X97.906 Y14.454
X98.003 Y14.465 Z-0.369
X98.071 Y14.478 Z-0.37
X98.14 Y14.496
X98.227 Y14.522 Z-0.369
X98.286 Y14.543 Z-0.367
X98.358 Y14.574 Z-0.37
X98.424 Y14.608 Z-0.368
X98.482 Y14.642 Z-0.369
X98.536 Y14.681 Z-0.372
X98.581 Y14.719 Z-0.374
X98.625 Y14.763
X98.678 Y14.824 Z-0.372
X98.71 Y14.868 Z-0.376
X98.728 Y14.896 Z-0.378
X98.762 Y14.96
X98.789 Y15.019 Z-0.381
X98.809 Y15.073 Z-0.385
X98.822 Y15.13 Z-0.388
X98.831 Y15.191 Z-0.39
X98.837 Y15.252 Z-0.391
X98.838 Y15.312 Z-0.397
X98.83 Y15.394 Z-0.4
X98.82 Y15.455 Z-0.403
X98.807 Y15.505 Z-0.406
X98.79 Y15.551 Z-0.408
X98.763 Y15.606 Z-0.41
X98.72 Y15.68 Z-0.413
X98.695 Y15.712 Z-0.41
X98.659 Y15.751 Z-0.413
X98.603 Y15.807 Z-0.416
X98.556 Y15.846 Z-0.415
X98.513 Y15.876 Z-0.414
X98.454 Y15.912 Z-0.412
X98.381 Y15.949 Z-0.414
X98.344 Y15.966 Z-0.413
X98.264 Y15.996 Z-0.411
X98.094 Y16.052 Z-0.414
X97.965 Y16.089
X97.78 Y16.136 Z-0.413
X97.353 Y16.237 Z-0.406
X97.247 Y16.269 Z-0.405
X97.149 Y16.303 Z-0.404
X97.047 Y16.346 Z-0.407
X96.952 Y16.391 Z-0.411
X96.865 Y16.441 Z-0.406
X96.813 Y16.476 Z-0.401
X96.782 Y16.504 Z-0.402
X96.733 Y16.558
X96.685 Y16.619 Z-0.404
X96.672 Y16.639 Z-0.403
X96.645 Y16.69 Z-0.401
X96.621 Y16.744 Z-0.402
X96.607 Y16.788
X96.596 Y16.847 Z-0.4
X96.589 Y16.909 Z-0.398
X96.585 Y16.958 Z-0.395
X96.587 Y17 Z-0.392
X96.599 Y17.088 Z-0.393
X96.611 Y17.146 Z-0.391
X96.63 Y17.204 Z-0.386
X96.651 Y17.254 Z-0.381
X96.674 Y17.299 Z-0.379
X96.699 Y17.34
X96.738 Y17.391 Z-0.377
X96.792 Y17.451
X96.841 Y17.497 Z-0.375
X96.881 Y17.529 Z-0.37
X96.913 Y17.549 Z-0.369
X97.008 Y17.599 Z-0.368
X97.054 Y17.62 Z-0.366
X97.13 Y17.65 Z-0.36
X97.203 Y17.674 Z-0.358
X97.273 Y17.692
X97.341 Y17.705 Z-0.359
X97.426 Y17.715
X97.518 Y17.721 Z-0.36
X97.641 Y17.724 Z-0.361
X97.789 Y17.717 Z-0.36
X97.887 Y17.708 Z-0.359
X97.961 Y17.695
X98.035 Y17.678 Z-0.36
X98.087 Y17.662 Z-0.361
X98.165 Y17.634 Z-0.366
X98.245 Y17.6 Z-0.375
X98.347 Y17.544 Z-0.379
X98.399 Y17.512 Z-0.38
X98.44 Y17.477 Z-0.388
X98.479 Y17.439 Z-0.393
X98.531 Y17.379 Z-0.395
X98.576 Y17.323 Z-0.397
X98.596 Y17.294 Z-0.399
X98.63 Y17.233 Z-0.397
X98.659 Y17.173 Z-0.399
X98.685 Y17.106 Z-0.402
X98.694 Y17.077 Z-0.403
X98.623 Y16.98 Z-0.244
X98.507 Y16.83 Z-0.001
X98.623 Y16.98 Z-0.244
X98.694 Y17.077 Z-0.403
X98.717 Y17.06 Z-0.371
X98.805 Y16.993 Z-0.243
X98.96 Y16.865 Z-0.001
G0 Z5
X99.447 Y17.45
G1 Z-0.001 F762
X99.658 Y17.661 Z-0.366
X99.447 Y17.872 Z-0.001
X99.658 Y17.661 Z-0.366
X100.626
X100.673 Y17.658 Z-0.37
X100.721 Y17.65 Z-0.384
X100.768 Y17.637 Z-0.407
X100.816 Y17.619 Z-0.44
X100.863 Y17.595 Z-0.481
X100.91 Y17.619 Z-0.44
X100.958 Y17.637 Z-0.407
X101.005 Y17.65 Z-0.384
X101.053 Y17.658 Z-0.37
X101.1 Y17.661 Z-0.366
X102.073
X102.283 Y17.45 Z-0.001
X102.073 Y17.661 Z-0.366
X102.283 Y17.872 Z-0.001
X102.073 Y17.661 Z-0.366
X101.1
X101.053 Y17.658 Z-0.37
X101.005 Y17.65 Z-0.384
X100.958 Y17.637 Z-0.407
X100.91 Y17.619 Z-0.44
X100.863 Y17.595 Z-0.481
Y17.567 Z-0.458
Y17.544 Z-0.442
Y17.506 Z-0.422
Y17.476 Z-0.413
Y14.53 Z-0.41
X101.099 Y14.294 Z-0.001
X100.863 Y14.53 Z-0.41
X100.627 Y14.294 Z-0.001
G0 Z15
M30
%
