%
(bottom-pocket-1_8c)
(T1  D=3.17 CR=0 - ZMIN=-5.7 - flat end mill)
G90 G94
G17
G21

(PocketC-1_8)
M9
T1 M6
S5000 M3
G54
M8
G0 X82.719 Y60.243
Z15
Z5
Z-1.366
G1 Z-1.683 F1000
X82.717 Y60.235 Z-1.754
X82.711 Y60.213 Z-1.821
X82.702 Y60.176 Z-1.881
X82.689 Y60.127 Z-1.931
X82.674 Y60.069 Z-1.969
X82.658 Y60.004 Z-1.992
X82.64 Y59.936 Z-2
G3 X82.392 Y58.21 I7.84 J-2.008
G1 Y58.06
X82.447 Y57.921
X82.539 Y57.802
X82.648 Y57.699
X82.767 Y57.607
X82.914 Y57.513
X83.102 Y57.411
X83.348 Y57.304
X83.674 Y57.192
X84.13 Y57.076
X84.763 Y56.967
X85.401 Y56.904
X85.841 Y56.879
X86.04 Y56.895
X86.228 Y56.964
X86.391 Y57.08
X86.516 Y57.236
X86.595 Y57.42
X86.622 Y57.618
G3 X86.389 Y57.924 I-0.317
G1 X86.03 Y58.022
X79.14 Y59.918
G3 X78.784 Y59.774 I-0.084 J-0.306
X78.292 Y58.101 I3.02 J-1.795
G1 Y57.912
X78.294 Y57.874
X78.394 Y57.762
X78.506 Y57.663
X78.632 Y57.573
X78.793 Y57.476
X79.001 Y57.372
X79.273 Y57.263
X79.64 Y57.149
X80.266 Y57.009
X80.897 Y56.887
X81.501 Y56.672
X82.098 Y56.436
X82.702 Y56.219
X83.317 Y56.036
X83.942 Y55.891
X84.574 Y55.782
X84.989 Y55.74
X85.286 Y55.733
X85.532 Y55.748
X85.75 Y55.778
X85.954 Y55.824
X86.124 Y55.876
X86.157 Y55.89
X86.347 Y56
X86.495 Y56.162
X86.59 Y56.36
X86.622 Y56.577
G3 X86.049 Y56.752 I-0.317 J-0.011
G1 X86.008 Y56.695 Z-1.992
X85.968 Y56.641 Z-1.969
X85.933 Y56.592 Z-1.931
X85.903 Y56.552 Z-1.881
X85.881 Y56.521 Z-1.821
X85.867 Y56.502 Z-1.754
X85.863 Y56.496 Z-1.683
G0 Z5
X78.676 Y58.938
Z-1.366
G1 Z-1.683 F1000
X78.672 Y58.931 Z-1.754
X78.66 Y58.911 Z-1.821
X78.64 Y58.878 Z-1.881
X78.615 Y58.835 Z-1.931
X78.584 Y58.783 Z-1.969
X78.55 Y58.726 Z-1.992
X78.514 Y58.665 Z-2
G3 X78.292 Y57.912 I1.36 J-0.809
G1 Y57.474
X78.3 Y57.324
X78.365 Y57.189
X78.446 Y57.063
X78.538 Y56.945
X78.647 Y56.826
X78.792 Y56.693
X78.975 Y56.549
X79.209 Y56.394
X79.771 Y56.084
X80.354 Y55.815
X80.944 Y55.562
X81.54 Y55.325
X82.145 Y55.111
X82.759 Y54.925
X83.381 Y54.769
X84.007 Y54.647
X84.519 Y54.59
X84.941 Y54.577
X85.301 Y54.594
X85.581 Y54.631
X85.83 Y54.684
X86.025 Y54.742
X86.15 Y54.79
X86.342 Y54.9
X86.493 Y55.062
X86.589 Y55.261
X86.622 Y55.48
Y56.577
G3 X86.342 Y56.88 I-0.317 J-0.011
G1 X86.009 Y56.919
X78.906 Y57.748
X78.646 Y57.778
G3 X78.292 Y57.474 I-0.037 J-0.315
G1 Y56.79
X78.3 Y56.64
X78.335 Y56.494
X78.388 Y56.354
X78.457 Y56.211
X78.545 Y56.063
X78.658 Y55.902
X78.814 Y55.715
X79.015 Y55.51
X79.294 Y55.267
X79.662 Y54.996
X80.162 Y54.686
X80.733 Y54.392
X81.322 Y54.139
X81.926 Y53.921
X82.54 Y53.734
X83.163 Y53.581
X83.795 Y53.47
X84.352 Y53.417
X84.82 Y53.411
X85.23 Y53.438
X85.544 Y53.484
X85.817 Y53.547
X86.024 Y53.613
X86.162 Y53.669
X86.35 Y53.78
X86.497 Y53.941
X86.59 Y54.138
X86.622 Y54.354
Y55.48
G3 X86.359 Y55.781 I-0.317 J-0.011
G1 X86.012 Y55.84
X78.904 Y57.05
X78.662 Y57.091
G3 X78.292 Y56.79 I-0.053 J-0.313
G1 Y55.835
X78.3 Y55.685
X78.322 Y55.537
X78.36 Y55.392
X78.415 Y55.237
X78.485 Y55.082
X78.582 Y54.904
X78.716 Y54.702
X78.871 Y54.503
X79.089 Y54.267
X79.342 Y54.033
X79.685 Y53.764
X80.1 Y53.489
X80.624 Y53.198
X81.209 Y52.934
X81.811 Y52.711
X82.426 Y52.528
X83.051 Y52.384
X83.685 Y52.284
X84.278 Y52.238
X84.774 Y52.24
X85.211 Y52.276
X85.542 Y52.33
X85.83 Y52.402
X86.042 Y52.473
X86.174 Y52.53
X86.357 Y52.642
X86.5 Y52.802
X86.591 Y52.997
X86.622 Y53.21
Y54.354
G3 X86.366 Y54.654 I-0.317 J-0.011
G1 X86.013 Y54.722
X78.903 Y56.09
X78.669 Y56.135
G3 X78.292 Y55.835 I-0.06 J-0.311
G1 Y54.603
X78.3 Y54.453
X78.327 Y54.306
X78.368 Y54.16
X78.429 Y53.994
X78.507 Y53.827
X78.618 Y53.63
X78.751 Y53.433
X78.929 Y53.211
X79.15 Y52.977
X79.426 Y52.728
X79.761 Y52.471
X80.19 Y52.193
X80.706 Y51.915
X81.293 Y51.658
X81.899 Y51.447
X82.519 Y51.281
X83.149 Y51.157
X83.467 Y51.118
X83.769 Y51.092
X84.055 Y51.077
X84.322 Y51.072
X84.808 Y51.081
X85.243 Y51.123
X85.573 Y51.182
X85.859 Y51.258
X86.07 Y51.332
X86.184 Y51.383
X86.363 Y51.496
X86.503 Y51.656
X86.592 Y51.848
X86.622 Y52.059
Y53.21
G3 X86.362 Y53.51 I-0.317 J-0.011
G1 X86.012 Y53.574
X78.904 Y54.861
X78.666 Y54.904
G3 X78.292 Y54.603 I-0.056 J-0.312
G1 Y53.437
X78.3 Y53.287
X78.32 Y53.139
X78.354 Y52.993
X78.403 Y52.839
X78.475 Y52.666
X78.565 Y52.49
X78.693 Y52.283
X78.841 Y52.081
X79.045 Y51.846
X79.281 Y51.614
X79.597 Y51.351
X79.945 Y51.105
X80.056 Y51.039
X80.505 Y50.783
X81.047 Y50.53
X81.648 Y50.306
X82.265 Y50.129
X82.422 Y50.097
G3 X82.668 Y50.66 I0.05 J0.313
G1 X78.874 Y53.622
X78.804 Y53.676
G3 X78.292 Y53.437 I-0.195 J-0.25
G1 Y52.125
X78.3 Y51.976
X78.317 Y51.827
X78.348 Y51.68
X78.391 Y51.536
X78.445 Y51.396
X78.508 Y51.26
X78.579 Y51.128
X78.658 Y51.001
X78.744 Y50.877
X78.842 Y50.75
X78.91 Y50.605
X78.945 Y50.449
X78.946 Y50.288
X78.912 Y50.131
X78.845 Y49.986
X78.748 Y49.858
X78.634 Y49.761
X78.492 Y49.642
X78.383 Y49.493
X78.316 Y49.321
X78.292 Y49.137
G3 X78.926 Y49.148 I0.317 J0.011
G1 Y52.114
G3 X78.292 Y52.125 I-0.317
G1 Y49.502
G3 X78.866 Y49.326 I0.317 J0.011
G1 X78.907 Y49.383 Z-1.992
X78.946 Y49.438 Z-1.969
X78.982 Y49.486 Z-1.931
X79.011 Y49.527 Z-1.881
X79.034 Y49.557 Z-1.821
X79.047 Y49.576 Z-1.754
X79.052 Y49.583 Z-1.683
G0 Z5
X86.239 Y46.873
Z-1.366
G1 Z-1.683 F1000
X86.243 Y46.879 Z-1.754
X86.255 Y46.9 Z-1.821
X86.274 Y46.932 Z-1.881
X86.3 Y46.975 Z-1.931
X86.331 Y47.027 Z-1.969
X86.365 Y47.084 Z-1.992
X86.401 Y47.145 Z-2
G3 X86.622 Y47.899 I-1.36 J0.809
G1 Y48.088
X86.621 Y48.126
X86.53 Y48.245
X86.424 Y48.351
X86.307 Y48.446
X86.183 Y48.531
X86.114 Y48.571
X85.985 Y48.667
X85.88 Y48.788
X85.803 Y48.929
X85.759 Y49.083
X85.749 Y49.243
X85.774 Y49.401
X85.832 Y49.551
X85.921 Y49.684
X86.384 Y50.129
X86.513 Y50.285
X86.595 Y50.472
X86.622 Y50.673
G3 X85.989 Y50.662 I-0.317 J-0.011
G1 Y48.099
G3 X86.622 Y48.088 I0.317
G1 Y52.059
G3 X86.324 Y52.364 I-0.317 J-0.011
G1 X86.306 Z-1.999
X86.252 Y52.351 Z-1.991
X86.201 Y52.338 Z-1.973
X86.154 Y52.326 Z-1.946
X86.118 Y52.295 Z-1.907
X86.089 Y52.269 Z-1.859
X86.067 Y52.25 Z-1.804
X86.054 Y52.238 Z-1.745
X86.049 Y52.234 Z-1.683
G0 Z5
X82.719 Y60.243
Z-3.366
G1 Z-3.683 F1000
X82.717 Y60.235 Z-3.754
X82.711 Y60.213 Z-3.821
X82.702 Y60.176 Z-3.881
X82.689 Y60.127 Z-3.931
X82.674 Y60.069 Z-3.969
X82.658 Y60.004 Z-3.992
X82.64 Y59.936 Z-4
G3 X82.392 Y58.21 I7.84 J-2.008
G1 Y58.06
X82.447 Y57.921
X82.539 Y57.802
X82.648 Y57.699
X82.767 Y57.607
X82.914 Y57.513
X83.102 Y57.411
X83.348 Y57.304
X83.674 Y57.192
X84.13 Y57.076
X84.763 Y56.967
X85.401 Y56.904
X85.841 Y56.879
X86.04 Y56.895
X86.228 Y56.964
X86.391 Y57.08
X86.516 Y57.236
X86.595 Y57.42
X86.622 Y57.618
G3 X86.389 Y57.924 I-0.317
G1 X86.03 Y58.022
X79.14 Y59.918
G3 X78.784 Y59.774 I-0.084 J-0.306
X78.292 Y58.101 I3.02 J-1.795
G1 Y57.912
X78.294 Y57.874
X78.394 Y57.762
X78.506 Y57.663
X78.632 Y57.573
X78.793 Y57.476
X79.001 Y57.372
X79.273 Y57.263
X79.64 Y57.149
X80.266 Y57.009
X80.897 Y56.887
X81.501 Y56.672
X82.098 Y56.436
X82.702 Y56.219
X83.317 Y56.036
X83.942 Y55.891
X84.574 Y55.782
X84.989 Y55.74
X85.286 Y55.733
X85.532 Y55.748
X85.75 Y55.778
X85.954 Y55.824
X86.124 Y55.876
X86.157 Y55.89
X86.347 Y56
X86.495 Y56.162
X86.59 Y56.36
X86.622 Y56.577
G3 X86.049 Y56.752 I-0.317 J-0.011
G1 X86.008 Y56.695 Z-3.992
X85.968 Y56.641 Z-3.969
X85.933 Y56.592 Z-3.931
X85.903 Y56.552 Z-3.881
X85.881 Y56.521 Z-3.821
X85.867 Y56.502 Z-3.754
X85.863 Y56.496 Z-3.683
G0 Z5
X78.676 Y58.938
Z-3.366
G1 Z-3.683 F1000
X78.672 Y58.931 Z-3.754
X78.66 Y58.911 Z-3.821
X78.64 Y58.878 Z-3.881
X78.615 Y58.835 Z-3.931
X78.584 Y58.783 Z-3.969
X78.55 Y58.726 Z-3.992
X78.514 Y58.665 Z-4
G3 X78.292 Y57.912 I1.36 J-0.809
G1 Y57.474
X78.3 Y57.324
X78.365 Y57.189
X78.446 Y57.063
X78.538 Y56.945
X78.647 Y56.826
X78.792 Y56.693
X78.975 Y56.549
X79.209 Y56.394
X79.771 Y56.084
X80.354 Y55.815
X80.944 Y55.562
X81.54 Y55.325
X82.145 Y55.111
X82.759 Y54.925
X83.381 Y54.769
X84.007 Y54.647
X84.519 Y54.59
X84.941 Y54.577
X85.301 Y54.594
X85.581 Y54.631
X85.83 Y54.684
X86.025 Y54.742
X86.15 Y54.79
X86.342 Y54.9
X86.493 Y55.062
X86.589 Y55.261
X86.622 Y55.48
Y56.577
G3 X86.342 Y56.88 I-0.317 J-0.011
G1 X86.009 Y56.919
X78.906 Y57.748
X78.646 Y57.778
G3 X78.292 Y57.474 I-0.037 J-0.315
G1 Y56.79
X78.3 Y56.64
X78.335 Y56.494
X78.388 Y56.354
X78.457 Y56.211
X78.545 Y56.063
X78.658 Y55.902
X78.814 Y55.715
X79.015 Y55.51
X79.294 Y55.267
X79.662 Y54.996
X80.162 Y54.686
X80.733 Y54.392
X81.322 Y54.139
X81.926 Y53.921
X82.54 Y53.734
X83.163 Y53.581
X83.795 Y53.47
X84.352 Y53.417
X84.82 Y53.411
X85.23 Y53.438
X85.544 Y53.484
X85.817 Y53.547
X86.024 Y53.613
X86.162 Y53.669
X86.35 Y53.78
X86.497 Y53.941
X86.59 Y54.138
X86.622 Y54.354
Y55.48
G3 X86.359 Y55.781 I-0.317 J-0.011
G1 X86.012 Y55.84
X78.904 Y57.05
X78.662 Y57.091
G3 X78.292 Y56.79 I-0.053 J-0.313
G1 Y55.835
X78.3 Y55.685
X78.322 Y55.537
X78.36 Y55.392
X78.415 Y55.237
X78.485 Y55.082
X78.582 Y54.904
X78.716 Y54.702
X78.871 Y54.503
X79.089 Y54.267
X79.342 Y54.033
X79.685 Y53.764
X80.1 Y53.489
X80.624 Y53.198
X81.209 Y52.934
X81.811 Y52.711
X82.426 Y52.528
X83.051 Y52.384
X83.685 Y52.284
X84.278 Y52.238
X84.774 Y52.24
X85.211 Y52.276
X85.542 Y52.33
X85.83 Y52.402
X86.042 Y52.473
X86.174 Y52.53
X86.357 Y52.642
X86.5 Y52.802
X86.591 Y52.997
X86.622 Y53.21
Y54.354
G3 X86.366 Y54.654 I-0.317 J-0.011
G1 X86.013 Y54.722
X78.903 Y56.09
X78.669 Y56.135
G3 X78.292 Y55.835 I-0.06 J-0.311
G1 Y54.603
X78.3 Y54.453
X78.327 Y54.306
X78.368 Y54.16
X78.429 Y53.994
X78.507 Y53.827
X78.618 Y53.63
X78.751 Y53.433
X78.929 Y53.211
X79.15 Y52.977
X79.426 Y52.728
X79.761 Y52.471
X80.19 Y52.193
X80.706 Y51.915
X81.293 Y51.658
X81.899 Y51.447
X82.519 Y51.281
X83.149 Y51.157
X83.467 Y51.118
X83.769 Y51.092
X84.055 Y51.077
X84.322 Y51.072
X84.808 Y51.081
X85.243 Y51.123
X85.573 Y51.182
X85.859 Y51.258
X86.07 Y51.332
X86.184 Y51.383
X86.363 Y51.496
X86.503 Y51.656
X86.592 Y51.848
X86.622 Y52.059
Y53.21
G3 X86.362 Y53.51 I-0.317 J-0.011
G1 X86.012 Y53.574
X78.904 Y54.861
X78.666 Y54.904
G3 X78.292 Y54.603 I-0.056 J-0.312
G1 Y53.437
X78.3 Y53.287
X78.32 Y53.139
X78.354 Y52.993
X78.403 Y52.839
X78.475 Y52.666
X78.565 Y52.49
X78.693 Y52.283
X78.841 Y52.081
X79.045 Y51.846
X79.281 Y51.614
X79.597 Y51.351
X79.945 Y51.105
X80.056 Y51.039
X80.505 Y50.783
X81.047 Y50.53
X81.648 Y50.306
X82.265 Y50.129
X82.422 Y50.097
G3 X82.668 Y50.66 I0.05 J0.313
G1 X78.874 Y53.622
X78.804 Y53.676
G3 X78.292 Y53.437 I-0.195 J-0.25
G1 Y52.125
X78.3 Y51.976
X78.317 Y51.827
X78.348 Y51.68
X78.391 Y51.536
X78.445 Y51.396
X78.508 Y51.26
X78.579 Y51.128
X78.658 Y51.001
X78.744 Y50.877
X78.842 Y50.75
X78.91 Y50.605
X78.945 Y50.449
X78.946 Y50.288
X78.912 Y50.131
X78.845 Y49.986
X78.748 Y49.858
X78.634 Y49.761
X78.492 Y49.642
X78.383 Y49.493
X78.316 Y49.321
X78.292 Y49.137
G3 X78.926 Y49.148 I0.317 J0.011
G1 Y52.114
G3 X78.292 Y52.125 I-0.317
G1 Y49.502
G3 X78.866 Y49.326 I0.317 J0.011
G1 X78.907 Y49.383 Z-3.992
X78.946 Y49.438 Z-3.969
X78.982 Y49.486 Z-3.931
X79.011 Y49.527 Z-3.881
X79.034 Y49.557 Z-3.821
X79.047 Y49.576 Z-3.754
X79.052 Y49.583 Z-3.683
G0 Z5
X86.239 Y46.873
Z-3.366
G1 Z-3.683 F1000
X86.243 Y46.879 Z-3.754
X86.255 Y46.9 Z-3.821
X86.274 Y46.932 Z-3.881
X86.3 Y46.975 Z-3.931
X86.331 Y47.027 Z-3.969
X86.365 Y47.084 Z-3.992
X86.401 Y47.145 Z-4
G3 X86.622 Y47.899 I-1.36 J0.809
G1 Y48.088
X86.621 Y48.126
X86.53 Y48.245
X86.424 Y48.351
X86.307 Y48.446
X86.183 Y48.531
X86.114 Y48.571
X85.985 Y48.667
X85.88 Y48.788
X85.803 Y48.929
X85.759 Y49.083
X85.749 Y49.243
X85.774 Y49.401
X85.832 Y49.551
X85.921 Y49.684
X86.384 Y50.129
X86.513 Y50.285
X86.595 Y50.472
X86.622 Y50.673
G3 X85.989 Y50.662 I-0.317 J-0.011
G1 Y48.099
G3 X86.622 Y48.088 I0.317
G1 Y52.059
G3 X86.324 Y52.364 I-0.317 J-0.011
G1 X86.306 Z-3.999
X86.252 Y52.351 Z-3.991
X86.201 Y52.338 Z-3.973
X86.154 Y52.326 Z-3.946
X86.118 Y52.295 Z-3.907
X86.089 Y52.269 Z-3.859
X86.067 Y52.25 Z-3.804
X86.054 Y52.238 Z-3.745
X86.049 Y52.234 Z-3.683
G0 Z5
X82.719 Y60.243
Z-5.066
G1 Z-5.383 F1000
X82.717 Y60.235 Z-5.454
X82.711 Y60.213 Z-5.521
X82.702 Y60.176 Z-5.581
X82.689 Y60.127 Z-5.631
X82.674 Y60.069 Z-5.669
X82.658 Y60.004 Z-5.692
X82.64 Y59.936 Z-5.7
G3 X82.392 Y58.21 I7.84 J-2.008
G1 Y58.06
X82.447 Y57.921
X82.539 Y57.802
X82.648 Y57.699
X82.767 Y57.607
X82.914 Y57.513
X83.102 Y57.411
X83.348 Y57.304
X83.674 Y57.192
X84.13 Y57.076
X84.763 Y56.967
X85.401 Y56.904
X85.841 Y56.879
X86.04 Y56.895
X86.228 Y56.964
X86.391 Y57.08
X86.516 Y57.236
X86.595 Y57.42
X86.622 Y57.618
G3 X86.389 Y57.924 I-0.317
G1 X86.03 Y58.022
X79.14 Y59.918
G3 X78.784 Y59.774 I-0.084 J-0.306
X78.292 Y58.101 I3.02 J-1.795
G1 Y57.912
X78.294 Y57.874
X78.394 Y57.762
X78.506 Y57.663
X78.632 Y57.573
X78.793 Y57.476
X79.001 Y57.372
X79.273 Y57.263
X79.64 Y57.149
X80.266 Y57.009
X80.897 Y56.887
X81.501 Y56.672
X82.098 Y56.436
X82.702 Y56.219
X83.317 Y56.036
X83.942 Y55.891
X84.574 Y55.782
X84.989 Y55.74
X85.286 Y55.733
X85.532 Y55.748
X85.75 Y55.778
X85.954 Y55.824
X86.124 Y55.876
X86.157 Y55.89
X86.347 Y56
X86.495 Y56.162
X86.59 Y56.36
X86.622 Y56.577
G3 X86.049 Y56.752 I-0.317 J-0.011
G1 X86.008 Y56.695 Z-5.692
X85.968 Y56.641 Z-5.669
X85.933 Y56.592 Z-5.631
X85.903 Y56.552 Z-5.581
X85.881 Y56.521 Z-5.521
X85.867 Y56.502 Z-5.454
X85.863 Y56.496 Z-5.383
G0 Z5
X78.676 Y58.938
Z-5.066
G1 Z-5.383 F1000
X78.672 Y58.931 Z-5.454
X78.66 Y58.911 Z-5.521
X78.64 Y58.878 Z-5.581
X78.615 Y58.835 Z-5.631
X78.584 Y58.783 Z-5.669
X78.55 Y58.726 Z-5.692
X78.514 Y58.665 Z-5.7
G3 X78.292 Y57.912 I1.36 J-0.809
G1 Y57.474
X78.3 Y57.324
X78.365 Y57.189
X78.446 Y57.063
X78.538 Y56.945
X78.647 Y56.826
X78.792 Y56.693
X78.975 Y56.549
X79.209 Y56.394
X79.771 Y56.084
X80.354 Y55.815
X80.944 Y55.562
X81.54 Y55.325
X82.145 Y55.111
X82.759 Y54.925
X83.381 Y54.769
X84.007 Y54.647
X84.519 Y54.59
X84.941 Y54.577
X85.301 Y54.594
X85.581 Y54.631
X85.83 Y54.684
X86.025 Y54.742
X86.15 Y54.79
X86.342 Y54.9
X86.493 Y55.062
X86.589 Y55.261
X86.622 Y55.48
Y56.577
G3 X86.342 Y56.88 I-0.317 J-0.011
G1 X86.009 Y56.919
X78.906 Y57.748
X78.646 Y57.778
G3 X78.292 Y57.474 I-0.037 J-0.315
G1 Y56.79
X78.3 Y56.64
X78.335 Y56.494
X78.388 Y56.354
X78.457 Y56.211
X78.545 Y56.063
X78.658 Y55.902
X78.814 Y55.715
X79.015 Y55.51
X79.294 Y55.267
X79.662 Y54.996
X80.162 Y54.686
X80.733 Y54.392
X81.322 Y54.139
X81.926 Y53.921
X82.54 Y53.734
X83.163 Y53.581
X83.795 Y53.47
X84.352 Y53.417
X84.82 Y53.411
X85.23 Y53.438
X85.544 Y53.484
X85.817 Y53.547
X86.024 Y53.613
X86.162 Y53.669
X86.35 Y53.78
X86.497 Y53.941
X86.59 Y54.138
X86.622 Y54.354
Y55.48
G3 X86.359 Y55.781 I-0.317 J-0.011
G1 X86.012 Y55.84
X78.904 Y57.05
X78.662 Y57.091
G3 X78.292 Y56.79 I-0.053 J-0.313
G1 Y55.835
X78.3 Y55.685
X78.322 Y55.537
X78.36 Y55.392
X78.415 Y55.237
X78.485 Y55.082
X78.582 Y54.904
X78.716 Y54.702
X78.871 Y54.503
X79.089 Y54.267
X79.342 Y54.033
X79.685 Y53.764
X80.1 Y53.489
X80.624 Y53.198
X81.209 Y52.934
X81.811 Y52.711
X82.426 Y52.528
X83.051 Y52.384
X83.685 Y52.284
X84.278 Y52.238
X84.774 Y52.24
X85.211 Y52.276
X85.542 Y52.33
X85.83 Y52.402
X86.042 Y52.473
X86.174 Y52.53
X86.357 Y52.642
X86.5 Y52.802
X86.591 Y52.997
X86.622 Y53.21
Y54.354
G3 X86.366 Y54.654 I-0.317 J-0.011
G1 X86.013 Y54.722
X78.903 Y56.09
X78.669 Y56.135
G3 X78.292 Y55.835 I-0.06 J-0.311
G1 Y54.603
X78.3 Y54.453
X78.327 Y54.306
X78.368 Y54.16
X78.429 Y53.994
X78.507 Y53.827
X78.618 Y53.63
X78.751 Y53.433
X78.929 Y53.211
X79.15 Y52.977
X79.426 Y52.728
X79.761 Y52.471
X80.19 Y52.193
X80.706 Y51.915
X81.293 Y51.658
X81.899 Y51.447
X82.519 Y51.281
X83.149 Y51.157
X83.467 Y51.118
X83.769 Y51.092
X84.055 Y51.077
X84.322 Y51.072
X84.808 Y51.081
X85.243 Y51.123
X85.573 Y51.182
X85.859 Y51.258
X86.07 Y51.332
X86.184 Y51.383
X86.363 Y51.496
X86.503 Y51.656
X86.592 Y51.848
X86.622 Y52.059
Y53.21
G3 X86.362 Y53.51 I-0.317 J-0.011
G1 X86.012 Y53.574
X78.904 Y54.861
X78.666 Y54.904
G3 X78.292 Y54.603 I-0.056 J-0.312
G1 Y53.437
X78.3 Y53.287
X78.32 Y53.139
X78.354 Y52.993
X78.403 Y52.839
X78.475 Y52.666
X78.565 Y52.49
X78.693 Y52.283
X78.841 Y52.081
X79.045 Y51.846
X79.281 Y51.614
X79.597 Y51.351
X79.945 Y51.105
X80.056 Y51.039
X80.505 Y50.783
X81.047 Y50.53
X81.648 Y50.306
X82.265 Y50.129
X82.422 Y50.097
G3 X82.668 Y50.66 I0.05 J0.313
G1 X78.874 Y53.622
X78.804 Y53.676
G3 X78.292 Y53.437 I-0.195 J-0.25
G1 Y52.125
X78.3 Y51.976
X78.317 Y51.827
X78.348 Y51.68
X78.391 Y51.536
X78.445 Y51.396
X78.508 Y51.26
X78.579 Y51.128
X78.658 Y51.001
X78.744 Y50.877
X78.842 Y50.75
X78.91 Y50.605
X78.945 Y50.449
X78.946 Y50.288
X78.912 Y50.131
X78.845 Y49.986
X78.748 Y49.858
X78.634 Y49.761
X78.492 Y49.642
X78.383 Y49.493
X78.316 Y49.321
X78.292 Y49.137
G3 X78.926 Y49.148 I0.317 J0.011
G1 Y52.114
G3 X78.292 Y52.125 I-0.317
G1 Y49.502
G3 X78.866 Y49.326 I0.317 J0.011
G1 X78.907 Y49.383 Z-5.692
X78.946 Y49.438 Z-5.669
X78.982 Y49.486 Z-5.631
X79.011 Y49.527 Z-5.581
X79.034 Y49.557 Z-5.521
X79.047 Y49.576 Z-5.454
X79.052 Y49.583 Z-5.383
G0 Z5
X86.239 Y46.873
Z-5.066
G1 Z-5.383 F1000
X86.243 Y46.879 Z-5.454
X86.255 Y46.9 Z-5.521
X86.274 Y46.932 Z-5.581
X86.3 Y46.975 Z-5.631
X86.331 Y47.027 Z-5.669
X86.365 Y47.084 Z-5.692
X86.401 Y47.145 Z-5.7
G3 X86.622 Y47.899 I-1.36 J0.809
G1 Y48.088
X86.621 Y48.126
X86.53 Y48.245
X86.424 Y48.351
X86.307 Y48.446
X86.183 Y48.531
X86.114 Y48.571
X85.985 Y48.667
X85.88 Y48.788
X85.803 Y48.929
X85.759 Y49.083
X85.749 Y49.243
X85.774 Y49.401
X85.832 Y49.551
X85.921 Y49.684
X86.384 Y50.129
X86.513 Y50.285
X86.595 Y50.472
X86.622 Y50.673
G3 X85.989 Y50.662 I-0.317 J-0.011
G1 Y48.099
G3 X86.622 Y48.088 I0.317
G1 Y52.059
G3 X86.049 Y52.234 I-0.317 J-0.011
G1 X86.008 Y52.177 Z-5.692
X85.968 Y52.123 Z-5.669
X85.933 Y52.074 Z-5.631
X85.903 Y52.034 Z-5.581
X85.881 Y52.003 Z-5.521
X85.867 Y51.984 Z-5.454
X85.863 Y51.978 Z-5.383
G0 Z15
X82.712 Y10.743
Z5
Z-1.366
G1 Z-1.683 F1000
X82.71 Y10.735 Z-1.754
X82.704 Y10.713 Z-1.821
X82.694 Y10.676 Z-1.881
X82.682 Y10.627 Z-1.931
X82.667 Y10.569 Z-1.969
X82.65 Y10.504 Z-1.992
X82.633 Y10.436 Z-2
G3 X82.385 Y8.71 I7.84 J-2.008
G1 Y8.56
X82.44 Y8.421
X82.532 Y8.302
X82.641 Y8.199
X82.759 Y8.107
X82.906 Y8.013
X83.095 Y7.911
X83.341 Y7.804
X83.667 Y7.692
X84.123 Y7.576
X84.755 Y7.467
X85.394 Y7.404
X86.035 Y7.368
X86.676 Y7.347
X87.318 Y7.335
X87.959 Y7.327
X88.378 Y7.324
X88.608 Y7.359
X88.815 Y7.464
X88.98 Y7.628
X89.086 Y7.835
X89.122 Y8.064
G3 X88.549 Y8.24 I-0.317 J-0.011
G1 X88.508 Y8.183 Z-1.992
X88.468 Y8.128 Z-1.969
X88.433 Y8.08 Z-1.931
X88.403 Y8.039 Z-1.881
X88.381 Y8.009 Z-1.821
X88.367 Y7.99 Z-1.754
X88.363 Y7.983 Z-1.683
G0 Z5
X76.446 Y10.547
Z-1.366
G1 Z-1.683 F1000
X76.442 Y10.54 Z-1.754
X76.43 Y10.52 Z-1.821
X76.41 Y10.487 Z-1.881
X76.385 Y10.444 Z-1.931
X76.354 Y10.392 Z-1.969
X76.32 Y10.335 Z-1.992
X76.284 Y10.274 Z-2
G3 X75.792 Y8.601 I3.02 J-1.795
G1 Y8.412
X75.794 Y8.374
X75.894 Y8.262
X76.006 Y8.163
X76.132 Y8.073
X76.293 Y7.976
X76.501 Y7.872
X76.773 Y7.763
X77.14 Y7.649
X77.667 Y7.531
X78.303 Y7.441
X78.942 Y7.39
X79.583 Y7.359
X80.225 Y7.342
X80.864 Y7.285
X81.481 Y7.11
X82.087 Y6.898
X82.696 Y6.697
X83.314 Y6.523
X83.94 Y6.382
X84.573 Y6.277
X85.21 Y6.202
X85.85 Y6.15
X86.49 Y6.115
X87.132 Y6.092
X87.632 Y6.089
X87.929 Y6.112
X88.201 Y6.155
X88.405 Y6.204
X88.616 Y6.273
X88.669 Y6.295
X88.854 Y6.407
X88.999 Y6.568
X89.091 Y6.764
X89.122 Y6.977
G3 X88.549 Y7.153 I-0.317 J-0.011
G1 X88.508 Y7.096 Z-1.992
X88.468 Y7.042 Z-1.969
X88.433 Y6.993 Z-1.931
X88.403 Y6.953 Z-1.881
X88.381 Y6.922 Z-1.821
X88.367 Y6.903 Z-1.754
X88.363 Y6.897 Z-1.683
G0 Z5
X76.176 Y9.438
Z-1.366
G1 Z-1.683 F1000
X76.172 Y9.431 Z-1.754
X76.16 Y9.411 Z-1.821
X76.14 Y9.378 Z-1.881
X76.115 Y9.335 Z-1.931
X76.084 Y9.283 Z-1.969
X76.05 Y9.226 Z-1.992
X76.014 Y9.165 Z-2
G3 X75.792 Y8.412 I1.36 J-0.809
G1 Y7.974
X75.8 Y7.824
X75.865 Y7.689
X75.946 Y7.563
X76.038 Y7.445
X76.147 Y7.326
X76.292 Y7.193
X76.455 Y7.065
X76.658 Y6.93
X76.918 Y6.787
X77.219 Y6.651
X77.616 Y6.509
X78.141 Y6.367
X78.772 Y6.251
X79.409 Y6.172
X80.043 Y6.077
X80.669 Y5.937
X81.289 Y5.77
X81.907 Y5.598
X82.528 Y5.434
X83.153 Y5.288
X83.782 Y5.164
X84.416 Y5.063
X85.053 Y4.985
X85.692 Y4.926
X86.332 Y4.883
X86.973 Y4.863
X87.484 Y4.883
X87.883 Y4.93
X88.193 Y4.993
X88.434 Y5.062
X88.644 Y5.141
X88.698 Y5.166
X88.872 Y5.281
X89.007 Y5.439
X89.093 Y5.629
X89.122 Y5.836
Y6.977
G3 X88.845 Y7.292 I-0.317
G1 X88.52 Y7.333
X76.326 Y8.88
G3 X76.014 Y8.728 I-0.04 J-0.314
X75.792 Y7.974 I1.36 J-0.809
G1 Y7.29
X75.8 Y7.14
X75.836 Y6.994
X75.89 Y6.854
X75.957 Y6.72
X76.039 Y6.589
X76.138 Y6.455
X76.269 Y6.304
X76.415 Y6.161
X76.61 Y5.999
X76.832 Y5.843
X77.11 Y5.678
X77.449 Y5.513
X77.898 Y5.338
X78.513 Y5.153
X79.759 Y4.847
X80.381 Y4.688
X81.001 Y4.525
X81.623 Y4.365
X82.246 Y4.214
X82.873 Y4.077
X83.504 Y3.957
X84.137 Y3.856
X84.773 Y3.773
X85.412 Y3.707
X86.052 Y3.661
X86.693 Y3.643
X87.295 Y3.668
X87.771 Y3.725
X88.108 Y3.794
X88.398 Y3.877
X88.609 Y3.958
X88.699 Y4
X88.873 Y4.115
X89.008 Y4.273
X89.093 Y4.463
X89.122 Y4.669
Y5.836
G3 X88.842 Y6.139 I-0.317 J-0.011
G1 X88.509 Y6.177
X76.406 Y7.564
X76.145 Y7.594
G3 X75.792 Y7.29 I-0.036 J-0.315
G1 Y6.415
X75.8 Y6.265
X75.823 Y6.117
X75.863 Y5.973
X75.918 Y5.833
X75.985 Y5.699
X76.075 Y5.55
X76.184 Y5.398
X76.322 Y5.236
X76.495 Y5.061
X76.697 Y4.889
X76.969 Y4.692
X77.292 Y4.496
X77.763 Y4.259
X78.357 Y4.018
X78.965 Y3.812
X79.579 Y3.624
X80.195 Y3.448
X80.815 Y3.28
X81.437 Y3.123
X82.062 Y2.978
X82.69 Y2.846
X83.321 Y2.731
X83.955 Y2.631
X84.591 Y2.548
X85.23 Y2.482
X85.87 Y2.438
X86.511 Y2.424
X87.143 Y2.45
X87.678 Y2.514
X88.053 Y2.591
X88.365 Y2.681
X88.587 Y2.765
X88.699 Y2.818
X88.873 Y2.932
X89.008 Y3.091
X89.093 Y3.28
X89.122 Y3.486
Y4.669
G3 X88.849 Y4.972 I-0.317 J-0.011
G1 X88.51 Y5.018
X76.405 Y6.683
X76.152 Y6.718
G3 X75.792 Y6.415 I-0.043 J-0.314
G1 Y5.395
X75.8 Y5.245
X75.809 Y5.095
X75.836 Y4.948
X75.878 Y4.804
X75.933 Y4.664
X75.998 Y4.529
X76.073 Y4.399
X76.156 Y4.274
X76.247 Y4.155
X76.343 Y4.04
X76.445 Y3.93
X76.552 Y3.825
X76.664 Y3.724
X76.779 Y3.628
X76.897 Y3.536
X77.018 Y3.448
X77.142 Y3.363
X77.269 Y3.282
X77.397 Y3.205
X77.527 Y3.13
X77.659 Y3.058
X77.792 Y2.989
X77.926 Y2.923
X78.062 Y2.859
X78.199 Y2.797
X78.336 Y2.737
X78.474 Y2.678
X78.613 Y2.622
X78.753 Y2.567
X78.893 Y2.514
X79.034 Y2.462
X79.175 Y2.411
X79.317 Y2.362
X79.459 Y2.313
X79.61 Y2.263
X79.753 Y2.217
X79.896 Y2.172
X80.055 Y2.123
X80.235 Y2.07
X80.388 Y2.026
X80.547 Y1.981
X80.726 Y1.932
X80.924 Y1.879
X81.079 Y1.839
X81.252 Y1.796
X81.447 Y1.748
X81.637 Y1.703
X81.802 Y1.666
X81.987 Y1.625
X82.36 Y1.548
X82.534 Y1.513
X82.73 Y1.476
X82.934 Y1.439
X83.093 Y1.411
X83.272 Y1.382
X83.475 Y1.349
X83.651 Y1.323
X83.802 Y1.301
X83.969 Y1.278
X84.157 Y1.253
X84.32 Y1.234
X84.469 Y1.217
X84.618 Y1.201
X84.769 Y1.186
X84.937 Y1.171
X85.086 Y1.159
X85.236 Y1.148
X85.385 Y1.139
X85.535 Y1.131
X85.685 Y1.125
X85.835 Y1.119
X85.985 Y1.116
X86.135 Y1.115
X86.285 Y1.116
X86.435 Y1.119
X86.585 Y1.123
X86.735 Y1.131
X86.884 Y1.14
X87.034 Y1.152
X87.183 Y1.167
X87.332 Y1.184
X87.481 Y1.204
X87.629 Y1.228
X87.777 Y1.255
X87.923 Y1.285
X88.069 Y1.32
X88.214 Y1.359
X88.357 Y1.404
X88.499 Y1.453
X88.638 Y1.509
X88.694 Y1.535
X88.87 Y1.649
X89.006 Y1.808
X89.093 Y1.999
X89.122 Y2.206
Y3.486
G3 X88.853 Y3.789 I-0.317 J-0.011
G1 X88.511 Y3.84
X76.405 Y5.66
X76.156 Y5.697
G3 X75.792 Y5.395 I-0.047 J-0.313
G1 Y4.149
X75.8 Y3.999
X75.815 Y3.85
X75.846 Y3.703
X75.891 Y3.56
X75.947 Y3.421
X76.013 Y3.286
X76.088 Y3.156
X76.17 Y3.031
X76.26 Y2.91
X76.355 Y2.794
X76.455 Y2.682
X76.559 Y2.575
X76.668 Y2.472
X76.781 Y2.372
X76.896 Y2.277
X77.015 Y2.185
X77.136 Y2.097
X77.26 Y2.011
X77.385 Y1.929
X77.513 Y1.85
X77.642 Y1.774
X77.773 Y1.7
X77.905 Y1.629
X78.038 Y1.56
X78.172 Y1.494
X78.308 Y1.429
X78.444 Y1.367
X78.581 Y1.306
X78.719 Y1.247
X78.858 Y1.19
X78.997 Y1.135
X79.137 Y1.081
X79.278 Y1.028
X79.419 Y0.977
X79.56 Y0.928
X79.702 Y0.879
X79.845 Y0.832
X79.988 Y0.787
X80.131 Y0.742
X80.275 Y0.699
X80.496 Y0.634
X80.573 Y0.613
G3 X80.831 Y1.179 I0.075 J0.308
G1 X76.377 Y4.337
X76.293 Y4.396
G3 X75.792 Y4.149 I-0.183 J-0.259
G1 Y2.917
X75.8 Y2.767
X75.813 Y2.618
X75.841 Y2.47
X75.883 Y2.326
X75.936 Y2.186
X75.998 Y2.05
X76.07 Y1.918
X76.149 Y1.79
X76.235 Y1.667
X76.326 Y1.548
X76.423 Y1.434
X76.524 Y1.323
X76.63 Y1.217
X76.718 Y1.082
X76.774 Y0.932
X76.797 Y0.774
X76.785 Y0.614
X76.739 Y0.46
X76.661 Y0.32
X76.555 Y0.2
X76.425 Y0.106
X76.237 Y0.024
X76.055 Y-0.089
X75.913 Y-0.249
X75.823 Y-0.443
X75.792 Y-0.654
G3 X76.426 Y-0.643 I0.317 J0.011
G1 Y2.906
G3 X75.792 Y2.917 I-0.317
G1 Y0.002
G3 X76.069 Y-0.302 I0.317 J0.011
G1 X76.405 Y-0.344
X88.509 Y-1.872
X88.766 Y-1.905
G3 X89.122 Y-1.601 I0.04 J0.315
G1 Y2.206
G3 X88.824 Y2.512 I-0.317 J-0.011
G1 X88.806 Z-1.999
X88.752 Y2.499 Z-1.991
X88.701 Y2.486 Z-1.973
X88.654 Y2.474 Z-1.946
X88.618 Y2.442 Z-1.907
X88.589 Y2.416 Z-1.859
X88.567 Y2.397 Z-1.804
X88.554 Y2.386 Z-1.745
X88.549 Y2.382 Z-1.683
G0 Z5
X82.712 Y10.743
Z-2.366
G1 Z-2.683 F1000
X82.71 Y10.735 Z-2.754
X82.704 Y10.713 Z-2.821
X82.694 Y10.676 Z-2.881
X82.682 Y10.627 Z-2.931
X82.667 Y10.569 Z-2.969
X82.65 Y10.504 Z-2.992
X82.633 Y10.436 Z-3
G3 X82.385 Y8.71 I7.84 J-2.008
G1 Y8.56
X82.44 Y8.421
X82.532 Y8.302
X82.641 Y8.199
X82.759 Y8.107
X82.906 Y8.013
X83.095 Y7.911
X83.341 Y7.804
X83.667 Y7.692
X84.123 Y7.576
X84.755 Y7.467
X85.394 Y7.404
X86.035 Y7.368
X86.676 Y7.347
X87.318 Y7.335
X87.959 Y7.327
X88.378 Y7.324
X88.608 Y7.359
X88.815 Y7.464
X88.98 Y7.628
X89.086 Y7.835
X89.122 Y8.064
G3 X88.549 Y8.24 I-0.317 J-0.011
G1 X88.508 Y8.183 Z-2.992
X88.468 Y8.128 Z-2.969
X88.433 Y8.08 Z-2.931
X88.403 Y8.039 Z-2.881
X88.381 Y8.009 Z-2.821
X88.367 Y7.99 Z-2.754
X88.363 Y7.983 Z-2.683
G0 Z5
X76.446 Y10.547
Z-2.366
G1 Z-2.683 F1000
X76.442 Y10.54 Z-2.754
X76.43 Y10.52 Z-2.821
X76.41 Y10.487 Z-2.881
X76.385 Y10.444 Z-2.931
X76.354 Y10.392 Z-2.969
X76.32 Y10.335 Z-2.992
X76.284 Y10.274 Z-3
G3 X75.792 Y8.601 I3.02 J-1.795
G1 Y8.412
X75.794 Y8.374
X75.894 Y8.262
X76.006 Y8.163
X76.132 Y8.073
X76.293 Y7.976
X76.501 Y7.872
X76.773 Y7.763
X77.14 Y7.649
X77.667 Y7.531
X78.303 Y7.441
X78.942 Y7.39
X79.583 Y7.359
X80.225 Y7.342
X80.864 Y7.285
X81.481 Y7.11
X82.087 Y6.898
X82.696 Y6.697
X83.314 Y6.523
X83.94 Y6.382
X84.573 Y6.277
X85.21 Y6.202
X85.85 Y6.15
X86.49 Y6.115
X87.132 Y6.092
X87.632 Y6.089
X87.929 Y6.112
X88.201 Y6.155
X88.405 Y6.204
X88.616 Y6.273
X88.669 Y6.295
X88.854 Y6.407
X88.999 Y6.568
X89.091 Y6.764
X89.122 Y6.977
G3 X88.549 Y7.153 I-0.317 J-0.011
G1 X88.508 Y7.096 Z-2.992
X88.468 Y7.042 Z-2.969
X88.433 Y6.993 Z-2.931
X88.403 Y6.953 Z-2.881
X88.381 Y6.922 Z-2.821
X88.367 Y6.903 Z-2.754
X88.363 Y6.897 Z-2.683
G0 Z5
X76.176 Y9.438
Z-2.366
G1 Z-2.683 F1000
X76.172 Y9.431 Z-2.754
X76.16 Y9.411 Z-2.821
X76.14 Y9.378 Z-2.881
X76.115 Y9.335 Z-2.931
X76.084 Y9.283 Z-2.969
X76.05 Y9.226 Z-2.992
X76.014 Y9.165 Z-3
G3 X75.792 Y8.412 I1.36 J-0.809
G1 Y7.974
X75.8 Y7.824
X75.865 Y7.689
X75.946 Y7.563
X76.038 Y7.445
X76.147 Y7.326
X76.292 Y7.193
X76.455 Y7.065
X76.658 Y6.93
X76.918 Y6.787
X77.219 Y6.651
X77.616 Y6.509
X78.141 Y6.367
X78.772 Y6.251
X79.409 Y6.172
X80.043 Y6.077
X80.669 Y5.937
X81.289 Y5.77
X81.907 Y5.598
X82.528 Y5.434
X83.153 Y5.288
X83.782 Y5.164
X84.416 Y5.063
X85.053 Y4.985
X85.692 Y4.926
X86.332 Y4.883
X86.973 Y4.863
X87.484 Y4.883
X87.883 Y4.93
X88.193 Y4.993
X88.434 Y5.062
X88.644 Y5.141
X88.698 Y5.166
X88.872 Y5.281
X89.007 Y5.439
X89.093 Y5.629
X89.122 Y5.836
Y6.977
G3 X88.845 Y7.292 I-0.317
G1 X88.52 Y7.333
X76.326 Y8.88
G3 X76.014 Y8.728 I-0.04 J-0.314
X75.792 Y7.974 I1.36 J-0.809
G1 Y7.29
X75.8 Y7.14
X75.836 Y6.994
X75.89 Y6.854
X75.957 Y6.72
X76.039 Y6.589
X76.138 Y6.455
X76.269 Y6.304
X76.415 Y6.161
X76.61 Y5.999
X76.832 Y5.843
X77.11 Y5.678
X77.449 Y5.513
X77.898 Y5.338
X78.513 Y5.153
X79.759 Y4.847
X80.381 Y4.688
X81.001 Y4.525
X81.623 Y4.365
X82.246 Y4.214
X82.873 Y4.077
X83.504 Y3.957
X84.137 Y3.856
X84.773 Y3.773
X85.412 Y3.707
X86.052 Y3.661
X86.693 Y3.643
X87.295 Y3.668
X87.771 Y3.725
X88.108 Y3.794
X88.398 Y3.877
X88.609 Y3.958
X88.699 Y4
X88.873 Y4.115
X89.008 Y4.273
X89.093 Y4.463
X89.122 Y4.669
Y5.836
G3 X88.842 Y6.139 I-0.317 J-0.011
G1 X88.509 Y6.177
X76.406 Y7.564
X76.145 Y7.594
G3 X75.792 Y7.29 I-0.036 J-0.315
G1 Y6.415
X75.8 Y6.265
X75.823 Y6.117
X75.863 Y5.973
X75.918 Y5.833
X75.985 Y5.699
X76.075 Y5.55
X76.184 Y5.398
X76.322 Y5.236
X76.495 Y5.061
X76.697 Y4.889
X76.969 Y4.692
X77.292 Y4.496
X77.763 Y4.259
X78.357 Y4.018
X78.965 Y3.812
X79.579 Y3.624
X80.195 Y3.448
X80.815 Y3.28
X81.437 Y3.123
X82.062 Y2.978
X82.69 Y2.846
X83.321 Y2.731
X83.955 Y2.631
X84.591 Y2.548
X85.23 Y2.482
X85.87 Y2.438
X86.511 Y2.424
X87.143 Y2.45
X87.678 Y2.514
X88.053 Y2.591
X88.365 Y2.681
X88.587 Y2.765
X88.699 Y2.818
X88.873 Y2.932
X89.008 Y3.091
X89.093 Y3.28
X89.122 Y3.486
Y4.669
G3 X88.849 Y4.972 I-0.317 J-0.011
G1 X88.51 Y5.018
X76.405 Y6.683
X76.152 Y6.718
G3 X75.792 Y6.415 I-0.043 J-0.314
G1 Y5.395
X75.8 Y5.245
X75.809 Y5.095
X75.836 Y4.948
X75.878 Y4.804
X75.933 Y4.664
X75.998 Y4.529
X76.073 Y4.399
X76.156 Y4.274
X76.247 Y4.155
X76.343 Y4.04
X76.445 Y3.93
X76.552 Y3.825
X76.664 Y3.724
X76.779 Y3.628
X76.897 Y3.536
X77.018 Y3.448
X77.142 Y3.363
X77.269 Y3.282
X77.397 Y3.205
X77.527 Y3.13
X77.659 Y3.058
X77.792 Y2.989
X77.926 Y2.923
X78.062 Y2.859
X78.199 Y2.797
X78.336 Y2.737
X78.474 Y2.678
X78.613 Y2.622
X78.753 Y2.567
X78.893 Y2.514
X79.034 Y2.462
X79.175 Y2.411
X79.317 Y2.362
X79.459 Y2.313
X79.61 Y2.263
X79.753 Y2.217
X79.896 Y2.172
X80.055 Y2.123
X80.235 Y2.07
X80.388 Y2.026
X80.547 Y1.981
X80.726 Y1.932
X80.924 Y1.879
X81.079 Y1.839
X81.252 Y1.796
X81.447 Y1.748
X81.637 Y1.703
X81.802 Y1.666
X81.987 Y1.625
X82.36 Y1.548
X82.534 Y1.513
X82.73 Y1.476
X82.934 Y1.439
X83.093 Y1.411
X83.272 Y1.382
X83.475 Y1.349
X83.651 Y1.323
X83.802 Y1.301
X83.969 Y1.278
X84.157 Y1.253
X84.32 Y1.234
X84.469 Y1.217
X84.618 Y1.201
X84.769 Y1.186
X84.937 Y1.171
X85.086 Y1.159
X85.236 Y1.148
X85.385 Y1.139
X85.535 Y1.131
X85.685 Y1.125
X85.835 Y1.119
X85.985 Y1.116
X86.135 Y1.115
X86.285 Y1.116
X86.435 Y1.119
X86.585 Y1.123
X86.735 Y1.131
X86.884 Y1.14
X87.034 Y1.152
X87.183 Y1.167
X87.332 Y1.184
X87.481 Y1.204
X87.629 Y1.228
X87.777 Y1.255
X87.923 Y1.285
X88.069 Y1.32
X88.214 Y1.359
X88.357 Y1.404
X88.499 Y1.453
X88.638 Y1.509
X88.694 Y1.535
X88.87 Y1.649
X89.006 Y1.808
X89.093 Y1.999
X89.122 Y2.206
Y3.486
G3 X88.853 Y3.789 I-0.317 J-0.011
G1 X88.511 Y3.84
X76.405 Y5.66
X76.156 Y5.697
G3 X75.792 Y5.395 I-0.047 J-0.313
G1 Y4.149
X75.8 Y3.999
X75.815 Y3.85
X75.846 Y3.703
X75.891 Y3.56
X75.947 Y3.421
X76.013 Y3.286
X76.088 Y3.156
X76.17 Y3.031
X76.26 Y2.91
X76.355 Y2.794
X76.455 Y2.682
X76.559 Y2.575
X76.668 Y2.472
X76.781 Y2.372
X76.896 Y2.277
X77.015 Y2.185
X77.136 Y2.097
X77.26 Y2.011
X77.385 Y1.929
X77.513 Y1.85
X77.642 Y1.774
X77.773 Y1.7
X77.905 Y1.629
X78.038 Y1.56
X78.172 Y1.494
X78.308 Y1.429
X78.444 Y1.367
X78.581 Y1.306
X78.719 Y1.247
X78.858 Y1.19
X78.997 Y1.135
X79.137 Y1.081
X79.278 Y1.028
X79.419 Y0.977
X79.56 Y0.928
X79.702 Y0.879
X79.845 Y0.832
X79.988 Y0.787
X80.131 Y0.742
X80.275 Y0.699
X80.496 Y0.634
X80.573 Y0.613
G3 X80.831 Y1.179 I0.075 J0.308
G1 X76.377 Y4.337
X76.293 Y4.396
G3 X75.792 Y4.149 I-0.183 J-0.259
G1 Y2.917
X75.8 Y2.767
X75.813 Y2.618
X75.841 Y2.47
X75.883 Y2.326
X75.936 Y2.186
X75.998 Y2.05
X76.07 Y1.918
X76.149 Y1.79
X76.235 Y1.667
X76.326 Y1.548
X76.423 Y1.434
X76.524 Y1.323
X76.63 Y1.217
X76.718 Y1.082
X76.774 Y0.932
X76.797 Y0.774
X76.785 Y0.614
X76.739 Y0.46
X76.661 Y0.32
X76.555 Y0.2
X76.425 Y0.106
X76.237 Y0.024
X76.055 Y-0.089
X75.913 Y-0.249
X75.823 Y-0.443
X75.792 Y-0.654
G3 X76.426 Y-0.643 I0.317 J0.011
G1 Y2.906
G3 X75.792 Y2.917 I-0.317
G1 Y0.002
G3 X76.069 Y-0.302 I0.317 J0.011
G1 X76.405 Y-0.344
X88.509 Y-1.872
X88.766 Y-1.905
G3 X89.122 Y-1.601 I0.04 J0.315
G1 Y2.206
G3 X88.549 Y2.382 I-0.317 J-0.011
G1 X88.508 Y2.325 Z-2.992
X88.468 Y2.27 Z-2.969
X88.433 Y2.222 Z-2.931
X88.403 Y2.181 Z-2.881
X88.381 Y2.151 Z-2.821
X88.367 Y2.132 Z-2.754
X88.363 Y2.125 Z-2.683
G0 Z15
M9
M30
%
