%
(bottom-pocket-1_8a)
(T1  D=3.17 CR=0 - ZMIN=-13 - flat end mill)
G90 G94
G17
G21

(PocketA-1_8)
M9
T1 M6
S5000 M3
G54
G0 X18.043 Y47.262
Z15
Z5
Z-1.366
G1 Z-1.683 F1000
X18.036 Y47.266 Z-1.754
X18.016 Y47.278 Z-1.821
X17.983 Y47.297 Z-1.881
X17.94 Y47.323 Z-1.931
X17.889 Y47.353 Z-1.969
X17.831 Y47.388 Z-1.992
X17.77 Y47.424 Z-2
G3 X16.098 Y47.915 I-1.795 J-3.02
G1 X13.184
X12.869 Y47.899
X12.632 Y47.868
X12.368 Y47.812
X12.073 Y47.723
X11.744 Y47.595
X11.382 Y47.42
X10.991 Y47.19
X10.57 Y46.893
X10.147 Y46.542
X9.709 Y46.115
X9.289 Y45.633
X8.907 Y45.118
X8.698 Y44.784
X8.636 Y44.661
X8.598 Y44.528
X8.585 Y44.391
G3 X9.092 Y44.148 I0.317 J0.011
G1 X9.168 Y44.205
X13.36 Y47.342
X13.363 Y47.344
G3 X13.184 Y47.915 I-0.19 J0.254
G1 X11.145
X10.995 Y47.908
X10.81 Y47.88
X10.6 Y47.831
X10.381 Y47.761
X10.113 Y47.651
X9.846 Y47.516
X9.522 Y47.318
X9.205 Y47.087
X8.839 Y46.772
X8.799 Y46.731
X8.683 Y46.579
X8.61 Y46.401
X8.585 Y46.211
G3 X9.068 Y45.952 I0.317 J0.011
G1 X9.173 Y46.017
X11.3 Y47.328
G3 X11.145 Y47.915 I-0.166 J0.27
G1 X9.542
X9.392 Y47.908
X9.235 Y47.882
X9.15 Y47.862
X8.967 Y47.791
X8.809 Y47.673
X8.688 Y47.519
X8.611 Y47.338
X8.585 Y47.143
G3 X9.085 Y46.895 I0.317 J0.011
G1 X9.169 Y46.955
X9.714 Y47.339
G3 X9.542 Y47.915 I-0.183 J0.259
G1 X8.959
X8.887 Y47.914
X8.85 Y47.908
X8.814 Y47.898
X8.787 Y47.888
X8.76 Y47.875
X8.734 Y47.858
X8.707 Y47.837
X8.668 Y47.798
X8.646 Y47.772
X8.629 Y47.745
X8.615 Y47.718
X8.604 Y47.691
X8.593 Y47.655
X8.587 Y47.619
X8.585 Y47.546
Y40.556
G3 X9.158 Y40.38 I0.317 J0.011
G1 X9.2 Y40.437 Z-1.992
X9.239 Y40.491 Z-1.969
X9.274 Y40.54 Z-1.931
X9.304 Y40.581 Z-1.881
X9.326 Y40.611 Z-1.821
X9.34 Y40.63 Z-1.754
X9.345 Y40.636 Z-1.683
G0 Z5
X9.238 Y18.035
Z-1.366
G1 Z-1.683 F1000
X9.234 Y18.028 Z-1.754
X9.222 Y18.008 Z-1.821
X9.203 Y17.976 Z-1.881
X9.177 Y17.933 Z-1.931
X9.147 Y17.881 Z-1.969
X9.112 Y17.823 Z-1.992
X9.076 Y17.763 Z-2
G3 X8.585 Y16.09 I3.02 J-1.795
G1 Y13.177
X8.6 Y12.869
X8.631 Y12.634
X8.687 Y12.371
X8.776 Y12.074
X8.904 Y11.748
X9.081 Y11.383
X9.313 Y10.987
X9.602 Y10.577
X9.965 Y10.139
X10.386 Y9.707
X10.862 Y9.292
X11.378 Y8.91
X11.716 Y8.698
X11.839 Y8.636
X11.972 Y8.598
X12.109 Y8.585
G3 X12.352 Y9.092 I-0.011 J0.317
G1 X12.295 Y9.168
X9.158 Y13.353
X9.155 Y13.356
G3 X8.585 Y13.177 I-0.254 J-0.19
G1 Y11.139
X8.592 Y10.989
X8.621 Y10.802
X8.671 Y10.591
X8.743 Y10.369
X8.855 Y10.099
X8.992 Y9.832
X9.193 Y9.505
X9.426 Y9.189
X9.742 Y8.824
X9.77 Y8.797
X9.922 Y8.682
X10.099 Y8.61
X10.288 Y8.585
G3 X10.547 Y9.068 I-0.011 J0.317
G1 X10.482 Y9.173
X9.171 Y11.294
G3 X8.585 Y11.139 I-0.27 J-0.167
G1 Y9.537
X8.592 Y9.387
X8.619 Y9.227
X8.638 Y9.147
X8.71 Y8.965
X8.827 Y8.808
X8.981 Y8.687
X9.162 Y8.611
X9.356 Y8.585
G3 X9.604 Y9.085 I-0.011 J0.317
G1 X9.544 Y9.169
X9.16 Y9.709
G3 X8.585 Y9.537 I-0.258 J-0.184
G1 Y8.954
X8.587 Y8.881
X8.593 Y8.845
X8.604 Y8.809
X8.615 Y8.782
X8.629 Y8.755
X8.646 Y8.728
X8.668 Y8.702
X8.707 Y8.663
X8.734 Y8.642
X8.76 Y8.625
X8.787 Y8.612
X8.814 Y8.602
X8.85 Y8.592
X8.887 Y8.586
X8.959 Y8.585
X15.952
G3 X16.127 Y9.158 I-0.011 J0.317
G1 X16.07 Y9.2 Z-1.992
X16.016 Y9.239 Z-1.969
X15.968 Y9.274 Z-1.931
X15.927 Y9.304 Z-1.881
X15.896 Y9.326 Z-1.821
X15.878 Y9.34 Z-1.754
X15.871 Y9.345 Z-1.683
G0 Z5
X99.957 Y9.238
Z-1.366
G1 Z-1.683 F1000
X99.964 Y9.234 Z-1.754
X99.984 Y9.222 Z-1.821
X100.017 Y9.203 Z-1.881
X100.06 Y9.177 Z-1.931
X100.111 Y9.147 Z-1.969
X100.169 Y9.112 Z-1.992
X100.23 Y9.076 Z-2
G3 X101.902 Y8.585 I1.795 J3.02
G1 X104.816
X105.131 Y8.601
X105.368 Y8.632
X105.632 Y8.688
X105.927 Y8.777
X106.256 Y8.905
X106.618 Y9.08
X107.007 Y9.309
X107.427 Y9.605
X107.856 Y9.961
X108.289 Y10.383
X108.708 Y10.864
X109.09 Y11.379
X109.302 Y11.716
X109.364 Y11.839
X109.402 Y11.972
X109.415 Y12.11
G3 X108.908 Y12.353 I-0.317 J-0.011
G1 X108.832 Y12.296
X104.64 Y9.158
X104.637 Y9.156
G3 X104.816 Y8.585 I0.19 J-0.254
G1 X106.855
X107.005 Y8.592
X107.19 Y8.62
X107.4 Y8.669
X107.62 Y8.739
X107.888 Y8.849
X108.155 Y8.984
X108.479 Y9.183
X108.795 Y9.414
X109.161 Y9.729
X109.201 Y9.769
X109.317 Y9.922
X109.39 Y10.099
X109.415 Y10.289
G3 X108.932 Y10.548 I-0.317 J-0.011
G1 X108.827 Y10.483
X106.7 Y9.172
G3 X106.855 Y8.585 I0.166 J-0.27
G1 X108.458
X108.608 Y8.592
X108.765 Y8.618
X108.85 Y8.638
X109.033 Y8.71
X109.191 Y8.827
X109.312 Y8.981
X109.389 Y9.162
X109.415 Y9.357
G3 X108.915 Y9.605 I-0.317 J-0.011
G1 X108.831 Y9.545
X108.286 Y9.161
G3 X108.458 Y8.585 I0.183 J-0.259
G1 X109.041
X109.113 Y8.586
X109.15 Y8.592
X109.186 Y8.602
X109.213 Y8.612
X109.24 Y8.625
X109.266 Y8.642
X109.293 Y8.663
X109.332 Y8.702
X109.354 Y8.728
X109.371 Y8.755
X109.385 Y8.782
X109.396 Y8.809
X109.407 Y8.845
X109.413 Y8.881
X109.415 Y8.954
Y15.944
G3 X108.842 Y16.12 I-0.317 J-0.011
G1 X108.8 Y16.063 Z-1.992
X108.761 Y16.009 Z-1.969
X108.726 Y15.96 Z-1.931
X108.696 Y15.919 Z-1.881
X108.674 Y15.889 Z-1.821
X108.66 Y15.87 Z-1.754
X108.655 Y15.864 Z-1.683
G0 Z5
X108.762 Y38.465
Z-1.366
G1 Z-1.683 F1000
X108.766 Y38.472 Z-1.754
X108.778 Y38.492 Z-1.821
X108.797 Y38.524 Z-1.881
X108.823 Y38.567 Z-1.931
X108.853 Y38.619 Z-1.969
X108.888 Y38.677 Z-1.992
X108.924 Y38.737 Z-2
G3 X109.415 Y40.41 I-3.02 J1.795
G1 Y43.323
X109.4 Y43.631
X109.369 Y43.866
X109.313 Y44.129
X109.224 Y44.426
X109.096 Y44.752
X108.919 Y45.117
X108.687 Y45.513
X108.398 Y45.923
X108.035 Y46.361
X107.614 Y46.793
X107.138 Y47.208
X106.622 Y47.59
X106.284 Y47.802
X106.161 Y47.864
X106.028 Y47.902
X105.891 Y47.915
G3 X105.648 Y47.408 I0.011 J-0.317
G1 X105.705 Y47.332
X108.842 Y43.147
X108.845 Y43.144
G3 X109.415 Y43.323 I0.254 J0.19
G1 Y45.361
X109.408 Y45.511
X109.379 Y45.698
X109.329 Y45.909
X109.257 Y46.131
X109.145 Y46.401
X109.008 Y46.668
X108.807 Y46.995
X108.574 Y47.311
X108.258 Y47.676
X108.23 Y47.703
X108.078 Y47.818
X107.901 Y47.89
X107.712 Y47.915
G3 X107.453 Y47.432 I0.011 J-0.317
G1 X107.518 Y47.327
X108.829 Y45.206
G3 X109.415 Y45.361 I0.27 J0.167
G1 Y46.963
X109.408 Y47.113
X109.381 Y47.273
X109.362 Y47.353
X109.29 Y47.535
X109.173 Y47.692
X109.019 Y47.813
X108.838 Y47.889
X108.644 Y47.915
G3 X108.396 Y47.415 I0.011 J-0.317
G1 X108.456 Y47.331
X108.84 Y46.791
G3 X109.415 Y46.963 I0.258 J0.184
G1 Y47.546
X109.413 Y47.619
X109.407 Y47.655
X109.396 Y47.691
X109.385 Y47.718
X109.371 Y47.745
X109.354 Y47.772
X109.332 Y47.798
X109.293 Y47.837
X109.266 Y47.858
X109.24 Y47.875
X109.213 Y47.888
X109.186 Y47.898
X109.15 Y47.908
X109.113 Y47.914
X109.041 Y47.915
X102.048
G3 X101.743 Y47.617 I0.011 J-0.317
G1 X101.742 Y47.598 Z-1.999
X101.756 Y47.545 Z-1.991
X101.769 Y47.494 Z-1.973
X101.781 Y47.447 Z-1.946
X101.812 Y47.411 Z-1.907
X101.838 Y47.382 Z-1.859
X101.857 Y47.36 Z-1.804
X101.869 Y47.346 Z-1.745
X101.873 Y47.342 Z-1.683
G0 Z5
X18.043 Y47.262
Z-3.366
G1 Z-3.683 F1000
X18.036 Y47.266 Z-3.754
X18.016 Y47.278 Z-3.821
X17.983 Y47.297 Z-3.881
X17.94 Y47.323 Z-3.931
X17.889 Y47.353 Z-3.969
X17.831 Y47.388 Z-3.992
X17.77 Y47.424 Z-4
G3 X16.098 Y47.915 I-1.795 J-3.02
G1 X13.184
X12.869 Y47.899
X12.632 Y47.868
X12.368 Y47.812
X12.073 Y47.723
X11.744 Y47.595
X11.382 Y47.42
X10.991 Y47.19
X10.57 Y46.893
X10.147 Y46.542
X9.709 Y46.115
X9.289 Y45.633
X8.907 Y45.118
X8.698 Y44.784
X8.636 Y44.661
X8.598 Y44.528
X8.585 Y44.391
G3 X9.092 Y44.148 I0.317 J0.011
G1 X9.168 Y44.205
X13.36 Y47.342
X13.363 Y47.344
G3 X13.184 Y47.915 I-0.19 J0.254
G1 X11.145
X10.995 Y47.908
X10.81 Y47.88
X10.6 Y47.831
X10.381 Y47.761
X10.113 Y47.651
X9.846 Y47.516
X9.522 Y47.318
X9.205 Y47.087
X8.839 Y46.772
X8.799 Y46.731
X8.683 Y46.579
X8.61 Y46.401
X8.585 Y46.211
G3 X9.068 Y45.952 I0.317 J0.011
G1 X9.173 Y46.017
X11.3 Y47.328
G3 X11.145 Y47.915 I-0.166 J0.27
G1 X9.542
X9.392 Y47.908
X9.235 Y47.882
X9.15 Y47.862
X8.967 Y47.791
X8.809 Y47.673
X8.688 Y47.519
X8.611 Y47.338
X8.585 Y47.143
G3 X9.085 Y46.895 I0.317 J0.011
G1 X9.169 Y46.955
X9.714 Y47.339
G3 X9.542 Y47.915 I-0.183 J0.259
G1 X8.959
X8.887 Y47.914
X8.85 Y47.908
X8.814 Y47.898
X8.787 Y47.888
X8.76 Y47.875
X8.734 Y47.858
X8.707 Y47.837
X8.668 Y47.798
X8.646 Y47.772
X8.629 Y47.745
X8.615 Y47.718
X8.604 Y47.691
X8.593 Y47.655
X8.587 Y47.619
X8.585 Y47.546
Y40.556
G3 X9.158 Y40.38 I0.317 J0.011
G1 X9.2 Y40.437 Z-3.992
X9.239 Y40.491 Z-3.969
X9.274 Y40.54 Z-3.931
X9.304 Y40.581 Z-3.881
X9.326 Y40.611 Z-3.821
X9.34 Y40.63 Z-3.754
X9.345 Y40.636 Z-3.683
G0 Z5
X9.238 Y18.035
Z-3.366
G1 Z-3.683 F1000
X9.234 Y18.028 Z-3.754
X9.222 Y18.008 Z-3.821
X9.203 Y17.976 Z-3.881
X9.177 Y17.933 Z-3.931
X9.147 Y17.881 Z-3.969
X9.112 Y17.823 Z-3.992
X9.076 Y17.763 Z-4
G3 X8.585 Y16.09 I3.02 J-1.795
G1 Y13.177
X8.6 Y12.869
X8.631 Y12.634
X8.687 Y12.371
X8.776 Y12.074
X8.904 Y11.748
X9.081 Y11.383
X9.313 Y10.987
X9.602 Y10.577
X9.965 Y10.139
X10.386 Y9.707
X10.862 Y9.292
X11.378 Y8.91
X11.716 Y8.698
X11.839 Y8.636
X11.972 Y8.598
X12.109 Y8.585
G3 X12.352 Y9.092 I-0.011 J0.317
G1 X12.295 Y9.168
X9.158 Y13.353
X9.155 Y13.356
G3 X8.585 Y13.177 I-0.254 J-0.19
G1 Y11.139
X8.592 Y10.989
X8.621 Y10.802
X8.671 Y10.591
X8.743 Y10.369
X8.855 Y10.099
X8.992 Y9.832
X9.193 Y9.505
X9.426 Y9.189
X9.742 Y8.824
X9.77 Y8.797
X9.922 Y8.682
X10.099 Y8.61
X10.288 Y8.585
G3 X10.547 Y9.068 I-0.011 J0.317
G1 X10.482 Y9.173
X9.171 Y11.294
G3 X8.585 Y11.139 I-0.27 J-0.167
G1 Y9.537
X8.592 Y9.387
X8.619 Y9.227
X8.638 Y9.147
X8.71 Y8.965
X8.827 Y8.808
X8.981 Y8.687
X9.162 Y8.611
X9.356 Y8.585
G3 X9.604 Y9.085 I-0.011 J0.317
G1 X9.544 Y9.169
X9.16 Y9.709
G3 X8.585 Y9.537 I-0.258 J-0.184
G1 Y8.954
X8.587 Y8.881
X8.593 Y8.845
X8.604 Y8.809
X8.615 Y8.782
X8.629 Y8.755
X8.646 Y8.728
X8.668 Y8.702
X8.707 Y8.663
X8.734 Y8.642
X8.76 Y8.625
X8.787 Y8.612
X8.814 Y8.602
X8.85 Y8.592
X8.887 Y8.586
X8.959 Y8.585
X15.952
G3 X16.127 Y9.158 I-0.011 J0.317
G1 X16.07 Y9.2 Z-3.992
X16.016 Y9.239 Z-3.969
X15.968 Y9.274 Z-3.931
X15.927 Y9.304 Z-3.881
X15.896 Y9.326 Z-3.821
X15.878 Y9.34 Z-3.754
X15.871 Y9.345 Z-3.683
G0 Z5
X99.957 Y9.238
Z-3.366
G1 Z-3.683 F1000
X99.964 Y9.234 Z-3.754
X99.984 Y9.222 Z-3.821
X100.017 Y9.203 Z-3.881
X100.06 Y9.177 Z-3.931
X100.111 Y9.147 Z-3.969
X100.169 Y9.112 Z-3.992
X100.23 Y9.076 Z-4
G3 X101.902 Y8.585 I1.795 J3.02
G1 X104.816
X105.131 Y8.601
X105.368 Y8.632
X105.632 Y8.688
X105.927 Y8.777
X106.256 Y8.905
X106.618 Y9.08
X107.007 Y9.309
X107.427 Y9.605
X107.856 Y9.961
X108.289 Y10.383
X108.708 Y10.864
X109.09 Y11.379
X109.302 Y11.716
X109.364 Y11.839
X109.402 Y11.972
X109.415 Y12.11
G3 X108.908 Y12.353 I-0.317 J-0.011
G1 X108.832 Y12.296
X104.64 Y9.158
X104.637 Y9.156
G3 X104.816 Y8.585 I0.19 J-0.254
G1 X106.855
X107.005 Y8.592
X107.19 Y8.62
X107.4 Y8.669
X107.62 Y8.739
X107.888 Y8.849
X108.155 Y8.984
X108.479 Y9.183
X108.795 Y9.414
X109.161 Y9.729
X109.201 Y9.769
X109.317 Y9.922
X109.39 Y10.099
X109.415 Y10.289
G3 X108.932 Y10.548 I-0.317 J-0.011
G1 X108.827 Y10.483
X106.7 Y9.172
G3 X106.855 Y8.585 I0.166 J-0.27
G1 X108.458
X108.608 Y8.592
X108.765 Y8.618
X108.85 Y8.638
X109.033 Y8.71
X109.191 Y8.827
X109.312 Y8.981
X109.389 Y9.162
X109.415 Y9.357
G3 X108.915 Y9.605 I-0.317 J-0.011
G1 X108.831 Y9.545
X108.286 Y9.161
G3 X108.458 Y8.585 I0.183 J-0.259
G1 X109.041
X109.113 Y8.586
X109.15 Y8.592
X109.186 Y8.602
X109.213 Y8.612
X109.24 Y8.625
X109.266 Y8.642
X109.293 Y8.663
X109.332 Y8.702
X109.354 Y8.728
X109.371 Y8.755
X109.385 Y8.782
X109.396 Y8.809
X109.407 Y8.845
X109.413 Y8.881
X109.415 Y8.954
Y15.944
G3 X108.842 Y16.12 I-0.317 J-0.011
G1 X108.8 Y16.063 Z-3.992
X108.761 Y16.009 Z-3.969
X108.726 Y15.96 Z-3.931
X108.696 Y15.919 Z-3.881
X108.674 Y15.889 Z-3.821
X108.66 Y15.87 Z-3.754
X108.655 Y15.864 Z-3.683
G0 Z5
X108.762 Y38.465
Z-3.366
G1 Z-3.683 F1000
X108.766 Y38.472 Z-3.754
X108.778 Y38.492 Z-3.821
X108.797 Y38.524 Z-3.881
X108.823 Y38.567 Z-3.931
X108.853 Y38.619 Z-3.969
X108.888 Y38.677 Z-3.992
X108.924 Y38.737 Z-4
G3 X109.415 Y40.41 I-3.02 J1.795
G1 Y43.323
X109.4 Y43.631
X109.369 Y43.866
X109.313 Y44.129
X109.224 Y44.426
X109.096 Y44.752
X108.919 Y45.117
X108.687 Y45.513
X108.398 Y45.923
X108.035 Y46.361
X107.614 Y46.793
X107.138 Y47.208
X106.622 Y47.59
X106.284 Y47.802
X106.161 Y47.864
X106.028 Y47.902
X105.891 Y47.915
G3 X105.648 Y47.408 I0.011 J-0.317
G1 X105.705 Y47.332
X108.842 Y43.147
X108.845 Y43.144
G3 X109.415 Y43.323 I0.254 J0.19
G1 Y45.361
X109.408 Y45.511
X109.379 Y45.698
X109.329 Y45.909
X109.257 Y46.131
X109.145 Y46.401
X109.008 Y46.668
X108.807 Y46.995
X108.574 Y47.311
X108.258 Y47.676
X108.23 Y47.703
X108.078 Y47.818
X107.901 Y47.89
X107.712 Y47.915
G3 X107.453 Y47.432 I0.011 J-0.317
G1 X107.518 Y47.327
X108.829 Y45.206
G3 X109.415 Y45.361 I0.27 J0.167
G1 Y46.963
X109.408 Y47.113
X109.381 Y47.273
X109.362 Y47.353
X109.29 Y47.535
X109.173 Y47.692
X109.019 Y47.813
X108.838 Y47.889
X108.644 Y47.915
G3 X108.396 Y47.415 I0.011 J-0.317
G1 X108.456 Y47.331
X108.84 Y46.791
G3 X109.415 Y46.963 I0.258 J0.184
G1 Y47.546
X109.413 Y47.619
X109.407 Y47.655
X109.396 Y47.691
X109.385 Y47.718
X109.371 Y47.745
X109.354 Y47.772
X109.332 Y47.798
X109.293 Y47.837
X109.266 Y47.858
X109.24 Y47.875
X109.213 Y47.888
X109.186 Y47.898
X109.15 Y47.908
X109.113 Y47.914
X109.041 Y47.915
X102.048
G3 X101.743 Y47.617 I0.011 J-0.317
G1 X101.742 Y47.598 Z-3.999
X101.756 Y47.545 Z-3.991
X101.769 Y47.494 Z-3.973
X101.781 Y47.447 Z-3.946
X101.812 Y47.411 Z-3.907
X101.838 Y47.382 Z-3.859
X101.857 Y47.36 Z-3.804
X101.869 Y47.346 Z-3.745
X101.873 Y47.342 Z-3.683
G0 Z5
X18.043 Y47.262
Z-5.366
G1 Z-5.683 F1000
X18.036 Y47.266 Z-5.754
X18.016 Y47.278 Z-5.821
X17.983 Y47.297 Z-5.881
X17.94 Y47.323 Z-5.931
X17.889 Y47.353 Z-5.969
X17.831 Y47.388 Z-5.992
X17.77 Y47.424 Z-6
G3 X16.098 Y47.915 I-1.795 J-3.02
G1 X13.184
X12.869 Y47.899
X12.632 Y47.868
X12.368 Y47.812
X12.073 Y47.723
X11.744 Y47.595
X11.382 Y47.42
X10.991 Y47.19
X10.57 Y46.893
X10.147 Y46.542
X9.709 Y46.115
X9.289 Y45.633
X8.907 Y45.118
X8.698 Y44.784
X8.636 Y44.661
X8.598 Y44.528
X8.585 Y44.391
G3 X9.092 Y44.148 I0.317 J0.011
G1 X9.168 Y44.205
X13.36 Y47.342
X13.363 Y47.344
G3 X13.184 Y47.915 I-0.19 J0.254
G1 X11.145
X10.995 Y47.908
X10.81 Y47.88
X10.6 Y47.831
X10.381 Y47.761
X10.113 Y47.651
X9.846 Y47.516
X9.522 Y47.318
X9.205 Y47.087
X8.839 Y46.772
X8.799 Y46.731
X8.683 Y46.579
X8.61 Y46.401
X8.585 Y46.211
G3 X9.068 Y45.952 I0.317 J0.011
G1 X9.173 Y46.017
X11.3 Y47.328
G3 X11.145 Y47.915 I-0.166 J0.27
G1 X9.542
X9.392 Y47.908
X9.235 Y47.882
X9.15 Y47.862
X8.967 Y47.791
X8.809 Y47.673
X8.688 Y47.519
X8.611 Y47.338
X8.585 Y47.143
G3 X9.085 Y46.895 I0.317 J0.011
G1 X9.169 Y46.955
X9.714 Y47.339
G3 X9.542 Y47.915 I-0.183 J0.259
G1 X8.959
X8.887 Y47.914
X8.85 Y47.908
X8.814 Y47.898
X8.787 Y47.888
X8.76 Y47.875
X8.734 Y47.858
X8.707 Y47.837
X8.668 Y47.798
X8.646 Y47.772
X8.629 Y47.745
X8.615 Y47.718
X8.604 Y47.691
X8.593 Y47.655
X8.587 Y47.619
X8.585 Y47.546
Y40.556
G3 X9.158 Y40.38 I0.317 J0.011
G1 X9.2 Y40.437 Z-5.992
X9.239 Y40.491 Z-5.969
X9.274 Y40.54 Z-5.931
X9.304 Y40.581 Z-5.881
X9.326 Y40.611 Z-5.821
X9.34 Y40.63 Z-5.754
X9.345 Y40.636 Z-5.683
G0 Z5
X9.238 Y18.035
Z-5.366
G1 Z-5.683 F1000
X9.234 Y18.028 Z-5.754
X9.222 Y18.008 Z-5.821
X9.203 Y17.976 Z-5.881
X9.177 Y17.933 Z-5.931
X9.147 Y17.881 Z-5.969
X9.112 Y17.823 Z-5.992
X9.076 Y17.763 Z-6
G3 X8.585 Y16.09 I3.02 J-1.795
G1 Y13.177
X8.6 Y12.869
X8.631 Y12.634
X8.687 Y12.371
X8.776 Y12.074
X8.904 Y11.748
X9.081 Y11.383
X9.313 Y10.987
X9.602 Y10.577
X9.965 Y10.139
X10.386 Y9.707
X10.862 Y9.292
X11.378 Y8.91
X11.716 Y8.698
X11.839 Y8.636
X11.972 Y8.598
X12.109 Y8.585
G3 X12.352 Y9.092 I-0.011 J0.317
G1 X12.295 Y9.168
X9.158 Y13.353
X9.155 Y13.356
G3 X8.585 Y13.177 I-0.254 J-0.19
G1 Y11.139
X8.592 Y10.989
X8.621 Y10.802
X8.671 Y10.591
X8.743 Y10.369
X8.855 Y10.099
X8.992 Y9.832
X9.193 Y9.505
X9.426 Y9.189
X9.742 Y8.824
X9.77 Y8.797
X9.922 Y8.682
X10.099 Y8.61
X10.288 Y8.585
G3 X10.547 Y9.068 I-0.011 J0.317
G1 X10.482 Y9.173
X9.171 Y11.294
G3 X8.585 Y11.139 I-0.27 J-0.167
G1 Y9.537
X8.592 Y9.387
X8.619 Y9.227
X8.638 Y9.147
X8.71 Y8.965
X8.827 Y8.808
X8.981 Y8.687
X9.162 Y8.611
X9.356 Y8.585
G3 X9.604 Y9.085 I-0.011 J0.317
G1 X9.544 Y9.169
X9.16 Y9.709
G3 X8.585 Y9.537 I-0.258 J-0.184
G1 Y8.954
X8.587 Y8.881
X8.593 Y8.845
X8.604 Y8.809
X8.615 Y8.782
X8.629 Y8.755
X8.646 Y8.728
X8.668 Y8.702
X8.707 Y8.663
X8.734 Y8.642
X8.76 Y8.625
X8.787 Y8.612
X8.814 Y8.602
X8.85 Y8.592
X8.887 Y8.586
X8.959 Y8.585
X15.952
G3 X16.127 Y9.158 I-0.011 J0.317
G1 X16.07 Y9.2 Z-5.992
X16.016 Y9.239 Z-5.969
X15.968 Y9.274 Z-5.931
X15.927 Y9.304 Z-5.881
X15.896 Y9.326 Z-5.821
X15.878 Y9.34 Z-5.754
X15.871 Y9.345 Z-5.683
G0 Z5
X99.957 Y9.238
Z-5.366
G1 Z-5.683 F1000
X99.964 Y9.234 Z-5.754
X99.984 Y9.222 Z-5.821
X100.017 Y9.203 Z-5.881
X100.06 Y9.177 Z-5.931
X100.111 Y9.147 Z-5.969
X100.169 Y9.112 Z-5.992
X100.23 Y9.076 Z-6
G3 X101.902 Y8.585 I1.795 J3.02
G1 X104.816
X105.131 Y8.601
X105.368 Y8.632
X105.632 Y8.688
X105.927 Y8.777
X106.256 Y8.905
X106.618 Y9.08
X107.007 Y9.309
X107.427 Y9.605
X107.856 Y9.961
X108.289 Y10.383
X108.708 Y10.864
X109.09 Y11.379
X109.302 Y11.716
X109.364 Y11.839
X109.402 Y11.972
X109.415 Y12.11
G3 X108.908 Y12.353 I-0.317 J-0.011
G1 X108.832 Y12.296
X104.64 Y9.158
X104.637 Y9.156
G3 X104.816 Y8.585 I0.19 J-0.254
G1 X106.855
X107.005 Y8.592
X107.19 Y8.62
X107.4 Y8.669
X107.62 Y8.739
X107.888 Y8.849
X108.155 Y8.984
X108.479 Y9.183
X108.795 Y9.414
X109.161 Y9.729
X109.201 Y9.769
X109.317 Y9.922
X109.39 Y10.099
X109.415 Y10.289
G3 X108.932 Y10.548 I-0.317 J-0.011
G1 X108.827 Y10.483
X106.7 Y9.172
G3 X106.855 Y8.585 I0.166 J-0.27
G1 X108.458
X108.608 Y8.592
X108.765 Y8.618
X108.85 Y8.638
X109.033 Y8.71
X109.191 Y8.827
X109.312 Y8.981
X109.389 Y9.162
X109.415 Y9.357
G3 X108.915 Y9.605 I-0.317 J-0.011
G1 X108.831 Y9.545
X108.286 Y9.161
G3 X108.458 Y8.585 I0.183 J-0.259
G1 X109.041
X109.113 Y8.586
X109.15 Y8.592
X109.186 Y8.602
X109.213 Y8.612
X109.24 Y8.625
X109.266 Y8.642
X109.293 Y8.663
X109.332 Y8.702
X109.354 Y8.728
X109.371 Y8.755
X109.385 Y8.782
X109.396 Y8.809
X109.407 Y8.845
X109.413 Y8.881
X109.415 Y8.954
Y15.944
G3 X108.842 Y16.12 I-0.317 J-0.011
G1 X108.8 Y16.063 Z-5.992
X108.761 Y16.009 Z-5.969
X108.726 Y15.96 Z-5.931
X108.696 Y15.919 Z-5.881
X108.674 Y15.889 Z-5.821
X108.66 Y15.87 Z-5.754
X108.655 Y15.864 Z-5.683
G0 Z5
X108.762 Y38.465
Z-5.366
G1 Z-5.683 F1000
X108.766 Y38.472 Z-5.754
X108.778 Y38.492 Z-5.821
X108.797 Y38.524 Z-5.881
X108.823 Y38.567 Z-5.931
X108.853 Y38.619 Z-5.969
X108.888 Y38.677 Z-5.992
X108.924 Y38.737 Z-6
G3 X109.415 Y40.41 I-3.02 J1.795
G1 Y43.323
X109.4 Y43.631
X109.369 Y43.866
X109.313 Y44.129
X109.224 Y44.426
X109.096 Y44.752
X108.919 Y45.117
X108.687 Y45.513
X108.398 Y45.923
X108.035 Y46.361
X107.614 Y46.793
X107.138 Y47.208
X106.622 Y47.59
X106.284 Y47.802
X106.161 Y47.864
X106.028 Y47.902
X105.891 Y47.915
G3 X105.648 Y47.408 I0.011 J-0.317
G1 X105.705 Y47.332
X108.842 Y43.147
X108.845 Y43.144
G3 X109.415 Y43.323 I0.254 J0.19
G1 Y45.361
X109.408 Y45.511
X109.379 Y45.698
X109.329 Y45.909
X109.257 Y46.131
X109.145 Y46.401
X109.008 Y46.668
X108.807 Y46.995
X108.574 Y47.311
X108.258 Y47.676
X108.23 Y47.703
X108.078 Y47.818
X107.901 Y47.89
X107.712 Y47.915
G3 X107.453 Y47.432 I0.011 J-0.317
G1 X107.518 Y47.327
X108.829 Y45.206
G3 X109.415 Y45.361 I0.27 J0.167
G1 Y46.963
X109.408 Y47.113
X109.381 Y47.273
X109.362 Y47.353
X109.29 Y47.535
X109.173 Y47.692
X109.019 Y47.813
X108.838 Y47.889
X108.644 Y47.915
G3 X108.396 Y47.415 I0.011 J-0.317
G1 X108.456 Y47.331
X108.84 Y46.791
G3 X109.415 Y46.963 I0.258 J0.184
G1 Y47.546
X109.413 Y47.619
X109.407 Y47.655
X109.396 Y47.691
X109.385 Y47.718
X109.371 Y47.745
X109.354 Y47.772
X109.332 Y47.798
X109.293 Y47.837
X109.266 Y47.858
X109.24 Y47.875
X109.213 Y47.888
X109.186 Y47.898
X109.15 Y47.908
X109.113 Y47.914
X109.041 Y47.915
X102.048
G3 X101.743 Y47.617 I0.011 J-0.317
G1 X101.742 Y47.598 Z-5.999
X101.756 Y47.545 Z-5.991
X101.769 Y47.494 Z-5.973
X101.781 Y47.447 Z-5.946
X101.812 Y47.411 Z-5.907
X101.838 Y47.382 Z-5.859
X101.857 Y47.36 Z-5.804
X101.869 Y47.346 Z-5.745
X101.873 Y47.342 Z-5.683
G0 Z5
X18.043 Y47.262
Z-7.366
G1 Z-7.683 F1000
X18.036 Y47.266 Z-7.754
X18.016 Y47.278 Z-7.821
X17.983 Y47.297 Z-7.881
X17.94 Y47.323 Z-7.931
X17.889 Y47.353 Z-7.969
X17.831 Y47.388 Z-7.992
X17.77 Y47.424 Z-8
G3 X16.098 Y47.915 I-1.795 J-3.02
G1 X13.184
X12.869 Y47.899
X12.632 Y47.868
X12.368 Y47.812
X12.073 Y47.723
X11.744 Y47.595
X11.382 Y47.42
X10.991 Y47.19
X10.57 Y46.893
X10.147 Y46.542
X9.709 Y46.115
X9.289 Y45.633
X8.907 Y45.118
X8.698 Y44.784
X8.636 Y44.661
X8.598 Y44.528
X8.585 Y44.391
G3 X9.092 Y44.148 I0.317 J0.011
G1 X9.168 Y44.205
X13.36 Y47.342
X13.363 Y47.344
G3 X13.184 Y47.915 I-0.19 J0.254
G1 X11.145
X10.995 Y47.908
X10.81 Y47.88
X10.6 Y47.831
X10.381 Y47.761
X10.113 Y47.651
X9.846 Y47.516
X9.522 Y47.318
X9.205 Y47.087
X8.839 Y46.772
X8.799 Y46.731
X8.683 Y46.579
X8.61 Y46.401
X8.585 Y46.211
G3 X9.068 Y45.952 I0.317 J0.011
G1 X9.173 Y46.017
X11.3 Y47.328
G3 X11.145 Y47.915 I-0.166 J0.27
G1 X9.542
X9.392 Y47.908
X9.235 Y47.882
X9.15 Y47.862
X8.967 Y47.791
X8.809 Y47.673
X8.688 Y47.519
X8.611 Y47.338
X8.585 Y47.143
G3 X9.085 Y46.895 I0.317 J0.011
G1 X9.169 Y46.955
X9.714 Y47.339
G3 X9.542 Y47.915 I-0.183 J0.259
G1 X8.959
X8.887 Y47.914
X8.85 Y47.908
X8.814 Y47.898
X8.787 Y47.888
X8.76 Y47.875
X8.734 Y47.858
X8.707 Y47.837
X8.668 Y47.798
X8.646 Y47.772
X8.629 Y47.745
X8.615 Y47.718
X8.604 Y47.691
X8.593 Y47.655
X8.587 Y47.619
X8.585 Y47.546
Y40.556
G3 X9.158 Y40.38 I0.317 J0.011
G1 X9.2 Y40.437 Z-7.992
X9.239 Y40.491 Z-7.969
X9.274 Y40.54 Z-7.931
X9.304 Y40.581 Z-7.881
X9.326 Y40.611 Z-7.821
X9.34 Y40.63 Z-7.754
X9.345 Y40.636 Z-7.683
G0 Z5
X9.238 Y18.035
Z-7.366
G1 Z-7.683 F1000
X9.234 Y18.028 Z-7.754
X9.222 Y18.008 Z-7.821
X9.203 Y17.976 Z-7.881
X9.177 Y17.933 Z-7.931
X9.147 Y17.881 Z-7.969
X9.112 Y17.823 Z-7.992
X9.076 Y17.763 Z-8
G3 X8.585 Y16.09 I3.02 J-1.795
G1 Y13.177
X8.6 Y12.869
X8.631 Y12.634
X8.687 Y12.371
X8.776 Y12.074
X8.904 Y11.748
X9.081 Y11.383
X9.313 Y10.987
X9.602 Y10.577
X9.965 Y10.139
X10.386 Y9.707
X10.862 Y9.292
X11.378 Y8.91
X11.716 Y8.698
X11.839 Y8.636
X11.972 Y8.598
X12.109 Y8.585
G3 X12.352 Y9.092 I-0.011 J0.317
G1 X12.295 Y9.168
X9.158 Y13.353
X9.155 Y13.356
G3 X8.585 Y13.177 I-0.254 J-0.19
G1 Y11.139
X8.592 Y10.989
X8.621 Y10.802
X8.671 Y10.591
X8.743 Y10.369
X8.855 Y10.099
X8.992 Y9.832
X9.193 Y9.505
X9.426 Y9.189
X9.742 Y8.824
X9.77 Y8.797
X9.922 Y8.682
X10.099 Y8.61
X10.288 Y8.585
G3 X10.547 Y9.068 I-0.011 J0.317
G1 X10.482 Y9.173
X9.171 Y11.294
G3 X8.585 Y11.139 I-0.27 J-0.167
G1 Y9.537
X8.592 Y9.387
X8.619 Y9.227
X8.638 Y9.147
X8.71 Y8.965
X8.827 Y8.808
X8.981 Y8.687
X9.162 Y8.611
X9.356 Y8.585
G3 X9.604 Y9.085 I-0.011 J0.317
G1 X9.544 Y9.169
X9.16 Y9.709
G3 X8.585 Y9.537 I-0.258 J-0.184
G1 Y8.954
X8.587 Y8.881
X8.593 Y8.845
X8.604 Y8.809
X8.615 Y8.782
X8.629 Y8.755
X8.646 Y8.728
X8.668 Y8.702
X8.707 Y8.663
X8.734 Y8.642
X8.76 Y8.625
X8.787 Y8.612
X8.814 Y8.602
X8.85 Y8.592
X8.887 Y8.586
X8.959 Y8.585
X15.952
G3 X16.127 Y9.158 I-0.011 J0.317
G1 X16.07 Y9.2 Z-7.992
X16.016 Y9.239 Z-7.969
X15.968 Y9.274 Z-7.931
X15.927 Y9.304 Z-7.881
X15.896 Y9.326 Z-7.821
X15.878 Y9.34 Z-7.754
X15.871 Y9.345 Z-7.683
G0 Z5
X99.957 Y9.238
Z-7.366
G1 Z-7.683 F1000
X99.964 Y9.234 Z-7.754
X99.984 Y9.222 Z-7.821
X100.017 Y9.203 Z-7.881
X100.06 Y9.177 Z-7.931
X100.111 Y9.147 Z-7.969
X100.169 Y9.112 Z-7.992
X100.23 Y9.076 Z-8
G3 X101.902 Y8.585 I1.795 J3.02
G1 X104.816
X105.131 Y8.601
X105.368 Y8.632
X105.632 Y8.688
X105.927 Y8.777
X106.256 Y8.905
X106.618 Y9.08
X107.007 Y9.309
X107.427 Y9.605
X107.856 Y9.961
X108.289 Y10.383
X108.708 Y10.864
X109.09 Y11.379
X109.302 Y11.716
X109.364 Y11.839
X109.402 Y11.972
X109.415 Y12.11
G3 X108.908 Y12.353 I-0.317 J-0.011
G1 X108.832 Y12.296
X104.64 Y9.158
X104.637 Y9.156
G3 X104.816 Y8.585 I0.19 J-0.254
G1 X106.855
X107.005 Y8.592
X107.19 Y8.62
X107.4 Y8.669
X107.62 Y8.739
X107.888 Y8.849
X108.155 Y8.984
X108.479 Y9.183
X108.795 Y9.414
X109.161 Y9.729
X109.201 Y9.769
X109.317 Y9.922
X109.39 Y10.099
X109.415 Y10.289
G3 X108.932 Y10.548 I-0.317 J-0.011
G1 X108.827 Y10.483
X106.7 Y9.172
G3 X106.855 Y8.585 I0.166 J-0.27
G1 X108.458
X108.608 Y8.592
X108.765 Y8.618
X108.85 Y8.638
X109.033 Y8.71
X109.191 Y8.827
X109.312 Y8.981
X109.389 Y9.162
X109.415 Y9.357
G3 X108.915 Y9.605 I-0.317 J-0.011
G1 X108.831 Y9.545
X108.286 Y9.161
G3 X108.458 Y8.585 I0.183 J-0.259
G1 X109.041
X109.113 Y8.586
X109.15 Y8.592
X109.186 Y8.602
X109.213 Y8.612
X109.24 Y8.625
X109.266 Y8.642
X109.293 Y8.663
X109.332 Y8.702
X109.354 Y8.728
X109.371 Y8.755
X109.385 Y8.782
X109.396 Y8.809
X109.407 Y8.845
X109.413 Y8.881
X109.415 Y8.954
Y15.944
G3 X108.842 Y16.12 I-0.317 J-0.011
G1 X108.8 Y16.063 Z-7.992
X108.761 Y16.009 Z-7.969
X108.726 Y15.96 Z-7.931
X108.696 Y15.919 Z-7.881
X108.674 Y15.889 Z-7.821
X108.66 Y15.87 Z-7.754
X108.655 Y15.864 Z-7.683
G0 Z5
X108.762 Y38.465
Z-7.366
G1 Z-7.683 F1000
X108.766 Y38.472 Z-7.754
X108.778 Y38.492 Z-7.821
X108.797 Y38.524 Z-7.881
X108.823 Y38.567 Z-7.931
X108.853 Y38.619 Z-7.969
X108.888 Y38.677 Z-7.992
X108.924 Y38.737 Z-8
G3 X109.415 Y40.41 I-3.02 J1.795
G1 Y43.323
X109.4 Y43.631
X109.369 Y43.866
X109.313 Y44.129
X109.224 Y44.426
X109.096 Y44.752
X108.919 Y45.117
X108.687 Y45.513
X108.398 Y45.923
X108.035 Y46.361
X107.614 Y46.793
X107.138 Y47.208
X106.622 Y47.59
X106.284 Y47.802
X106.161 Y47.864
X106.028 Y47.902
X105.891 Y47.915
G3 X105.648 Y47.408 I0.011 J-0.317
G1 X105.705 Y47.332
X108.842 Y43.147
X108.845 Y43.144
G3 X109.415 Y43.323 I0.254 J0.19
G1 Y45.361
X109.408 Y45.511
X109.379 Y45.698
X109.329 Y45.909
X109.257 Y46.131
X109.145 Y46.401
X109.008 Y46.668
X108.807 Y46.995
X108.574 Y47.311
X108.258 Y47.676
X108.23 Y47.703
X108.078 Y47.818
X107.901 Y47.89
X107.712 Y47.915
G3 X107.453 Y47.432 I0.011 J-0.317
G1 X107.518 Y47.327
X108.829 Y45.206
G3 X109.415 Y45.361 I0.27 J0.167
G1 Y46.963
X109.408 Y47.113
X109.381 Y47.273
X109.362 Y47.353
X109.29 Y47.535
X109.173 Y47.692
X109.019 Y47.813
X108.838 Y47.889
X108.644 Y47.915
G3 X108.396 Y47.415 I0.011 J-0.317
G1 X108.456 Y47.331
X108.84 Y46.791
G3 X109.415 Y46.963 I0.258 J0.184
G1 Y47.546
X109.413 Y47.619
X109.407 Y47.655
X109.396 Y47.691
X109.385 Y47.718
X109.371 Y47.745
X109.354 Y47.772
X109.332 Y47.798
X109.293 Y47.837
X109.266 Y47.858
X109.24 Y47.875
X109.213 Y47.888
X109.186 Y47.898
X109.15 Y47.908
X109.113 Y47.914
X109.041 Y47.915
X102.048
G3 X101.743 Y47.617 I0.011 J-0.317
G1 X101.742 Y47.598 Z-7.999
X101.756 Y47.545 Z-7.991
X101.769 Y47.494 Z-7.973
X101.781 Y47.447 Z-7.946
X101.812 Y47.411 Z-7.907
X101.838 Y47.382 Z-7.859
X101.857 Y47.36 Z-7.804
X101.869 Y47.346 Z-7.745
X101.873 Y47.342 Z-7.683
G0 Z5
X18.043 Y47.262
Z-9.366
G1 Z-9.683 F1000
X18.036 Y47.266 Z-9.754
X18.016 Y47.278 Z-9.821
X17.983 Y47.297 Z-9.881
X17.94 Y47.323 Z-9.931
X17.889 Y47.353 Z-9.969
X17.831 Y47.388 Z-9.992
X17.77 Y47.424 Z-10
G3 X16.098 Y47.915 I-1.795 J-3.02
G1 X13.184
X12.869 Y47.899
X12.632 Y47.868
X12.368 Y47.812
X12.073 Y47.723
X11.744 Y47.595
X11.382 Y47.42
X10.991 Y47.19
X10.57 Y46.893
X10.147 Y46.542
X9.709 Y46.115
X9.289 Y45.633
X8.907 Y45.118
X8.698 Y44.784
X8.636 Y44.661
X8.598 Y44.528
X8.585 Y44.391
G3 X9.092 Y44.148 I0.317 J0.011
G1 X9.168 Y44.205
X13.36 Y47.342
X13.363 Y47.344
G3 X13.184 Y47.915 I-0.19 J0.254
G1 X11.145
X10.995 Y47.908
X10.81 Y47.88
X10.6 Y47.831
X10.381 Y47.761
X10.113 Y47.651
X9.846 Y47.516
X9.522 Y47.318
X9.205 Y47.087
X8.839 Y46.772
X8.799 Y46.731
X8.683 Y46.579
X8.61 Y46.401
X8.585 Y46.211
G3 X9.068 Y45.952 I0.317 J0.011
G1 X9.173 Y46.017
X11.3 Y47.328
G3 X11.145 Y47.915 I-0.166 J0.27
G1 X9.542
X9.392 Y47.908
X9.235 Y47.882
X9.15 Y47.862
X8.967 Y47.791
X8.809 Y47.673
X8.688 Y47.519
X8.611 Y47.338
X8.585 Y47.143
G3 X9.085 Y46.895 I0.317 J0.011
G1 X9.169 Y46.955
X9.714 Y47.339
G3 X9.542 Y47.915 I-0.183 J0.259
G1 X8.959
X8.887 Y47.914
X8.85 Y47.908
X8.814 Y47.898
X8.787 Y47.888
X8.76 Y47.875
X8.734 Y47.858
X8.707 Y47.837
X8.668 Y47.798
X8.646 Y47.772
X8.629 Y47.745
X8.615 Y47.718
X8.604 Y47.691
X8.593 Y47.655
X8.587 Y47.619
X8.585 Y47.546
Y40.556
G3 X9.158 Y40.38 I0.317 J0.011
G1 X9.2 Y40.437 Z-9.992
X9.239 Y40.491 Z-9.969
X9.274 Y40.54 Z-9.931
X9.304 Y40.581 Z-9.881
X9.326 Y40.611 Z-9.821
X9.34 Y40.63 Z-9.754
X9.345 Y40.636 Z-9.683
G0 Z5
X9.238 Y18.035
Z-9.366
G1 Z-9.683 F1000
X9.234 Y18.028 Z-9.754
X9.222 Y18.008 Z-9.821
X9.203 Y17.976 Z-9.881
X9.177 Y17.933 Z-9.931
X9.147 Y17.881 Z-9.969
X9.112 Y17.823 Z-9.992
X9.076 Y17.763 Z-10
G3 X8.585 Y16.09 I3.02 J-1.795
G1 Y13.177
X8.6 Y12.869
X8.631 Y12.634
X8.687 Y12.371
X8.776 Y12.074
X8.904 Y11.748
X9.081 Y11.383
X9.313 Y10.987
X9.602 Y10.577
X9.965 Y10.139
X10.386 Y9.707
X10.862 Y9.292
X11.378 Y8.91
X11.716 Y8.698
X11.839 Y8.636
X11.972 Y8.598
X12.109 Y8.585
G3 X12.352 Y9.092 I-0.011 J0.317
G1 X12.295 Y9.168
X9.158 Y13.353
X9.155 Y13.356
G3 X8.585 Y13.177 I-0.254 J-0.19
G1 Y11.139
X8.592 Y10.989
X8.621 Y10.802
X8.671 Y10.591
X8.743 Y10.369
X8.855 Y10.099
X8.992 Y9.832
X9.193 Y9.505
X9.426 Y9.189
X9.742 Y8.824
X9.77 Y8.797
X9.922 Y8.682
X10.099 Y8.61
X10.288 Y8.585
G3 X10.547 Y9.068 I-0.011 J0.317
G1 X10.482 Y9.173
X9.171 Y11.294
G3 X8.585 Y11.139 I-0.27 J-0.167
G1 Y9.537
X8.592 Y9.387
X8.619 Y9.227
X8.638 Y9.147
X8.71 Y8.965
X8.827 Y8.808
X8.981 Y8.687
X9.162 Y8.611
X9.356 Y8.585
G3 X9.604 Y9.085 I-0.011 J0.317
G1 X9.544 Y9.169
X9.16 Y9.709
G3 X8.585 Y9.537 I-0.258 J-0.184
G1 Y8.954
X8.587 Y8.881
X8.593 Y8.845
X8.604 Y8.809
X8.615 Y8.782
X8.629 Y8.755
X8.646 Y8.728
X8.668 Y8.702
X8.707 Y8.663
X8.734 Y8.642
X8.76 Y8.625
X8.787 Y8.612
X8.814 Y8.602
X8.85 Y8.592
X8.887 Y8.586
X8.959 Y8.585
X15.952
G3 X16.127 Y9.158 I-0.011 J0.317
G1 X16.07 Y9.2 Z-9.992
X16.016 Y9.239 Z-9.969
X15.968 Y9.274 Z-9.931
X15.927 Y9.304 Z-9.881
X15.896 Y9.326 Z-9.821
X15.878 Y9.34 Z-9.754
X15.871 Y9.345 Z-9.683
G0 Z5
X99.957 Y9.238
Z-9.366
G1 Z-9.683 F1000
X99.964 Y9.234 Z-9.754
X99.984 Y9.222 Z-9.821
X100.017 Y9.203 Z-9.881
X100.06 Y9.177 Z-9.931
X100.111 Y9.147 Z-9.969
X100.169 Y9.112 Z-9.992
X100.23 Y9.076 Z-10
G3 X101.902 Y8.585 I1.795 J3.02
G1 X104.816
X105.131 Y8.601
X105.368 Y8.632
X105.632 Y8.688
X105.927 Y8.777
X106.256 Y8.905
X106.618 Y9.08
X107.007 Y9.309
X107.427 Y9.605
X107.856 Y9.961
X108.289 Y10.383
X108.708 Y10.864
X109.09 Y11.379
X109.302 Y11.716
X109.364 Y11.839
X109.402 Y11.972
X109.415 Y12.11
G3 X108.908 Y12.353 I-0.317 J-0.011
G1 X108.832 Y12.296
X104.64 Y9.158
X104.637 Y9.156
G3 X104.816 Y8.585 I0.19 J-0.254
G1 X106.855
X107.005 Y8.592
X107.19 Y8.62
X107.4 Y8.669
X107.62 Y8.739
X107.888 Y8.849
X108.155 Y8.984
X108.479 Y9.183
X108.795 Y9.414
X109.161 Y9.729
X109.201 Y9.769
X109.317 Y9.922
X109.39 Y10.099
X109.415 Y10.289
G3 X108.932 Y10.548 I-0.317 J-0.011
G1 X108.827 Y10.483
X106.7 Y9.172
G3 X106.855 Y8.585 I0.166 J-0.27
G1 X108.458
X108.608 Y8.592
X108.765 Y8.618
X108.85 Y8.638
X109.033 Y8.71
X109.191 Y8.827
X109.312 Y8.981
X109.389 Y9.162
X109.415 Y9.357
G3 X108.915 Y9.605 I-0.317 J-0.011
G1 X108.831 Y9.545
X108.286 Y9.161
G3 X108.458 Y8.585 I0.183 J-0.259
G1 X109.041
X109.113 Y8.586
X109.15 Y8.592
X109.186 Y8.602
X109.213 Y8.612
X109.24 Y8.625
X109.266 Y8.642
X109.293 Y8.663
X109.332 Y8.702
X109.354 Y8.728
X109.371 Y8.755
X109.385 Y8.782
X109.396 Y8.809
X109.407 Y8.845
X109.413 Y8.881
X109.415 Y8.954
Y15.944
G3 X108.842 Y16.12 I-0.317 J-0.011
G1 X108.8 Y16.063 Z-9.992
X108.761 Y16.009 Z-9.969
X108.726 Y15.96 Z-9.931
X108.696 Y15.919 Z-9.881
X108.674 Y15.889 Z-9.821
X108.66 Y15.87 Z-9.754
X108.655 Y15.864 Z-9.683
G0 Z5
X108.762 Y38.465
Z-9.366
G1 Z-9.683 F1000
X108.766 Y38.472 Z-9.754
X108.778 Y38.492 Z-9.821
X108.797 Y38.524 Z-9.881
X108.823 Y38.567 Z-9.931
X108.853 Y38.619 Z-9.969
X108.888 Y38.677 Z-9.992
X108.924 Y38.737 Z-10
G3 X109.415 Y40.41 I-3.02 J1.795
G1 Y43.323
X109.4 Y43.631
X109.369 Y43.866
X109.313 Y44.129
X109.224 Y44.426
X109.096 Y44.752
X108.919 Y45.117
X108.687 Y45.513
X108.398 Y45.923
X108.035 Y46.361
X107.614 Y46.793
X107.138 Y47.208
X106.622 Y47.59
X106.284 Y47.802
X106.161 Y47.864
X106.028 Y47.902
X105.891 Y47.915
G3 X105.648 Y47.408 I0.011 J-0.317
G1 X105.705 Y47.332
X108.842 Y43.147
X108.845 Y43.144
G3 X109.415 Y43.323 I0.254 J0.19
G1 Y45.361
X109.408 Y45.511
X109.379 Y45.698
X109.329 Y45.909
X109.257 Y46.131
X109.145 Y46.401
X109.008 Y46.668
X108.807 Y46.995
X108.574 Y47.311
X108.258 Y47.676
X108.23 Y47.703
X108.078 Y47.818
X107.901 Y47.89
X107.712 Y47.915
G3 X107.453 Y47.432 I0.011 J-0.317
G1 X107.518 Y47.327
X108.829 Y45.206
G3 X109.415 Y45.361 I0.27 J0.167
G1 Y46.963
X109.408 Y47.113
X109.381 Y47.273
X109.362 Y47.353
X109.29 Y47.535
X109.173 Y47.692
X109.019 Y47.813
X108.838 Y47.889
X108.644 Y47.915
G3 X108.396 Y47.415 I0.011 J-0.317
G1 X108.456 Y47.331
X108.84 Y46.791
G3 X109.415 Y46.963 I0.258 J0.184
G1 Y47.546
X109.413 Y47.619
X109.407 Y47.655
X109.396 Y47.691
X109.385 Y47.718
X109.371 Y47.745
X109.354 Y47.772
X109.332 Y47.798
X109.293 Y47.837
X109.266 Y47.858
X109.24 Y47.875
X109.213 Y47.888
X109.186 Y47.898
X109.15 Y47.908
X109.113 Y47.914
X109.041 Y47.915
X102.048
G3 X101.743 Y47.617 I0.011 J-0.317
G1 X101.742 Y47.598 Z-9.999
X101.756 Y47.545 Z-9.991
X101.769 Y47.494 Z-9.973
X101.781 Y47.447 Z-9.946
X101.812 Y47.411 Z-9.907
X101.838 Y47.382 Z-9.859
X101.857 Y47.36 Z-9.804
X101.869 Y47.346 Z-9.745
X101.873 Y47.342 Z-9.683
G0 Z5
X18.043 Y47.262
Z-11.366
G1 Z-11.683 F1000
X18.036 Y47.266 Z-11.754
X18.016 Y47.278 Z-11.821
X17.983 Y47.297 Z-11.881
X17.94 Y47.323 Z-11.931
X17.889 Y47.353 Z-11.969
X17.831 Y47.388 Z-11.992
X17.77 Y47.424 Z-12
G3 X16.098 Y47.915 I-1.795 J-3.02
G1 X13.184
X12.869 Y47.899
X12.632 Y47.868
X12.368 Y47.812
X12.073 Y47.723
X11.744 Y47.595
X11.382 Y47.42
X10.991 Y47.19
X10.57 Y46.893
X10.147 Y46.542
X9.709 Y46.115
X9.289 Y45.633
X8.907 Y45.118
X8.698 Y44.784
X8.636 Y44.661
X8.598 Y44.528
X8.585 Y44.391
G3 X9.092 Y44.148 I0.317 J0.011
G1 X9.168 Y44.205
X13.36 Y47.342
X13.363 Y47.344
G3 X13.184 Y47.915 I-0.19 J0.254
G1 X11.145
X10.995 Y47.908
X10.81 Y47.88
X10.6 Y47.831
X10.381 Y47.761
X10.113 Y47.651
X9.846 Y47.516
X9.522 Y47.318
X9.205 Y47.087
X8.839 Y46.772
X8.799 Y46.731
X8.683 Y46.579
X8.61 Y46.401
X8.585 Y46.211
G3 X9.068 Y45.952 I0.317 J0.011
G1 X9.173 Y46.017
X11.3 Y47.328
G3 X11.145 Y47.915 I-0.166 J0.27
G1 X9.542
X9.392 Y47.908
X9.235 Y47.882
X9.15 Y47.862
X8.967 Y47.791
X8.809 Y47.673
X8.688 Y47.519
X8.611 Y47.338
X8.585 Y47.143
G3 X9.085 Y46.895 I0.317 J0.011
G1 X9.169 Y46.955
X9.714 Y47.339
G3 X9.542 Y47.915 I-0.183 J0.259
G1 X8.959
X8.887 Y47.914
X8.85 Y47.908
X8.814 Y47.898
X8.787 Y47.888
X8.76 Y47.875
X8.734 Y47.858
X8.707 Y47.837
X8.668 Y47.798
X8.646 Y47.772
X8.629 Y47.745
X8.615 Y47.718
X8.604 Y47.691
X8.593 Y47.655
X8.587 Y47.619
X8.585 Y47.546
Y40.556
G3 X9.158 Y40.38 I0.317 J0.011
G1 X9.2 Y40.437 Z-11.992
X9.239 Y40.491 Z-11.969
X9.274 Y40.54 Z-11.931
X9.304 Y40.581 Z-11.881
X9.326 Y40.611 Z-11.821
X9.34 Y40.63 Z-11.754
X9.345 Y40.636 Z-11.683
G0 Z5
X9.238 Y18.035
Z-11.366
G1 Z-11.683 F1000
X9.234 Y18.028 Z-11.754
X9.222 Y18.008 Z-11.821
X9.203 Y17.976 Z-11.881
X9.177 Y17.933 Z-11.931
X9.147 Y17.881 Z-11.969
X9.112 Y17.823 Z-11.992
X9.076 Y17.763 Z-12
G3 X8.585 Y16.09 I3.02 J-1.795
G1 Y13.177
X8.6 Y12.869
X8.631 Y12.634
X8.687 Y12.371
X8.776 Y12.074
X8.904 Y11.748
X9.081 Y11.383
X9.313 Y10.987
X9.602 Y10.577
X9.965 Y10.139
X10.386 Y9.707
X10.862 Y9.292
X11.378 Y8.91
X11.716 Y8.698
X11.839 Y8.636
X11.972 Y8.598
X12.109 Y8.585
G3 X12.352 Y9.092 I-0.011 J0.317
G1 X12.295 Y9.168
X9.158 Y13.353
X9.155 Y13.356
G3 X8.585 Y13.177 I-0.254 J-0.19
G1 Y11.139
X8.592 Y10.989
X8.621 Y10.802
X8.671 Y10.591
X8.743 Y10.369
X8.855 Y10.099
X8.992 Y9.832
X9.193 Y9.505
X9.426 Y9.189
X9.742 Y8.824
X9.77 Y8.797
X9.922 Y8.682
X10.099 Y8.61
X10.288 Y8.585
G3 X10.547 Y9.068 I-0.011 J0.317
G1 X10.482 Y9.173
X9.171 Y11.294
G3 X8.585 Y11.139 I-0.27 J-0.167
G1 Y9.537
X8.592 Y9.387
X8.619 Y9.227
X8.638 Y9.147
X8.71 Y8.965
X8.827 Y8.808
X8.981 Y8.687
X9.162 Y8.611
X9.356 Y8.585
G3 X9.604 Y9.085 I-0.011 J0.317
G1 X9.544 Y9.169
X9.16 Y9.709
G3 X8.585 Y9.537 I-0.258 J-0.184
G1 Y8.954
X8.587 Y8.881
X8.593 Y8.845
X8.604 Y8.809
X8.615 Y8.782
X8.629 Y8.755
X8.646 Y8.728
X8.668 Y8.702
X8.707 Y8.663
X8.734 Y8.642
X8.76 Y8.625
X8.787 Y8.612
X8.814 Y8.602
X8.85 Y8.592
X8.887 Y8.586
X8.959 Y8.585
X15.952
G3 X16.127 Y9.158 I-0.011 J0.317
G1 X16.07 Y9.2 Z-11.992
X16.016 Y9.239 Z-11.969
X15.968 Y9.274 Z-11.931
X15.927 Y9.304 Z-11.881
X15.896 Y9.326 Z-11.821
X15.878 Y9.34 Z-11.754
X15.871 Y9.345 Z-11.683
G0 Z5
X99.957 Y9.238
Z-11.366
G1 Z-11.683 F1000
X99.964 Y9.234 Z-11.754
X99.984 Y9.222 Z-11.821
X100.017 Y9.203 Z-11.881
X100.06 Y9.177 Z-11.931
X100.111 Y9.147 Z-11.969
X100.169 Y9.112 Z-11.992
X100.23 Y9.076 Z-12
G3 X101.902 Y8.585 I1.795 J3.02
G1 X104.816
X105.131 Y8.601
X105.368 Y8.632
X105.632 Y8.688
X105.927 Y8.777
X106.256 Y8.905
X106.618 Y9.08
X107.007 Y9.309
X107.427 Y9.605
X107.856 Y9.961
X108.289 Y10.383
X108.708 Y10.864
X109.09 Y11.379
X109.302 Y11.716
X109.364 Y11.839
X109.402 Y11.972
X109.415 Y12.11
G3 X108.908 Y12.353 I-0.317 J-0.011
G1 X108.832 Y12.296
X104.64 Y9.158
X104.637 Y9.156
G3 X104.816 Y8.585 I0.19 J-0.254
G1 X106.855
X107.005 Y8.592
X107.19 Y8.62
X107.4 Y8.669
X107.62 Y8.739
X107.888 Y8.849
X108.155 Y8.984
X108.479 Y9.183
X108.795 Y9.414
X109.161 Y9.729
X109.201 Y9.769
X109.317 Y9.922
X109.39 Y10.099
X109.415 Y10.289
G3 X108.932 Y10.548 I-0.317 J-0.011
G1 X108.827 Y10.483
X106.7 Y9.172
G3 X106.855 Y8.585 I0.166 J-0.27
G1 X108.458
X108.608 Y8.592
X108.765 Y8.618
X108.85 Y8.638
X109.033 Y8.71
X109.191 Y8.827
X109.312 Y8.981
X109.389 Y9.162
X109.415 Y9.357
G3 X108.915 Y9.605 I-0.317 J-0.011
G1 X108.831 Y9.545
X108.286 Y9.161
G3 X108.458 Y8.585 I0.183 J-0.259
G1 X109.041
X109.113 Y8.586
X109.15 Y8.592
X109.186 Y8.602
X109.213 Y8.612
X109.24 Y8.625
X109.266 Y8.642
X109.293 Y8.663
X109.332 Y8.702
X109.354 Y8.728
X109.371 Y8.755
X109.385 Y8.782
X109.396 Y8.809
X109.407 Y8.845
X109.413 Y8.881
X109.415 Y8.954
Y15.944
G3 X108.842 Y16.12 I-0.317 J-0.011
G1 X108.8 Y16.063 Z-11.992
X108.761 Y16.009 Z-11.969
X108.726 Y15.96 Z-11.931
X108.696 Y15.919 Z-11.881
X108.674 Y15.889 Z-11.821
X108.66 Y15.87 Z-11.754
X108.655 Y15.864 Z-11.683
G0 Z5
X108.762 Y38.465
Z-11.366
G1 Z-11.683 F1000
X108.766 Y38.472 Z-11.754
X108.778 Y38.492 Z-11.821
X108.797 Y38.524 Z-11.881
X108.823 Y38.567 Z-11.931
X108.853 Y38.619 Z-11.969
X108.888 Y38.677 Z-11.992
X108.924 Y38.737 Z-12
G3 X109.415 Y40.41 I-3.02 J1.795
G1 Y43.323
X109.4 Y43.631
X109.369 Y43.866
X109.313 Y44.129
X109.224 Y44.426
X109.096 Y44.752
X108.919 Y45.117
X108.687 Y45.513
X108.398 Y45.923
X108.035 Y46.361
X107.614 Y46.793
X107.138 Y47.208
X106.622 Y47.59
X106.284 Y47.802
X106.161 Y47.864
X106.028 Y47.902
X105.891 Y47.915
G3 X105.648 Y47.408 I0.011 J-0.317
G1 X105.705 Y47.332
X108.842 Y43.147
X108.845 Y43.144
G3 X109.415 Y43.323 I0.254 J0.19
G1 Y45.361
X109.408 Y45.511
X109.379 Y45.698
X109.329 Y45.909
X109.257 Y46.131
X109.145 Y46.401
X109.008 Y46.668
X108.807 Y46.995
X108.574 Y47.311
X108.258 Y47.676
X108.23 Y47.703
X108.078 Y47.818
X107.901 Y47.89
X107.712 Y47.915
G3 X107.453 Y47.432 I0.011 J-0.317
G1 X107.518 Y47.327
X108.829 Y45.206
G3 X109.415 Y45.361 I0.27 J0.167
G1 Y46.963
X109.408 Y47.113
X109.381 Y47.273
X109.362 Y47.353
X109.29 Y47.535
X109.173 Y47.692
X109.019 Y47.813
X108.838 Y47.889
X108.644 Y47.915
G3 X108.396 Y47.415 I0.011 J-0.317
G1 X108.456 Y47.331
X108.84 Y46.791
G3 X109.415 Y46.963 I0.258 J0.184
G1 Y47.546
X109.413 Y47.619
X109.407 Y47.655
X109.396 Y47.691
X109.385 Y47.718
X109.371 Y47.745
X109.354 Y47.772
X109.332 Y47.798
X109.293 Y47.837
X109.266 Y47.858
X109.24 Y47.875
X109.213 Y47.888
X109.186 Y47.898
X109.15 Y47.908
X109.113 Y47.914
X109.041 Y47.915
X102.048
G3 X101.743 Y47.617 I0.011 J-0.317
G1 X101.742 Y47.598 Z-11.999
X101.756 Y47.545 Z-11.991
X101.769 Y47.494 Z-11.973
X101.781 Y47.447 Z-11.946
X101.812 Y47.411 Z-11.907
X101.838 Y47.382 Z-11.859
X101.857 Y47.36 Z-11.804
X101.869 Y47.346 Z-11.745
X101.873 Y47.342 Z-11.683
G0 Z5
X18.043 Y47.262
Z-12.366
G1 Z-12.683 F1000
X18.036 Y47.266 Z-12.754
X18.016 Y47.278 Z-12.821
X17.983 Y47.297 Z-12.881
X17.94 Y47.323 Z-12.931
X17.889 Y47.353 Z-12.969
X17.831 Y47.388 Z-12.992
X17.77 Y47.424 Z-13
G3 X16.098 Y47.915 I-1.795 J-3.02
G1 X13.184
X12.869 Y47.899
X12.632 Y47.868
X12.368 Y47.812
X12.073 Y47.723
X11.744 Y47.595
X11.382 Y47.42
X10.991 Y47.19
X10.57 Y46.893
X10.147 Y46.542
X9.709 Y46.115
X9.289 Y45.633
X8.907 Y45.118
X8.698 Y44.784
X8.636 Y44.661
X8.598 Y44.528
X8.585 Y44.391
G3 X9.092 Y44.148 I0.317 J0.011
G1 X9.168 Y44.205
X13.36 Y47.342
X13.363 Y47.344
G3 X13.184 Y47.915 I-0.19 J0.254
G1 X11.145
X10.995 Y47.908
X10.81 Y47.88
X10.6 Y47.831
X10.381 Y47.761
X10.113 Y47.651
X9.846 Y47.516
X9.522 Y47.318
X9.205 Y47.087
X8.839 Y46.772
X8.799 Y46.731
X8.683 Y46.579
X8.61 Y46.401
X8.585 Y46.211
G3 X9.068 Y45.952 I0.317 J0.011
G1 X9.173 Y46.017
X11.3 Y47.328
G3 X11.145 Y47.915 I-0.166 J0.27
G1 X9.542
X9.392 Y47.908
X9.235 Y47.882
X9.15 Y47.862
X8.967 Y47.791
X8.809 Y47.673
X8.688 Y47.519
X8.611 Y47.338
X8.585 Y47.143
G3 X9.085 Y46.895 I0.317 J0.011
G1 X9.169 Y46.955
X9.714 Y47.339
G3 X9.542 Y47.915 I-0.183 J0.259
G1 X8.959
X8.887 Y47.914
X8.85 Y47.908
X8.814 Y47.898
X8.787 Y47.888
X8.76 Y47.875
X8.734 Y47.858
X8.707 Y47.837
X8.668 Y47.798
X8.646 Y47.772
X8.629 Y47.745
X8.615 Y47.718
X8.604 Y47.691
X8.593 Y47.655
X8.587 Y47.619
X8.585 Y47.546
Y40.556
G3 X9.158 Y40.38 I0.317 J0.011
G1 X9.2 Y40.437 Z-12.992
X9.239 Y40.491 Z-12.969
X9.274 Y40.54 Z-12.931
X9.304 Y40.581 Z-12.881
X9.326 Y40.611 Z-12.821
X9.34 Y40.63 Z-12.754
X9.345 Y40.636 Z-12.683
G0 Z5
X9.238 Y18.035
Z-12.366
G1 Z-12.683 F1000
X9.234 Y18.028 Z-12.754
X9.222 Y18.008 Z-12.821
X9.203 Y17.976 Z-12.881
X9.177 Y17.933 Z-12.931
X9.147 Y17.881 Z-12.969
X9.112 Y17.823 Z-12.992
X9.076 Y17.763 Z-13
G3 X8.585 Y16.09 I3.02 J-1.795
G1 Y13.177
X8.6 Y12.869
X8.631 Y12.634
X8.687 Y12.371
X8.776 Y12.074
X8.904 Y11.748
X9.081 Y11.383
X9.313 Y10.987
X9.602 Y10.577
X9.965 Y10.139
X10.386 Y9.707
X10.862 Y9.292
X11.378 Y8.91
X11.716 Y8.698
X11.839 Y8.636
X11.972 Y8.598
X12.109 Y8.585
G3 X12.352 Y9.092 I-0.011 J0.317
G1 X12.295 Y9.168
X9.158 Y13.353
X9.155 Y13.356
G3 X8.585 Y13.177 I-0.254 J-0.19
G1 Y11.139
X8.592 Y10.989
X8.621 Y10.802
X8.671 Y10.591
X8.743 Y10.369
X8.855 Y10.099
X8.992 Y9.832
X9.193 Y9.505
X9.426 Y9.189
X9.742 Y8.824
X9.77 Y8.797
X9.922 Y8.682
X10.099 Y8.61
X10.288 Y8.585
G3 X10.547 Y9.068 I-0.011 J0.317
G1 X10.482 Y9.173
X9.171 Y11.294
G3 X8.585 Y11.139 I-0.27 J-0.167
G1 Y9.537
X8.592 Y9.387
X8.619 Y9.227
X8.638 Y9.147
X8.71 Y8.965
X8.827 Y8.808
X8.981 Y8.687
X9.162 Y8.611
X9.356 Y8.585
G3 X9.604 Y9.085 I-0.011 J0.317
G1 X9.544 Y9.169
X9.16 Y9.709
G3 X8.585 Y9.537 I-0.258 J-0.184
G1 Y8.954
X8.587 Y8.881
X8.593 Y8.845
X8.604 Y8.809
X8.615 Y8.782
X8.629 Y8.755
X8.646 Y8.728
X8.668 Y8.702
X8.707 Y8.663
X8.734 Y8.642
X8.76 Y8.625
X8.787 Y8.612
X8.814 Y8.602
X8.85 Y8.592
X8.887 Y8.586
X8.959 Y8.585
X15.952
G3 X16.127 Y9.158 I-0.011 J0.317
G1 X16.07 Y9.2 Z-12.992
X16.016 Y9.239 Z-12.969
X15.968 Y9.274 Z-12.931
X15.927 Y9.304 Z-12.881
X15.896 Y9.326 Z-12.821
X15.878 Y9.34 Z-12.754
X15.871 Y9.345 Z-12.683
G0 Z5
X99.957 Y9.238
Z-12.366
G1 Z-12.683 F1000
X99.964 Y9.234 Z-12.754
X99.984 Y9.222 Z-12.821
X100.017 Y9.203 Z-12.881
X100.06 Y9.177 Z-12.931
X100.111 Y9.147 Z-12.969
X100.169 Y9.112 Z-12.992
X100.23 Y9.076 Z-13
G3 X101.902 Y8.585 I1.795 J3.02
G1 X104.816
X105.131 Y8.601
X105.368 Y8.632
X105.632 Y8.688
X105.927 Y8.777
X106.256 Y8.905
X106.618 Y9.08
X107.007 Y9.309
X107.427 Y9.605
X107.856 Y9.961
X108.289 Y10.383
X108.708 Y10.864
X109.09 Y11.379
X109.302 Y11.716
X109.364 Y11.839
X109.402 Y11.972
X109.415 Y12.11
G3 X108.908 Y12.353 I-0.317 J-0.011
G1 X108.832 Y12.296
X104.64 Y9.158
X104.637 Y9.156
G3 X104.816 Y8.585 I0.19 J-0.254
G1 X106.855
X107.005 Y8.592
X107.19 Y8.62
X107.4 Y8.669
X107.62 Y8.739
X107.888 Y8.849
X108.155 Y8.984
X108.479 Y9.183
X108.795 Y9.414
X109.161 Y9.729
X109.201 Y9.769
X109.317 Y9.922
X109.39 Y10.099
X109.415 Y10.289
G3 X108.932 Y10.548 I-0.317 J-0.011
G1 X108.827 Y10.483
X106.7 Y9.172
G3 X106.855 Y8.585 I0.166 J-0.27
G1 X108.458
X108.608 Y8.592
X108.765 Y8.618
X108.85 Y8.638
X109.033 Y8.71
X109.191 Y8.827
X109.312 Y8.981
X109.389 Y9.162
X109.415 Y9.357
G3 X108.915 Y9.605 I-0.317 J-0.011
G1 X108.831 Y9.545
X108.286 Y9.161
G3 X108.458 Y8.585 I0.183 J-0.259
G1 X109.041
X109.113 Y8.586
X109.15 Y8.592
X109.186 Y8.602
X109.213 Y8.612
X109.24 Y8.625
X109.266 Y8.642
X109.293 Y8.663
X109.332 Y8.702
X109.354 Y8.728
X109.371 Y8.755
X109.385 Y8.782
X109.396 Y8.809
X109.407 Y8.845
X109.413 Y8.881
X109.415 Y8.954
Y15.944
G3 X108.842 Y16.12 I-0.317 J-0.011
G1 X108.8 Y16.063 Z-12.992
X108.761 Y16.009 Z-12.969
X108.726 Y15.96 Z-12.931
X108.696 Y15.919 Z-12.881
X108.674 Y15.889 Z-12.821
X108.66 Y15.87 Z-12.754
X108.655 Y15.864 Z-12.683
G0 Z5
X108.762 Y38.465
Z-12.366
G1 Z-12.683 F1000
X108.766 Y38.472 Z-12.754
X108.778 Y38.492 Z-12.821
X108.797 Y38.524 Z-12.881
X108.823 Y38.567 Z-12.931
X108.853 Y38.619 Z-12.969
X108.888 Y38.677 Z-12.992
X108.924 Y38.737 Z-13
G3 X109.415 Y40.41 I-3.02 J1.795
G1 Y43.323
X109.4 Y43.631
X109.369 Y43.866
X109.313 Y44.129
X109.224 Y44.426
X109.096 Y44.752
X108.919 Y45.117
X108.687 Y45.513
X108.398 Y45.923
X108.035 Y46.361
X107.614 Y46.793
X107.138 Y47.208
X106.622 Y47.59
X106.284 Y47.802
X106.161 Y47.864
X106.028 Y47.902
X105.891 Y47.915
G3 X105.648 Y47.408 I0.011 J-0.317
G1 X105.705 Y47.332
X108.842 Y43.147
X108.845 Y43.144
G3 X109.415 Y43.323 I0.254 J0.19
G1 Y45.361
X109.408 Y45.511
X109.379 Y45.698
X109.329 Y45.909
X109.257 Y46.131
X109.145 Y46.401
X109.008 Y46.668
X108.807 Y46.995
X108.574 Y47.311
X108.258 Y47.676
X108.23 Y47.703
X108.078 Y47.818
X107.901 Y47.89
X107.712 Y47.915
G3 X107.453 Y47.432 I0.011 J-0.317
G1 X107.518 Y47.327
X108.829 Y45.206
G3 X109.415 Y45.361 I0.27 J0.167
G1 Y46.963
X109.408 Y47.113
X109.381 Y47.273
X109.362 Y47.353
X109.29 Y47.535
X109.173 Y47.692
X109.019 Y47.813
X108.838 Y47.889
X108.644 Y47.915
G3 X108.396 Y47.415 I0.011 J-0.317
G1 X108.456 Y47.331
X108.84 Y46.791
G3 X109.415 Y46.963 I0.258 J0.184
G1 Y47.546
X109.413 Y47.619
X109.407 Y47.655
X109.396 Y47.691
X109.385 Y47.718
X109.371 Y47.745
X109.354 Y47.772
X109.332 Y47.798
X109.293 Y47.837
X109.266 Y47.858
X109.24 Y47.875
X109.213 Y47.888
X109.186 Y47.898
X109.15 Y47.908
X109.113 Y47.914
X109.041 Y47.915
X102.048
G3 X101.873 Y47.342 I0.011 J-0.317
G1 X101.93 Y47.3 Z-12.992
X101.984 Y47.261 Z-12.969
X102.032 Y47.226 Z-12.931
X102.073 Y47.196 Z-12.881
X102.104 Y47.174 Z-12.821
X102.122 Y47.16 Z-12.754
X102.129 Y47.155 Z-12.683
G0 Z15
M30
%
