%
(bottom-usb-1_8)
(T1  D=3.17 CR=0 - ZMIN=-7.5 - flat end mill)
G90 G94
G17
G21

(USB Port-1_8)
M9
T1 M6
S5000 M3
G54
G0 X15.033 Y9.535
Z15
Z5
Z2.5
G3 X17.22 Y7.465 Z2.335 I1.094 J-1.035 F333.3
X15.033 Y9.535 Z2.17 I-1.094 J1.035
X17.22 Y7.465 Z2.004 I1.094 J-1.035
X15.033 Y9.535 Z1.839 I-1.094 J1.035
X17.22 Y7.465 Z1.674 I1.094 J-1.035
X15.033 Y9.535 Z1.509 I-1.094 J1.035
X17.22 Y7.465 Z1.344 I1.094 J-1.035
X15.033 Y9.535 Z1.178 I-1.094 J1.035
X17.22 Y7.465 Z1.013 I1.094 J-1.035
X15.033 Y9.535 Z0.848 I-1.094 J1.035
X17.22 Y7.465 Z0.683 I1.094 J-1.035
X15.033 Y9.535 Z0.518 I-1.094 J1.035
X17.22 Y7.465 Z0.353 I1.094 J-1.035
X15.033 Y9.535 Z0.187 I-1.094 J1.035
X17.22 Y7.465 Z0.022 I1.094 J-1.035
X15.033 Y9.535 Z-0.143 I-1.094 J1.035
X17.22 Y7.465 Z-0.308 I1.094 J-1.035
X15.033 Y9.535 Z-0.473 I-1.094 J1.035
X17.22 Y7.465 Z-0.639 I1.094 J-1.035
X15.033 Y9.535 Z-0.804 I-1.094 J1.035
X17.22 Y7.465 Z-0.969 I1.094 J-1.035
X15.033 Y9.535 Z-1.134 I-1.094 J1.035
X17.22 Y7.465 Z-1.299 I1.094 J-1.035
X15.033 Y9.535 Z-1.465 I-1.094 J1.035
X17.22 Y7.465 Z-1.63 I1.094 J-1.035
X15.033 Y9.535 Z-1.795 I-1.094 J1.035
X17.22 Y7.465 Z-1.96 I1.094 J-1.035
X17.632 Y8.5 Z-2 I-1.094 J1.035
X14.621 I-1.506
X17.632 I1.506
S15041
G1 X17.649 Y9.141 F1000
X17.678 Y9.216
X17.712 Y9.362
X17.715 Y9.512
X17.694 Y9.661
X17.651 Y9.805
X17.591 Y9.942
X17.515 Y10.071
X17.425 Y10.191
X17.324 Y10.302
X17.213 Y10.403
X17.093 Y10.493
X16.966 Y10.573
X16.833 Y10.641
X16.691 Y10.7
X16.542 Y10.749
X16.385 Y10.786
X16.223 Y10.811
X16.056 Y10.823
X15.886 Y10.822
X15.715 Y10.807
X15.542 Y10.778
X15.371 Y10.734
X15.201 Y10.676
X15.035 Y10.605
X14.875 Y10.519
X14.72 Y10.42
X14.573 Y10.308
X14.435 Y10.184
X14.306 Y10.049
X14.188 Y9.903
X14.082 Y9.747
X13.988 Y9.583
X13.908 Y9.412
X13.841 Y9.234
X13.789 Y9.05
X13.751 Y8.863
X13.729 Y8.673
X13.722 Y8.482
X13.73 Y8.29
X13.754 Y8.099
X13.793 Y7.911
X13.847 Y7.726
X13.915 Y7.546
X13.998 Y7.372
X14.095 Y7.206
X14.205 Y7.047
X14.327 Y6.898
X14.461 Y6.758
X14.606 Y6.63
X14.761 Y6.515
X14.924 Y6.411
X15.095 Y6.321
X15.273 Y6.246
X15.457 Y6.184
X15.644 Y6.138
X15.835 Y6.107
X16.028 Y6.091
X16.222
X16.415 Y6.106
X16.606 Y6.137
X16.794 Y6.183
X16.978 Y6.244
X17.156 Y6.32
X17.328 Y6.409
X17.491 Y6.513
X17.646 Y6.628
X17.792 Y6.756
X17.926 Y6.896
X18.049 Y7.045
X18.16 Y7.204
X18.265 Y7.384
X18.406 Y7.68
X18.557 Y8.074
X18.644 Y8.368
X18.699 Y8.63
X18.729 Y8.873
X18.74 Y9.1
X18.732 Y9.317
X18.708 Y9.526
X18.667 Y9.731
X18.61 Y9.932
X18.538 Y10.127
X18.45 Y10.315
X18.347 Y10.497
X18.229 Y10.67
X18.096 Y10.835
X17.948 Y10.991
X17.787 Y11.136
X17.612 Y11.269
X17.568 Y11.297
X17.443 Y11.362
X17.308 Y11.402
X17.168 Y11.415
X15.252
X15.102 Y11.408
X14.934 Y11.382
X14.763 Y11.343
X14.586 Y11.286
X14.404 Y11.212
X14.221 Y11.119
X14.042 Y11.009
X13.868 Y10.882
X13.698 Y10.736
X13.536 Y10.572
X13.384 Y10.391
X13.243 Y10.193
X13.19 Y10.104
X13.132 Y9.985
X13.097 Y9.857
X13.085 Y9.725
G3 X13.591 Y9.481 I0.317 J0.011
G1 X13.668 Y9.539
X15.427 Y10.842
X15.429 Y10.843
G3 X15.252 Y11.415 I-0.189 J0.255
G1 X13.939
X13.789 Y11.408
X13.642 Y11.382
X13.624 Y11.377
X13.448 Y11.301
X13.298 Y11.184
X13.182 Y11.031
X13.11 Y10.854
X13.085 Y10.665
G3 X13.6 Y10.429 I0.317 J0.011
G1 X13.666 Y10.481
X14.115 Y10.842
X14.126 Y10.851
G3 X13.939 Y11.415 I-0.198 J0.247
G1 X13.429
X13.392 Y11.414
X13.356 Y11.409
X13.319 Y11.399
X13.283 Y11.385
X13.246 Y11.365
X13.21 Y11.34
X13.173 Y11.307
X13.145 Y11.274
X13.123 Y11.238
X13.106 Y11.201
X13.095 Y11.165
X13.088 Y11.128
X13.085 Y10.983
Y7.78
X13.093 Y7.621
X13.116 Y7.442
X13.155 Y7.261
X13.212 Y7.073
X13.287 Y6.88
X13.381 Y6.685
X13.494 Y6.494
X13.624 Y6.309
X13.772 Y6.13
X13.939 Y5.959
X14.124 Y5.798
X14.215 Y5.73
X14.351 Y5.651
X14.499 Y5.602
X14.655 Y5.585
G3 X14.908 Y6.077 I-0.011 J0.317
G1 X14.846 Y6.171
X13.666 Y7.945
G3 X13.085 Y7.78 I-0.264 J-0.176
G1 Y6.39
X13.092 Y6.24
X13.097 Y6.21
X13.158 Y6.01
X13.273 Y5.836
X13.431 Y5.7
X13.621 Y5.614
X13.828 Y5.585
G3 X14.056 Y6.11 I-0.011 J0.317
G1 X14.009 Y6.164
X13.659 Y6.566
X13.641 Y6.587
G3 X13.085 Y6.39 I-0.239 J-0.208
G1 Y6.034
X13.087 Y5.888
X13.093 Y5.852
X13.103 Y5.815
X13.118 Y5.779
X13.14 Y5.742
X13.171 Y5.702
X13.21 Y5.662
X13.24 Y5.639
X13.271 Y5.621
X13.301 Y5.607
X13.332 Y5.597
X13.356 Y5.591
X13.392 Y5.586
X13.429 Y5.585
X17.001
X17.16 Y5.593
X17.321 Y5.614
X17.484 Y5.649
X17.653 Y5.7
X17.829 Y5.768
X18.008 Y5.855
X18.185 Y5.959
X18.359 Y6.081
X18.546 Y6.237
X18.727 Y6.414
X18.919 Y6.633
X19.104 Y6.883
X19.271 Y7.152
X19.418 Y7.436
X19.541 Y7.731
X19.64 Y8.032
X19.712 Y8.336
X19.76 Y8.64
X19.783 Y8.944
X19.781 Y9.246
X19.755 Y9.545
X19.706 Y9.839
X19.633 Y10.127
X19.538 Y10.409
X19.42 Y10.681
X19.281 Y10.944
X19.198 Y11.073
X19.08 Y11.216
X18.93 Y11.324
X18.758 Y11.392
X18.574 Y11.415
X17.168
G3 X16.862 Y11.108 I0.011 J-0.317
G1 X16.852 Y10.8
X16.705 Y6.2
X16.696 Y5.912
G3 X17.001 Y5.585 I0.317 J-0.01
G1 X18.314
X18.464 Y5.593
X18.612 Y5.615
X18.757 Y5.652
X18.904 Y5.704
X19.056 Y5.772
X19.22 Y5.862
X19.389 Y5.973
X19.562 Y6.108
X19.744 Y6.274
X19.916 Y6.459
X20.086 Y6.675
X20.252 Y6.923
X20.404 Y7.198
X20.538 Y7.491
X20.651 Y7.803
X20.742 Y8.135
X20.807 Y8.483
X20.845 Y8.842
X20.855 Y9.208
X20.835 Y9.578
X20.784 Y9.948
X20.704 Y10.316
X20.61 Y10.625
X20.505 Y10.89
X20.45 Y11.001
X20.335 Y11.171
X20.178 Y11.303
X19.99 Y11.386
X19.786 Y11.415
X18.574
G3 X18.269 Y11.114 I0.011 J-0.317
G1 X18.253 Y10.8
X18.023 Y6.2
X18.008 Y5.918
G3 X18.314 Y5.585 I0.317 J-0.016
G1 X19.481
X19.63 Y5.593
X19.778 Y5.618
X19.923 Y5.659
X20.067 Y5.714
X20.21 Y5.782
X20.371 Y5.876
X20.529 Y5.985
X20.699 Y6.124
X20.868 Y6.288
X21.034 Y6.476
X21.204 Y6.702
X21.363 Y6.954
X21.508 Y7.232
X21.641 Y7.546
X21.757 Y7.893
X21.849 Y8.266
X21.912 Y8.655
X21.915 Y8.704
Y8.724
G3 X21.345 Y8.903 I-0.317 J-0.011
G1 X21.342 Y8.899
X19.295 Y6.168
X19.238 Y6.092
G3 X19.481 Y5.585 I0.254 J-0.19
G1 X20.582
X20.731 Y5.593
X20.879 Y5.618
X21.024 Y5.659
X21.163 Y5.713
X21.306 Y5.782
X21.462 Y5.873
X21.617 Y5.982
X21.647 Y6.006
X21.791 Y6.167
X21.883 Y6.362
X21.915 Y6.576
G3 X21.424 Y6.83 I-0.317 J-0.011
G1 X21.329 Y6.767
X20.418 Y6.166
G3 X20.582 Y5.585 I0.175 J-0.265
G1 X21.595
X21.632 Y5.588
X21.671 Y5.597
X21.707 Y5.609
X21.742 Y5.627
X21.778 Y5.65
X21.814 Y5.682
X21.86 Y5.742
X21.882 Y5.779
X21.897 Y5.815
X21.907 Y5.852
X21.913 Y5.888
X21.915 Y6.034
Y9.236
X21.884 Y9.847
X21.837 Y10.211
X21.774 Y10.504
X21.699 Y10.755
X21.621 Y10.955
X21.6 Y10.998
X21.485 Y11.169
X21.327 Y11.302
X21.139 Y11.386
X20.934 Y11.415
G3 X20.647 Y10.993 I0.011 J-0.317
G1 X20.71 Y10.813
X21.299 Y9.142
G3 X21.915 Y9.236 I0.299 J0.105
G1 Y10.983
X21.913 Y11.099
X21.912 Y11.128
X21.906 Y11.165
X21.894 Y11.201
X21.877 Y11.238
X21.855 Y11.274
X21.836 Y11.297
X21.814 Y11.32
X21.777 Y11.35
X21.741 Y11.374
X21.704 Y11.392
X21.668 Y11.404
X21.632 Y11.412
X21.595 Y11.415
X19.786
G3 X19.481 Y11.117 I0.011 J-0.317
G1 Y11.098 Z-1.999
X19.494 Y11.045 Z-1.991
X19.507 Y10.994 Z-1.973
X19.519 Y10.947 Z-1.946
X19.55 Y10.911 Z-1.907
X19.576 Y10.882 Z-1.859
X19.595 Y10.86 Z-1.804
X19.607 Y10.846 Z-1.745
X19.611 Y10.842 Z-1.683
G0 Z5
X15.033 Y9.535
Z0.5
S5000
G3 X17.22 Y7.465 Z0.335 I1.094 J-1.035 F333.3
X15.033 Y9.535 Z0.17 I-1.094 J1.035
X17.22 Y7.465 Z0.004 I1.094 J-1.035
X15.033 Y9.535 Z-0.161 I-1.094 J1.035
X17.22 Y7.465 Z-0.326 I1.094 J-1.035
X15.033 Y9.535 Z-0.491 I-1.094 J1.035
X17.22 Y7.465 Z-0.656 I1.094 J-1.035
X15.033 Y9.535 Z-0.822 I-1.094 J1.035
X17.22 Y7.465 Z-0.987 I1.094 J-1.035
X15.033 Y9.535 Z-1.152 I-1.094 J1.035
X17.22 Y7.465 Z-1.317 I1.094 J-1.035
X15.033 Y9.535 Z-1.482 I-1.094 J1.035
X17.22 Y7.465 Z-1.647 I1.094 J-1.035
X15.033 Y9.535 Z-1.813 I-1.094 J1.035
X17.22 Y7.465 Z-1.978 I1.094 J-1.035
X15.033 Y9.535 Z-2.143 I-1.094 J1.035
X17.22 Y7.465 Z-2.308 I1.094 J-1.035
X15.033 Y9.535 Z-2.473 I-1.094 J1.035
X17.22 Y7.465 Z-2.639 I1.094 J-1.035
X15.033 Y9.535 Z-2.804 I-1.094 J1.035
X17.22 Y7.465 Z-2.969 I1.094 J-1.035
X15.033 Y9.535 Z-3.134 I-1.094 J1.035
X17.22 Y7.465 Z-3.299 I1.094 J-1.035
X15.033 Y9.535 Z-3.465 I-1.094 J1.035
X17.22 Y7.465 Z-3.63 I1.094 J-1.035
X15.033 Y9.535 Z-3.795 I-1.094 J1.035
X17.22 Y7.465 Z-3.96 I1.094 J-1.035
X17.632 Y8.5 Z-4 I-1.094 J1.035
X14.621 I-1.506
X17.632 I1.506
S15041
G1 X17.649 Y9.141 F1000
X17.678 Y9.216
X17.712 Y9.362
X17.715 Y9.512
X17.694 Y9.661
X17.651 Y9.805
X17.591 Y9.942
X17.515 Y10.071
X17.425 Y10.191
X17.324 Y10.302
X17.213 Y10.403
X17.093 Y10.493
X16.966 Y10.573
X16.833 Y10.641
X16.691 Y10.7
X16.542 Y10.749
X16.385 Y10.786
X16.223 Y10.811
X16.056 Y10.823
X15.886 Y10.822
X15.715 Y10.807
X15.542 Y10.778
X15.371 Y10.734
X15.201 Y10.676
X15.035 Y10.605
X14.875 Y10.519
X14.72 Y10.42
X14.573 Y10.308
X14.435 Y10.184
X14.306 Y10.049
X14.188 Y9.903
X14.082 Y9.747
X13.988 Y9.583
X13.908 Y9.412
X13.841 Y9.234
X13.789 Y9.05
X13.751 Y8.863
X13.729 Y8.673
X13.722 Y8.482
X13.73 Y8.29
X13.754 Y8.099
X13.793 Y7.911
X13.847 Y7.726
X13.915 Y7.546
X13.998 Y7.372
X14.095 Y7.206
X14.205 Y7.047
X14.327 Y6.898
X14.461 Y6.758
X14.606 Y6.63
X14.761 Y6.515
X14.924 Y6.411
X15.095 Y6.321
X15.273 Y6.246
X15.457 Y6.184
X15.644 Y6.138
X15.835 Y6.107
X16.028 Y6.091
X16.222
X16.415 Y6.106
X16.606 Y6.137
X16.794 Y6.183
X16.978 Y6.244
X17.156 Y6.32
X17.328 Y6.409
X17.491 Y6.513
X17.646 Y6.628
X17.792 Y6.756
X17.926 Y6.896
X18.049 Y7.045
X18.16 Y7.204
X18.265 Y7.384
X18.406 Y7.68
X18.557 Y8.074
X18.644 Y8.368
X18.699 Y8.63
X18.729 Y8.873
X18.74 Y9.1
X18.732 Y9.317
X18.708 Y9.526
X18.667 Y9.731
X18.61 Y9.932
X18.538 Y10.127
X18.45 Y10.315
X18.347 Y10.497
X18.229 Y10.67
X18.096 Y10.835
X17.948 Y10.991
X17.787 Y11.136
X17.612 Y11.269
X17.568 Y11.297
X17.443 Y11.362
X17.308 Y11.402
X17.168 Y11.415
X15.252
X15.102 Y11.408
X14.934 Y11.382
X14.763 Y11.343
X14.586 Y11.286
X14.404 Y11.212
X14.221 Y11.119
X14.042 Y11.009
X13.868 Y10.882
X13.698 Y10.736
X13.536 Y10.572
X13.384 Y10.391
X13.243 Y10.193
X13.19 Y10.104
X13.132 Y9.985
X13.097 Y9.857
X13.085 Y9.725
G3 X13.591 Y9.481 I0.317 J0.011
G1 X13.668 Y9.539
X15.427 Y10.842
X15.429 Y10.843
G3 X15.252 Y11.415 I-0.189 J0.255
G1 X13.939
X13.789 Y11.408
X13.642 Y11.382
X13.624 Y11.377
X13.448 Y11.301
X13.298 Y11.184
X13.182 Y11.031
X13.11 Y10.854
X13.085 Y10.665
G3 X13.6 Y10.429 I0.317 J0.011
G1 X13.666 Y10.481
X14.115 Y10.842
X14.126 Y10.851
G3 X13.939 Y11.415 I-0.198 J0.247
G1 X13.429
X13.392 Y11.414
X13.356 Y11.409
X13.319 Y11.399
X13.283 Y11.385
X13.246 Y11.365
X13.21 Y11.34
X13.173 Y11.307
X13.145 Y11.274
X13.123 Y11.238
X13.106 Y11.201
X13.095 Y11.165
X13.088 Y11.128
X13.085 Y10.983
Y7.78
X13.093 Y7.621
X13.116 Y7.442
X13.155 Y7.261
X13.212 Y7.073
X13.287 Y6.88
X13.381 Y6.685
X13.494 Y6.494
X13.624 Y6.309
X13.772 Y6.13
X13.939 Y5.959
X14.124 Y5.798
X14.215 Y5.73
X14.351 Y5.651
X14.499 Y5.602
X14.655 Y5.585
G3 X14.908 Y6.077 I-0.011 J0.317
G1 X14.846 Y6.171
X13.666 Y7.945
G3 X13.085 Y7.78 I-0.264 J-0.176
G1 Y6.39
X13.092 Y6.24
X13.097 Y6.21
X13.158 Y6.01
X13.273 Y5.836
X13.431 Y5.7
X13.621 Y5.614
X13.828 Y5.585
G3 X14.056 Y6.11 I-0.011 J0.317
G1 X14.009 Y6.164
X13.659 Y6.566
X13.641 Y6.587
G3 X13.085 Y6.39 I-0.239 J-0.208
G1 Y6.034
X13.087 Y5.888
X13.093 Y5.852
X13.103 Y5.815
X13.118 Y5.779
X13.14 Y5.742
X13.171 Y5.702
X13.21 Y5.662
X13.24 Y5.639
X13.271 Y5.621
X13.301 Y5.607
X13.332 Y5.597
X13.356 Y5.591
X13.392 Y5.586
X13.429 Y5.585
X17.001
X17.16 Y5.593
X17.321 Y5.614
X17.484 Y5.649
X17.653 Y5.7
X17.829 Y5.768
X18.008 Y5.855
X18.185 Y5.959
X18.359 Y6.081
X18.546 Y6.237
X18.727 Y6.414
X18.919 Y6.633
X19.104 Y6.883
X19.271 Y7.152
X19.418 Y7.436
X19.541 Y7.731
X19.64 Y8.032
X19.712 Y8.336
X19.76 Y8.64
X19.783 Y8.944
X19.781 Y9.246
X19.755 Y9.545
X19.706 Y9.839
X19.633 Y10.127
X19.538 Y10.409
X19.42 Y10.681
X19.281 Y10.944
X19.198 Y11.073
X19.08 Y11.216
X18.93 Y11.324
X18.758 Y11.392
X18.574 Y11.415
X17.168
G3 X16.862 Y11.108 I0.011 J-0.317
G1 X16.852 Y10.8
X16.705 Y6.2
X16.696 Y5.912
G3 X17.001 Y5.585 I0.317 J-0.01
G1 X18.314
X18.464 Y5.593
X18.612 Y5.615
X18.757 Y5.652
X18.904 Y5.704
X19.056 Y5.772
X19.22 Y5.862
X19.389 Y5.973
X19.562 Y6.108
X19.744 Y6.274
X19.916 Y6.459
X20.086 Y6.675
X20.252 Y6.923
X20.404 Y7.198
X20.538 Y7.491
X20.651 Y7.803
X20.742 Y8.135
X20.807 Y8.483
X20.845 Y8.842
X20.855 Y9.208
X20.835 Y9.578
X20.784 Y9.948
X20.704 Y10.316
X20.61 Y10.625
X20.505 Y10.89
X20.45 Y11.001
X20.335 Y11.171
X20.178 Y11.303
X19.99 Y11.386
X19.786 Y11.415
X18.574
G3 X18.269 Y11.114 I0.011 J-0.317
G1 X18.253 Y10.8
X18.023 Y6.2
X18.008 Y5.918
G3 X18.314 Y5.585 I0.317 J-0.016
G1 X19.481
X19.63 Y5.593
X19.778 Y5.618
X19.923 Y5.659
X20.067 Y5.714
X20.21 Y5.782
X20.371 Y5.876
X20.529 Y5.985
X20.699 Y6.124
X20.868 Y6.288
X21.034 Y6.476
X21.204 Y6.702
X21.363 Y6.954
X21.508 Y7.232
X21.641 Y7.546
X21.757 Y7.893
X21.849 Y8.266
X21.912 Y8.655
X21.915 Y8.704
Y8.724
G3 X21.345 Y8.903 I-0.317 J-0.011
G1 X21.342 Y8.899
X19.295 Y6.168
X19.238 Y6.092
G3 X19.481 Y5.585 I0.254 J-0.19
G1 X20.582
X20.731 Y5.593
X20.879 Y5.618
X21.024 Y5.659
X21.163 Y5.713
X21.306 Y5.782
X21.462 Y5.873
X21.617 Y5.982
X21.647 Y6.006
X21.791 Y6.167
X21.883 Y6.362
X21.915 Y6.576
G3 X21.424 Y6.83 I-0.317 J-0.011
G1 X21.329 Y6.767
X20.418 Y6.166
G3 X20.582 Y5.585 I0.175 J-0.265
G1 X21.595
X21.632 Y5.588
X21.671 Y5.597
X21.707 Y5.609
X21.742 Y5.627
X21.778 Y5.65
X21.814 Y5.682
X21.86 Y5.742
X21.882 Y5.779
X21.897 Y5.815
X21.907 Y5.852
X21.913 Y5.888
X21.915 Y6.034
Y9.236
X21.884 Y9.847
X21.837 Y10.211
X21.774 Y10.504
X21.699 Y10.755
X21.621 Y10.955
X21.6 Y10.998
X21.485 Y11.169
X21.327 Y11.302
X21.139 Y11.386
X20.934 Y11.415
G3 X20.647 Y10.993 I0.011 J-0.317
G1 X20.71 Y10.813
X21.299 Y9.142
G3 X21.915 Y9.236 I0.299 J0.105
G1 Y10.983
X21.913 Y11.099
X21.912 Y11.128
X21.906 Y11.165
X21.894 Y11.201
X21.877 Y11.238
X21.855 Y11.274
X21.836 Y11.297
X21.814 Y11.32
X21.777 Y11.35
X21.741 Y11.374
X21.704 Y11.392
X21.668 Y11.404
X21.632 Y11.412
X21.595 Y11.415
X19.786
G3 X19.481 Y11.117 I0.011 J-0.317
G1 Y11.098 Z-3.999
X19.494 Y11.045 Z-3.991
X19.507 Y10.994 Z-3.973
X19.519 Y10.947 Z-3.946
X19.55 Y10.911 Z-3.907
X19.576 Y10.882 Z-3.859
X19.595 Y10.86 Z-3.804
X19.607 Y10.846 Z-3.745
X19.611 Y10.842 Z-3.683
G0 Z5
X15.033 Y9.535
Z-1.5
S5000
G3 X17.22 Y7.465 Z-1.665 I1.094 J-1.035 F333.3
X15.033 Y9.535 Z-1.83 I-1.094 J1.035
X17.22 Y7.465 Z-1.996 I1.094 J-1.035
X15.033 Y9.535 Z-2.161 I-1.094 J1.035
X17.22 Y7.465 Z-2.326 I1.094 J-1.035
X15.033 Y9.535 Z-2.491 I-1.094 J1.035
X17.22 Y7.465 Z-2.656 I1.094 J-1.035
X15.033 Y9.535 Z-2.822 I-1.094 J1.035
X17.22 Y7.465 Z-2.987 I1.094 J-1.035
X15.033 Y9.535 Z-3.152 I-1.094 J1.035
X17.22 Y7.465 Z-3.317 I1.094 J-1.035
X15.033 Y9.535 Z-3.482 I-1.094 J1.035
X17.22 Y7.465 Z-3.647 I1.094 J-1.035
X15.033 Y9.535 Z-3.813 I-1.094 J1.035
X17.22 Y7.465 Z-3.978 I1.094 J-1.035
X15.033 Y9.535 Z-4.143 I-1.094 J1.035
X17.22 Y7.465 Z-4.308 I1.094 J-1.035
X15.033 Y9.535 Z-4.473 I-1.094 J1.035
X17.22 Y7.465 Z-4.639 I1.094 J-1.035
X15.033 Y9.535 Z-4.804 I-1.094 J1.035
X17.22 Y7.465 Z-4.969 I1.094 J-1.035
X15.033 Y9.535 Z-5.134 I-1.094 J1.035
X17.22 Y7.465 Z-5.299 I1.094 J-1.035
X15.033 Y9.535 Z-5.465 I-1.094 J1.035
X17.22 Y7.465 Z-5.63 I1.094 J-1.035
X15.033 Y9.535 Z-5.795 I-1.094 J1.035
X17.22 Y7.465 Z-5.96 I1.094 J-1.035
X17.632 Y8.5 Z-6 I-1.094 J1.035
X14.621 I-1.506
X17.632 I1.506
S15041
G1 X17.649 Y9.141 F1000
X17.678 Y9.216
X17.712 Y9.362
X17.715 Y9.512
X17.694 Y9.661
X17.651 Y9.805
X17.591 Y9.942
X17.515 Y10.071
X17.425 Y10.191
X17.324 Y10.302
X17.213 Y10.403
X17.093 Y10.493
X16.966 Y10.573
X16.833 Y10.641
X16.691 Y10.7
X16.542 Y10.749
X16.385 Y10.786
X16.223 Y10.811
X16.056 Y10.823
X15.886 Y10.822
X15.715 Y10.807
X15.542 Y10.778
X15.371 Y10.734
X15.201 Y10.676
X15.035 Y10.605
X14.875 Y10.519
X14.72 Y10.42
X14.573 Y10.308
X14.435 Y10.184
X14.306 Y10.049
X14.188 Y9.903
X14.082 Y9.747
X13.988 Y9.583
X13.908 Y9.412
X13.841 Y9.234
X13.789 Y9.05
X13.751 Y8.863
X13.729 Y8.673
X13.722 Y8.482
X13.73 Y8.29
X13.754 Y8.099
X13.793 Y7.911
X13.847 Y7.726
X13.915 Y7.546
X13.998 Y7.372
X14.095 Y7.206
X14.205 Y7.047
X14.327 Y6.898
X14.461 Y6.758
X14.606 Y6.63
X14.761 Y6.515
X14.924 Y6.411
X15.095 Y6.321
X15.273 Y6.246
X15.457 Y6.184
X15.644 Y6.138
X15.835 Y6.107
X16.028 Y6.091
X16.222
X16.415 Y6.106
X16.606 Y6.137
X16.794 Y6.183
X16.978 Y6.244
X17.156 Y6.32
X17.328 Y6.409
X17.491 Y6.513
X17.646 Y6.628
X17.792 Y6.756
X17.926 Y6.896
X18.049 Y7.045
X18.16 Y7.204
X18.265 Y7.384
X18.406 Y7.68
X18.557 Y8.074
X18.644 Y8.368
X18.699 Y8.63
X18.729 Y8.873
X18.74 Y9.1
X18.732 Y9.317
X18.708 Y9.526
X18.667 Y9.731
X18.61 Y9.932
X18.538 Y10.127
X18.45 Y10.315
X18.347 Y10.497
X18.229 Y10.67
X18.096 Y10.835
X17.948 Y10.991
X17.787 Y11.136
X17.612 Y11.269
X17.568 Y11.297
X17.443 Y11.362
X17.308 Y11.402
X17.168 Y11.415
X15.252
X15.102 Y11.408
X14.934 Y11.382
X14.763 Y11.343
X14.586 Y11.286
X14.404 Y11.212
X14.221 Y11.119
X14.042 Y11.009
X13.868 Y10.882
X13.698 Y10.736
X13.536 Y10.572
X13.384 Y10.391
X13.243 Y10.193
X13.19 Y10.104
X13.132 Y9.985
X13.097 Y9.857
X13.085 Y9.725
G3 X13.591 Y9.481 I0.317 J0.011
G1 X13.668 Y9.539
X15.427 Y10.842
X15.429 Y10.843
G3 X15.252 Y11.415 I-0.189 J0.255
G1 X13.939
X13.789 Y11.408
X13.642 Y11.382
X13.624 Y11.377
X13.448 Y11.301
X13.298 Y11.184
X13.182 Y11.031
X13.11 Y10.854
X13.085 Y10.665
G3 X13.6 Y10.429 I0.317 J0.011
G1 X13.666 Y10.481
X14.115 Y10.842
X14.126 Y10.851
G3 X13.939 Y11.415 I-0.198 J0.247
G1 X13.429
X13.392 Y11.414
X13.356 Y11.409
X13.319 Y11.399
X13.283 Y11.385
X13.246 Y11.365
X13.21 Y11.34
X13.173 Y11.307
X13.145 Y11.274
X13.123 Y11.238
X13.106 Y11.201
X13.095 Y11.165
X13.088 Y11.128
X13.085 Y10.983
Y7.78
X13.093 Y7.621
X13.116 Y7.442
X13.155 Y7.261
X13.212 Y7.073
X13.287 Y6.88
X13.381 Y6.685
X13.494 Y6.494
X13.624 Y6.309
X13.772 Y6.13
X13.939 Y5.959
X14.124 Y5.798
X14.215 Y5.73
X14.351 Y5.651
X14.499 Y5.602
X14.655 Y5.585
G3 X14.908 Y6.077 I-0.011 J0.317
G1 X14.846 Y6.171
X13.666 Y7.945
G3 X13.085 Y7.78 I-0.264 J-0.176
G1 Y6.39
X13.092 Y6.24
X13.097 Y6.21
X13.158 Y6.01
X13.273 Y5.836
X13.431 Y5.7
X13.621 Y5.614
X13.828 Y5.585
G3 X14.056 Y6.11 I-0.011 J0.317
G1 X14.009 Y6.164
X13.659 Y6.566
X13.641 Y6.587
G3 X13.085 Y6.39 I-0.239 J-0.208
G1 Y6.034
X13.087 Y5.888
X13.093 Y5.852
X13.103 Y5.815
X13.118 Y5.779
X13.14 Y5.742
X13.171 Y5.702
X13.21 Y5.662
X13.24 Y5.639
X13.271 Y5.621
X13.301 Y5.607
X13.332 Y5.597
X13.356 Y5.591
X13.392 Y5.586
X13.429 Y5.585
X17.001
X17.16 Y5.593
X17.321 Y5.614
X17.484 Y5.649
X17.653 Y5.7
X17.829 Y5.768
X18.008 Y5.855
X18.185 Y5.959
X18.359 Y6.081
X18.546 Y6.237
X18.727 Y6.414
X18.919 Y6.633
X19.104 Y6.883
X19.271 Y7.152
X19.418 Y7.436
X19.541 Y7.731
X19.64 Y8.032
X19.712 Y8.336
X19.76 Y8.64
X19.783 Y8.944
X19.781 Y9.246
X19.755 Y9.545
X19.706 Y9.839
X19.633 Y10.127
X19.538 Y10.409
X19.42 Y10.681
X19.281 Y10.944
X19.198 Y11.073
X19.08 Y11.216
X18.93 Y11.324
X18.758 Y11.392
X18.574 Y11.415
X17.168
G3 X16.862 Y11.108 I0.011 J-0.317
G1 X16.852 Y10.8
X16.705 Y6.2
X16.696 Y5.912
G3 X17.001 Y5.585 I0.317 J-0.01
G1 X18.314
X18.464 Y5.593
X18.612 Y5.615
X18.757 Y5.652
X18.904 Y5.704
X19.056 Y5.772
X19.22 Y5.862
X19.389 Y5.973
X19.562 Y6.108
X19.744 Y6.274
X19.916 Y6.459
X20.086 Y6.675
X20.252 Y6.923
X20.404 Y7.198
X20.538 Y7.491
X20.651 Y7.803
X20.742 Y8.135
X20.807 Y8.483
X20.845 Y8.842
X20.855 Y9.208
X20.835 Y9.578
X20.784 Y9.948
X20.704 Y10.316
X20.61 Y10.625
X20.505 Y10.89
X20.45 Y11.001
X20.335 Y11.171
X20.178 Y11.303
X19.99 Y11.386
X19.786 Y11.415
X18.574
G3 X18.269 Y11.114 I0.011 J-0.317
G1 X18.253 Y10.8
X18.023 Y6.2
X18.008 Y5.918
G3 X18.314 Y5.585 I0.317 J-0.016
G1 X19.481
X19.63 Y5.593
X19.778 Y5.618
X19.923 Y5.659
X20.067 Y5.714
X20.21 Y5.782
X20.371 Y5.876
X20.529 Y5.985
X20.699 Y6.124
X20.868 Y6.288
X21.034 Y6.476
X21.204 Y6.702
X21.363 Y6.954
X21.508 Y7.232
X21.641 Y7.546
X21.757 Y7.893
X21.849 Y8.266
X21.912 Y8.655
X21.915 Y8.704
Y8.724
G3 X21.345 Y8.903 I-0.317 J-0.011
G1 X21.342 Y8.899
X19.295 Y6.168
X19.238 Y6.092
G3 X19.481 Y5.585 I0.254 J-0.19
G1 X20.582
X20.731 Y5.593
X20.879 Y5.618
X21.024 Y5.659
X21.163 Y5.713
X21.306 Y5.782
X21.462 Y5.873
X21.617 Y5.982
X21.647 Y6.006
X21.791 Y6.167
X21.883 Y6.362
X21.915 Y6.576
G3 X21.424 Y6.83 I-0.317 J-0.011
G1 X21.329 Y6.767
X20.418 Y6.166
G3 X20.582 Y5.585 I0.175 J-0.265
G1 X21.595
X21.632 Y5.588
X21.671 Y5.597
X21.707 Y5.609
X21.742 Y5.627
X21.778 Y5.65
X21.814 Y5.682
X21.86 Y5.742
X21.882 Y5.779
X21.897 Y5.815
X21.907 Y5.852
X21.913 Y5.888
X21.915 Y6.034
Y9.236
X21.884 Y9.847
X21.837 Y10.211
X21.774 Y10.504
X21.699 Y10.755
X21.621 Y10.955
X21.6 Y10.998
X21.485 Y11.169
X21.327 Y11.302
X21.139 Y11.386
X20.934 Y11.415
G3 X20.647 Y10.993 I0.011 J-0.317
G1 X20.71 Y10.813
X21.299 Y9.142
G3 X21.915 Y9.236 I0.299 J0.105
G1 Y10.983
X21.913 Y11.099
X21.912 Y11.128
X21.906 Y11.165
X21.894 Y11.201
X21.877 Y11.238
X21.855 Y11.274
X21.836 Y11.297
X21.814 Y11.32
X21.777 Y11.35
X21.741 Y11.374
X21.704 Y11.392
X21.668 Y11.404
X21.632 Y11.412
X21.595 Y11.415
X19.786
G3 X19.481 Y11.117 I0.011 J-0.317
G1 Y11.098 Z-5.999
X19.494 Y11.045 Z-5.991
X19.507 Y10.994 Z-5.973
X19.519 Y10.947 Z-5.946
X19.55 Y10.911 Z-5.907
X19.576 Y10.882 Z-5.859
X19.595 Y10.86 Z-5.804
X19.607 Y10.846 Z-5.745
X19.611 Y10.842 Z-5.683
G0 Z5
X17.303 Y7.561
Z-3.5
S5000
G3 X14.95 Y9.439 Z-3.665 I-1.177 J0.939 F333.3
X17.303 Y7.561 Z-3.83 I1.177 J-0.939
X14.95 Y9.439 Z-3.996 I-1.177 J0.939
X17.303 Y7.561 Z-4.161 I1.177 J-0.939
X14.95 Y9.439 Z-4.326 I-1.177 J0.939
X17.303 Y7.561 Z-4.491 I1.177 J-0.939
X14.95 Y9.439 Z-4.656 I-1.177 J0.939
X17.303 Y7.561 Z-4.822 I1.177 J-0.939
X14.95 Y9.439 Z-4.987 I-1.177 J0.939
X17.303 Y7.561 Z-5.152 I1.177 J-0.939
X14.95 Y9.439 Z-5.317 I-1.177 J0.939
X17.303 Y7.561 Z-5.482 I1.177 J-0.939
X14.95 Y9.439 Z-5.647 I-1.177 J0.939
X17.303 Y7.561 Z-5.813 I1.177 J-0.939
X14.95 Y9.439 Z-5.978 I-1.177 J0.939
X17.303 Y7.561 Z-6.143 I1.177 J-0.939
X14.95 Y9.439 Z-6.308 I-1.177 J0.939
X17.303 Y7.561 Z-6.473 I1.177 J-0.939
X14.95 Y9.439 Z-6.639 I-1.177 J0.939
X17.303 Y7.561 Z-6.804 I1.177 J-0.939
X14.95 Y9.439 Z-6.969 I-1.177 J0.939
X17.303 Y7.561 Z-7.134 I1.177 J-0.939
X14.95 Y9.439 Z-7.299 I-1.177 J0.939
X17.303 Y7.561 Z-7.465 I1.177 J-0.939
X17.632 Y8.5 Z-7.5 I-1.177 J0.939
X14.621 I-1.506
X17.632 I1.506
S15041
G1 X17.649 Y9.141 F1000
X17.678 Y9.216
X17.712 Y9.362
X17.715 Y9.512
X17.694 Y9.661
X17.651 Y9.805
X17.591 Y9.942
X17.515 Y10.071
X17.425 Y10.191
X17.324 Y10.302
X17.213 Y10.403
X17.093 Y10.493
X16.966 Y10.573
X16.833 Y10.641
X16.691 Y10.7
X16.542 Y10.749
X16.385 Y10.786
X16.223 Y10.811
X16.056 Y10.823
X15.886 Y10.822
X15.715 Y10.807
X15.542 Y10.778
X15.371 Y10.734
X15.201 Y10.676
X15.035 Y10.605
X14.875 Y10.519
X14.72 Y10.42
X14.573 Y10.308
X14.435 Y10.184
X14.306 Y10.049
X14.188 Y9.903
X14.082 Y9.747
X13.988 Y9.583
X13.908 Y9.412
X13.841 Y9.234
X13.789 Y9.05
X13.751 Y8.863
X13.729 Y8.673
X13.722 Y8.482
X13.73 Y8.29
X13.754 Y8.099
X13.793 Y7.911
X13.847 Y7.726
X13.915 Y7.546
X13.998 Y7.372
X14.095 Y7.206
X14.205 Y7.047
X14.327 Y6.898
X14.461 Y6.758
X14.606 Y6.63
X14.761 Y6.515
X14.924 Y6.411
X15.095 Y6.321
X15.273 Y6.246
X15.457 Y6.184
X15.644 Y6.138
X15.835 Y6.107
X16.028 Y6.091
X16.222
X16.415 Y6.106
X16.606 Y6.137
X16.794 Y6.183
X16.978 Y6.244
X17.156 Y6.32
X17.328 Y6.409
X17.491 Y6.513
X17.646 Y6.628
X17.792 Y6.756
X17.926 Y6.896
X18.049 Y7.045
X18.16 Y7.204
X18.265 Y7.384
X18.406 Y7.68
X18.557 Y8.074
X18.644 Y8.368
X18.699 Y8.63
X18.729 Y8.873
X18.74 Y9.1
X18.732 Y9.317
X18.708 Y9.526
X18.667 Y9.731
X18.61 Y9.932
X18.538 Y10.127
X18.45 Y10.315
X18.347 Y10.497
X18.229 Y10.67
X18.096 Y10.835
X17.948 Y10.991
X17.787 Y11.136
X17.612 Y11.269
X17.568 Y11.297
X17.443 Y11.362
X17.308 Y11.402
X17.168 Y11.415
X15.252
X15.102 Y11.408
X14.934 Y11.382
X14.763 Y11.343
X14.586 Y11.286
X14.404 Y11.212
X14.221 Y11.119
X14.042 Y11.009
X13.868 Y10.882
X13.698 Y10.736
X13.536 Y10.572
X13.384 Y10.391
X13.243 Y10.193
X13.19 Y10.104
X13.132 Y9.985
X13.097 Y9.857
X13.085 Y9.725
G3 X13.591 Y9.481 I0.317 J0.011
G1 X13.668 Y9.539
X15.427 Y10.842
X15.429 Y10.843
G3 X15.252 Y11.415 I-0.189 J0.255
G1 X13.939
X13.789 Y11.408
X13.642 Y11.382
X13.624 Y11.377
X13.448 Y11.301
X13.298 Y11.184
X13.182 Y11.031
X13.11 Y10.854
X13.085 Y10.665
G3 X13.6 Y10.429 I0.317 J0.011
G1 X13.666 Y10.481
X14.115 Y10.842
X14.126 Y10.851
G3 X13.939 Y11.415 I-0.198 J0.247
G1 X13.429
X13.392 Y11.414
X13.356 Y11.409
X13.319 Y11.399
X13.283 Y11.385
X13.246 Y11.365
X13.21 Y11.34
X13.173 Y11.307
X13.145 Y11.274
X13.123 Y11.238
X13.106 Y11.201
X13.095 Y11.165
X13.088 Y11.128
X13.085 Y10.983
Y7.78
X13.093 Y7.621
X13.116 Y7.442
X13.155 Y7.261
X13.212 Y7.073
X13.287 Y6.88
X13.381 Y6.685
X13.494 Y6.494
X13.624 Y6.309
X13.772 Y6.13
X13.939 Y5.959
X14.124 Y5.798
X14.215 Y5.73
X14.351 Y5.651
X14.499 Y5.602
X14.655 Y5.585
G3 X14.908 Y6.077 I-0.011 J0.317
G1 X14.846 Y6.171
X13.666 Y7.945
G3 X13.085 Y7.78 I-0.264 J-0.176
G1 Y6.39
X13.092 Y6.24
X13.097 Y6.21
X13.158 Y6.01
X13.273 Y5.836
X13.431 Y5.7
X13.621 Y5.614
X13.828 Y5.585
G3 X14.056 Y6.11 I-0.011 J0.317
G1 X14.009 Y6.164
X13.659 Y6.566
X13.641 Y6.587
G3 X13.085 Y6.39 I-0.239 J-0.208
G1 Y6.034
X13.087 Y5.888
X13.093 Y5.852
X13.103 Y5.815
X13.118 Y5.779
X13.14 Y5.742
X13.171 Y5.702
X13.21 Y5.662
X13.24 Y5.639
X13.271 Y5.621
X13.301 Y5.607
X13.332 Y5.597
X13.356 Y5.591
X13.392 Y5.586
X13.429 Y5.585
X17.001
X17.16 Y5.593
X17.321 Y5.614
X17.484 Y5.649
X17.653 Y5.7
X17.829 Y5.768
X18.008 Y5.855
X18.185 Y5.959
X18.359 Y6.081
X18.546 Y6.237
X18.727 Y6.414
X18.919 Y6.633
X19.104 Y6.883
X19.271 Y7.152
X19.418 Y7.436
X19.541 Y7.731
X19.64 Y8.032
X19.712 Y8.336
X19.76 Y8.64
X19.783 Y8.944
X19.781 Y9.246
X19.755 Y9.545
X19.706 Y9.839
X19.633 Y10.127
X19.538 Y10.409
X19.42 Y10.681
X19.281 Y10.944
X19.198 Y11.073
X19.08 Y11.216
X18.93 Y11.324
X18.758 Y11.392
X18.574 Y11.415
X17.168
G3 X16.862 Y11.108 I0.011 J-0.317
G1 X16.852 Y10.8
X16.705 Y6.2
X16.696 Y5.912
G3 X17.001 Y5.585 I0.317 J-0.01
G1 X18.314
X18.464 Y5.593
X18.612 Y5.615
X18.757 Y5.652
X18.904 Y5.704
X19.056 Y5.772
X19.22 Y5.862
X19.389 Y5.973
X19.562 Y6.108
X19.744 Y6.274
X19.916 Y6.459
X20.086 Y6.675
X20.252 Y6.923
X20.404 Y7.198
X20.538 Y7.491
X20.651 Y7.803
X20.742 Y8.135
X20.807 Y8.483
X20.845 Y8.842
X20.855 Y9.208
X20.835 Y9.578
X20.784 Y9.948
X20.704 Y10.316
X20.61 Y10.625
X20.505 Y10.89
X20.45 Y11.001
X20.335 Y11.171
X20.178 Y11.303
X19.99 Y11.386
X19.786 Y11.415
X18.574
G3 X18.269 Y11.114 I0.011 J-0.317
G1 X18.253 Y10.8
X18.023 Y6.2
X18.008 Y5.918
G3 X18.314 Y5.585 I0.317 J-0.016
G1 X19.481
X19.63 Y5.593
X19.778 Y5.618
X19.923 Y5.659
X20.067 Y5.714
X20.21 Y5.782
X20.371 Y5.876
X20.529 Y5.985
X20.699 Y6.124
X20.868 Y6.288
X21.034 Y6.476
X21.204 Y6.702
X21.363 Y6.954
X21.508 Y7.232
X21.641 Y7.546
X21.757 Y7.893
X21.849 Y8.266
X21.912 Y8.655
X21.915 Y8.704
Y8.724
G3 X21.345 Y8.903 I-0.317 J-0.011
G1 X21.342 Y8.899
X19.295 Y6.168
X19.238 Y6.092
G3 X19.481 Y5.585 I0.254 J-0.19
G1 X20.582
X20.731 Y5.593
X20.879 Y5.618
X21.024 Y5.659
X21.163 Y5.713
X21.306 Y5.782
X21.462 Y5.873
X21.617 Y5.982
X21.647 Y6.006
X21.791 Y6.167
X21.883 Y6.362
X21.915 Y6.576
G3 X21.424 Y6.83 I-0.317 J-0.011
G1 X21.329 Y6.767
X20.418 Y6.166
G3 X20.582 Y5.585 I0.175 J-0.265
G1 X21.595
X21.632 Y5.588
X21.671 Y5.597
X21.707 Y5.609
X21.742 Y5.627
X21.778 Y5.65
X21.814 Y5.682
X21.86 Y5.742
X21.882 Y5.779
X21.897 Y5.815
X21.907 Y5.852
X21.913 Y5.888
X21.915 Y6.034
Y9.236
X21.884 Y9.847
X21.837 Y10.211
X21.774 Y10.504
X21.699 Y10.755
X21.621 Y10.955
X21.6 Y10.998
X21.485 Y11.169
X21.327 Y11.302
X21.139 Y11.386
X20.934 Y11.415
G3 X20.647 Y10.993 I0.011 J-0.317
G1 X20.71 Y10.813
X21.299 Y9.142
G3 X21.915 Y9.236 I0.299 J0.105
G1 Y10.983
X21.913 Y11.099
X21.912 Y11.128
X21.906 Y11.165
X21.894 Y11.201
X21.877 Y11.238
X21.855 Y11.274
X21.836 Y11.297
X21.814 Y11.32
X21.777 Y11.35
X21.741 Y11.374
X21.704 Y11.392
X21.668 Y11.404
X21.632 Y11.412
X21.595 Y11.415
X19.786
G3 X19.611 Y10.842 I0.011 J-0.317
G1 X19.668 Y10.8 Z-7.492
X19.722 Y10.761 Z-7.469
X19.771 Y10.726 Z-7.431
X19.811 Y10.696 Z-7.381
X19.842 Y10.674 Z-7.321
X19.861 Y10.66 Z-7.254
X19.867 Y10.655 Z-7.183
G0 Z15
M30
%
