%
(bottom-usb-v)
(T1  D=6.35 CR=0 TAPER=30deg - ZMIN=-0.609 - chamfer mill)
G90 G94
G17
G21

(Engrave On/Off)
M9
T1 M6
S5000 M3
G54
G0 X71.85 Y1.282
Z15
Z5
G1 Z-0.001 F762
X72.076 Y1.509 Z-0.393
X72.303 Y1.282 Z-0.001
X72.076 Y1.509 Z-0.393
Y4.094
X72.079 Y4.15 Z-0.399
X72.09 Y4.206 Z-0.417
X72.107 Y4.262 Z-0.447
X72.131 Y4.318 Z-0.489
X72.162 Y4.374 Z-0.543
X72.2 Y4.43 Z-0.608
X72.166 Y4.544 Z-0.548
X71.85 Y4.86 Z-0.001
X72.166 Y4.544 Z-0.548
X72.334 Y4.86 Z-0.001
X72.166 Y4.544 Z-0.548
X72.2 Y4.43 Z-0.608
X72.263 Y4.405 Z-0.542
X72.32 Y4.375 Z-0.488
X72.372 Y4.342 Z-0.446
X72.417 Y4.305 Z-0.416
X72.457 Y4.265 Z-0.398
X72.491 Y4.22 Z-0.392
X74.026 Y1.924 Z-0.393
X74.06 Y1.88 Z-0.399
X74.1 Y1.839 Z-0.417
X74.146 Y1.802 Z-0.447
X74.197 Y1.769 Z-0.489
X74.254 Y1.739 Z-0.543
X74.317 Y1.714 Z-0.609
X74.352 Y1.598 Z-0.548
X74.668 Y1.282 Z-0.001
X74.352 Y1.598 Z-0.548
X74.183 Y1.282 Z-0.001
X74.352 Y1.598 Z-0.548
X74.317 Y1.714 Z-0.609
X74.355 Y1.77 Z-0.543
X74.386 Y1.826 Z-0.489
X74.411 Y1.882 Z-0.447
X74.428 Y1.938 Z-0.417
X74.438 Y1.994 Z-0.399
X74.442 Y2.051 Z-0.393
Y4.634
X74.668 Y4.86 Z-0.001
X74.442 Y4.634 Z-0.393
X74.215 Y4.86 Z-0.001
G0 Z5
X70.9 Y3.718
G1 Z-0.413 F762
X70.852 Y3.85 Z-0.409
X70.824 Y3.923 Z-0.406
X70.785 Y3.993 Z-0.403
X70.721 Y4.101 Z-0.399
X70.665 Y4.184 Z-0.395
X70.614 Y4.249 Z-0.392
X70.573 Y4.293 Z-0.389
X70.524 Y4.339 Z-0.385
X70.449 Y4.403 Z-0.38
X70.351 Y4.476 Z-0.376
X70.304 Y4.509 Z-0.372
X70.275 Y4.525 Z-0.369
X70.141 Y4.592 Z-0.365
X70.051 Y4.63 Z-0.362
X69.975 Y4.657 Z-0.36
X69.914 Y4.675 Z-0.358
X69.85 Y4.689 Z-0.356
X69.758 Y4.702 Z-0.354
X69.666 Y4.712 Z-0.353
X69.537 Y4.72
X69.478 Y4.715 Z-0.352
X69.306 Y4.698 Z-0.354
X69.217 Y4.684 Z-0.356
X69.12 Y4.665 Z-0.36
X69.027 Y4.639 Z-0.364
X68.941 Y4.607 Z-0.369
X68.856 Y4.565 Z-0.372
X68.778 Y4.518 Z-0.373
X68.696 Y4.462 Z-0.374
X68.602 Y4.391 Z-0.373
X68.526 Y4.329
X68.485 Y4.289 Z-0.381
X68.458 Y4.257 Z-0.388
X68.363 Y4.12 Z-0.39
X68.301 Y4.024 Z-0.393
X68.242 Y3.921 Z-0.398
X68.202 Y3.84 Z-0.402
X68.17 Y3.763 Z-0.405
X68.147 Y3.695 Z-0.408
X68.121 Y3.597 Z-0.411
X68.106 Y3.521 Z-0.412
X68.098 Y3.471 Z-0.413
X68.086 Y3.379 Z-0.415
X68.076 Y3.261 Z-0.417
X68.069 Y3.129 Z-0.42
X68.066 Y3 Z-0.422
X68.079 Y2.81 Z-0.42
X68.09 Y2.708 Z-0.418
X68.106 Y2.612 Z-0.413
X68.127 Y2.525 Z-0.407
X68.149 Y2.448 Z-0.402
X68.187 Y2.343 Z-0.398
X68.229 Y2.243 Z-0.4
X68.234 Y2.234 Z-0.401
X68.281 Y2.149 Z-0.398
X68.336 Y2.059
X68.391 Y1.978 Z-0.397
X68.445 Y1.906 Z-0.391
X68.476 Y1.869 Z-0.385
X68.506 Y1.837 Z-0.381
X68.556 Y1.794
X68.646 Y1.721 Z-0.377
X68.741 Y1.65 Z-0.374
X68.8 Y1.614 Z-0.366
X68.886 Y1.568 Z-0.359
X68.974 Y1.527 Z-0.356
X69.054 Y1.497 Z-0.357
X69.116 Y1.478 Z-0.358
X69.213 Y1.457 Z-0.357
X69.316 Y1.442 Z-0.355
X69.428 Y1.431 Z-0.353
X69.542 Y1.424 Z-0.35
X69.678 Y1.435 Z-0.353
X69.771 Y1.445 Z-0.355
X69.869 Y1.461 Z-0.356
X69.96 Y1.483
X70.049 Y1.512 Z-0.355
X70.115 Y1.538 Z-0.357
X70.179 Y1.568 Z-0.36
X70.243 Y1.601 Z-0.367
X70.308 Y1.639 Z-0.375
X70.389 Y1.696 Z-0.379
X70.485 Y1.771 Z-0.387
X70.558 Y1.833 Z-0.389
X70.579 Y1.853 Z-0.39
X70.627 Y1.912 Z-0.398
X70.657 Y1.953 Z-0.402
X70.714 Y2.035 Z-0.405
X70.772 Y2.129 Z-0.407
X70.813 Y2.199 Z-0.409
X70.847 Y2.276 Z-0.405
X70.89 Y2.382
X70.926 Y2.49 Z-0.409
X70.95 Y2.584 Z-0.415
X70.964 Y2.652 Z-0.418
X70.979 Y2.76 Z-0.42
X70.989 Y2.874 Z-0.422
X70.999 Y3.067 Z-0.423
X70.995 Y3.179 Z-0.421
X70.984 Y3.331 Z-0.42
X70.971 Y3.44
X70.952 Y3.538 Z-0.418
X70.933 Y3.612 Z-0.416
X70.9 Y3.718 Z-0.413
G0 Z5
X90.488 Y2.998
G1 Z-0.423 F762
X90.499 Y3.234 Z-0.417
X90.512 Y3.379 Z-0.414
X90.524 Y3.464 Z-0.413
X90.544 Y3.57 Z-0.411
X90.57 Y3.67 Z-0.408
X90.593 Y3.736 Z-0.405
X90.625 Y3.813 Z-0.402
X90.669 Y3.901 Z-0.397
X90.701 Y3.959 Z-0.395
X90.763 Y4.058 Z-0.391
X90.85 Y4.187 Z-0.389
X90.888 Y4.24 Z-0.388
X90.916 Y4.27 Z-0.379
X90.961 Y4.312 Z-0.372
X91.077 Y4.404 Z-0.374
X91.167 Y4.469 Z-0.373
X91.245 Y4.518 Z-0.372
X91.329 Y4.563 Z-0.37
X91.409 Y4.598 Z-0.366
X91.465 Y4.616 Z-0.363
X91.556 Y4.641 Z-0.359
X91.646 Y4.658 Z-0.356
X91.773 Y4.676 Z-0.354
X91.916 Y4.69 Z-0.352
X91.972 Y4.692
X92.135 Y4.68 Z-0.353
X92.217 Y4.671 Z-0.355
X92.311 Y4.654 Z-0.357
X92.385 Y4.634 Z-0.359
X92.443 Y4.615 Z-0.361
X92.523 Y4.583 Z-0.364
X92.621 Y4.537 Z-0.367
X92.72 Y4.486 Z-0.371
X92.751 Y4.466 Z-0.375
X92.875 Y4.373 Z-0.38
X92.951 Y4.308 Z-0.385
X93.002 Y4.259 Z-0.389
X93.055 Y4.199 Z-0.393
X93.108 Y4.129 Z-0.397
X93.147 Y4.07 Z-0.399
X93.209 Y3.964 Z-0.403
X93.251 Y3.885 Z-0.407
X93.312 Y3.724 Z-0.412
X93.347 Y3.617 Z-0.415
X93.374 Y3.515 Z-0.418
X93.39 Y3.436 Z-0.419
X93.403 Y3.341 Z-0.42
X93.413 Y3.229 Z-0.421
X93.421 Y3.069 Z-0.422
Y3.008
X93.411 Y2.829 Z-0.421
X93.401 Y2.723 Z-0.42
X93.385 Y2.617 Z-0.417
X93.365 Y2.522 Z-0.413
X93.346 Y2.453 Z-0.409
X93.31 Y2.345 Z-0.405
X93.27 Y2.249
X93.235 Y2.172 Z-0.409
X93.187 Y2.089 Z-0.406
X93.131 Y2 Z-0.405
X93.076 Y1.92 Z-0.402
X93.039 Y1.871 Z-0.396
X93.002 Y1.826 Z-0.39
X92.957 Y1.785 Z-0.389
X92.88 Y1.721 Z-0.385
X92.775 Y1.642 Z-0.377
X92.718 Y1.603 Z-0.374
X92.646 Y1.563 Z-0.364
X92.556 Y1.519 Z-0.357
X92.466 Y1.482 Z-0.355
X92.383 Y1.456 Z-0.356
X92.323 Y1.44
X92.227 Y1.423
X92.126 Y1.41 Z-0.354
X91.965 Y1.397 Z-0.35
X91.934
X91.761 Y1.412 Z-0.355
X91.669 Y1.424 Z-0.356
X91.571 Y1.444 Z-0.358
X91.484 Y1.468 Z-0.357
X91.414 Y1.493
X91.35 Y1.521
X91.284 Y1.554 Z-0.361
X91.217 Y1.591 Z-0.367
X91.164 Y1.623 Z-0.374
X91.087 Y1.68 Z-0.376
X90.999 Y1.75 Z-0.381
X90.929 Y1.81
X90.899 Y1.842 Z-0.385
X90.868 Y1.879 Z-0.391
X90.832 Y1.925 Z-0.395
X90.777 Y2.004 Z-0.398
X90.722 Y2.091
X90.668 Y2.186 Z-0.4
X90.648 Y2.224 Z-0.399
X90.606 Y2.326 Z-0.398
X90.569 Y2.43 Z-0.403
X90.549 Y2.498 Z-0.407
X90.528 Y2.592 Z-0.414
X90.512 Y2.688 Z-0.418
X90.501 Y2.79 Z-0.42
X90.491 Y2.935 Z-0.422
X90.488 Y2.998 Z-0.423
G0 Z5
X94.302 Y1.255
G1 Z-0.001 F762
X94.538 Y1.491 Z-0.41
X94.774 Y1.255 Z-0.001
X94.538 Y1.491 Z-0.41
Y2.88
X94.541 Y2.933 Z-0.415
X94.55 Y2.986 Z-0.431
X94.564 Y3.039 Z-0.456
X94.585 Y3.092 Z-0.492
X94.622 Z-0.452
X94.652 Z-0.423
X94.679 Z-0.402
X94.702 Z-0.387
X94.722 Z-0.377
X94.758 Z-0.367
X96.243 Z-0.366
X96.454 Y3.302 Z-0.001
X96.243 Y3.092 Z-0.366
X96.454 Y2.881 Z-0.001
X96.243 Y3.092 Z-0.366
X94.758 Z-0.367
X94.722 Z-0.377
X94.702 Z-0.387
X94.679 Z-0.402
X94.652 Z-0.423
X94.622 Z-0.452
X94.585 Z-0.492
X94.564 Y3.144 Z-0.456
X94.55 Y3.197 Z-0.431
X94.541 Y3.25 Z-0.415
X94.538 Y3.303 Z-0.41
Y4.411
X94.541 Y4.464 Z-0.415
X94.55 Y4.517 Z-0.431
X94.565 Y4.57 Z-0.456
X94.302 Y4.833 Z-0.001
X94.565 Y4.57 Z-0.456
X94.617 Y4.593 Z-0.417
X94.67 Y4.609 Z-0.388
X94.722 Y4.619 Z-0.371
X94.775 Y4.622 Z-0.366
X96.505
X96.715 Y4.833 Z-0.001
X96.505 Y4.622 Z-0.366
X96.715 Y4.412 Z-0.001
G0 Z5
X97.356 Y1.255
G1 Z-0.001 F762
X97.592 Y1.491 Z-0.41
X97.828 Y1.255 Z-0.001
X97.592 Y1.491 Z-0.41
Y2.88
X97.595 Y2.933 Z-0.415
X97.604 Y2.986 Z-0.431
X97.619 Y3.039 Z-0.456
X97.639 Y3.092 Z-0.492
X97.676 Z-0.452
X97.707 Z-0.423
X97.733 Z-0.402
X97.756 Z-0.387
X97.777 Z-0.377
X97.812 Z-0.367
X99.298 Z-0.366
X99.508 Y3.302 Z-0.001
X99.298 Y3.092 Z-0.366
X99.508 Y2.881 Z-0.001
X99.298 Y3.092 Z-0.366
X97.812 Z-0.367
X97.777 Z-0.377
X97.756 Z-0.387
X97.733 Z-0.402
X97.707 Z-0.423
X97.676 Z-0.452
X97.639 Z-0.492
X97.619 Y3.144 Z-0.456
X97.604 Y3.197 Z-0.431
X97.595 Y3.25 Z-0.415
X97.592 Y3.303 Z-0.41
Y4.411
X97.595 Y4.464 Z-0.415
X97.604 Y4.517 Z-0.431
X97.619 Y4.57 Z-0.456
X97.356 Y4.833 Z-0.001
X97.619 Y4.57 Z-0.456
X97.671 Y4.593 Z-0.417
X97.724 Y4.609 Z-0.388
X97.776 Y4.619 Z-0.371
X97.829 Y4.622 Z-0.366
X99.559
X99.769 Y4.833 Z-0.001
X99.559 Y4.622 Z-0.366
X99.769 Y4.412 Z-0.001
G0 Z15
M30
%
