%
(bottom-pocket-3_4)
(T1  D=18.745 CR=0 - ZMIN=-13 - flat end mill)
G90 G94
G17
G21

(Pocket-3_4)
M9
T1 M6
S16000 M3
G54
G0 X33.396 Y35.799
Z15
Z5
Z2.5
G3 X23.951 Y20.701 Z1.523 I-4.722 J-7.549 F333.3
X33.396 Y35.799 Z0.546 I4.722 J7.549
X23.951 Y20.701 Z-0.43 I-4.722 J-7.549
X33.396 Y35.799 Z-1.407 I4.722 J7.549
X23.951 Y20.701 Z-2.384 I-4.722 J-7.549
X33.396 Y35.799 Z-3.361 I4.722 J7.549
X23.951 Y20.701 Z-4.338 I-4.722 J-7.549
X37.577 Y28.25 Z-5 I4.722 J7.549
X19.769 I-8.904
X37.577 I8.904
G1 X37.579 Y28.643 F1400
X37.616 Y29.034
X37.688 Y29.42
X38.113 Y30.932
X38.177 Y31.056
X38.302 Y31.326
X38.416 Y31.635
X38.514 Y31.985
X38.589 Y32.375
X38.638 Y32.803
X38.652 Y33.269
X38.628 Y33.768
X38.559 Y34.298
X38.441 Y34.855
X38.268 Y35.433
X38.038 Y36.027
X37.746 Y36.631
X37.39 Y37.238
X36.967 Y37.84
X36.478 Y38.431
X35.923 Y39.002
X35.569 Y39.311
X35.191 Y39.597
X34.776 Y39.825
X34.332 Y39.992
X33.869 Y40.093
X33.397 Y40.127
X25.304
X24.7 Y40.097
X23.975 Y40.002
X23.23 Y39.843
X22.471 Y39.615
X21.705 Y39.317
X20.941 Y38.946
X20.186 Y38.502
X19.449 Y37.984
X18.738 Y37.394
X18.061 Y36.734
X17.426 Y36.006
X17.02 Y35.456
X16.792 Y35.103
X16.611 Y34.724
X16.479 Y34.325
X16.399 Y33.913
X16.373 Y33.494
Y25.73
X16.426 Y24.664
X16.528 Y23.888
X16.698 Y23.093
X16.939 Y22.287
X17.254 Y21.479
X17.644 Y20.675
X18.109 Y19.885
X18.649 Y19.117
X19.262 Y18.378
X19.945 Y17.678
X20.7 Y17.02
X21.053 Y16.792
X21.432 Y16.611
X21.831 Y16.479
X22.243 Y16.399
X22.663 Y16.373
X32.043
X32.647 Y16.403
X33.371 Y16.498
X34.117 Y16.657
X34.876 Y16.885
X35.642 Y17.183
X36.406 Y17.554
X37.161 Y17.998
X37.897 Y18.516
X38.608 Y19.106
X39.285 Y19.766
X39.92 Y20.494
X40.802 Y21.686
X41.632 Y23.02
X42.39 Y24.396
X43.054 Y25.819
X43.553 Y27.161
X43.919 Y28.456
X44.168 Y29.711
X44.31 Y30.942
X44.352 Y32.158
X44.297 Y33.361
X44.146 Y34.552
X43.9 Y35.727
X43.559 Y36.884
X43.14 Y37.973
X43.004 Y38.255
X42.775 Y38.658
X42.492 Y39.024
X42.16 Y39.347
X41.787 Y39.62
X41.379 Y39.839
X40.944 Y39.998
X40.491 Y40.095
X40.029 Y40.127
X33.397
G3 X32.64 Y39.939 I0.065 J-1.873 F1000
X32.267 Y39.698 I0.822 J-1.685 F1400
G1 X17.051 Y27.109
G3 X16.561 Y26.487 I1.195 J-1.444
X16.373 Y25.73 I1.685 J-0.822 F1000
G1 Y19.012 F1400
X16.402 Y18.416
X16.495 Y18.004
X16.659 Y17.615
X16.891 Y17.262
X17.182 Y16.956
X17.523 Y16.707
X17.904 Y16.523
X18.311 Y16.411
X18.732 Y16.373
G3 X19.502 Y16.509 I-0.097 J2.789 F1000
X20.494 Y17.081 I-0.868 J2.652 F1400
X17.196 Y20.77 I-1.649 J1.844
X16.523 Y19.779 I1.649 J-1.844
X16.373 Y19.012 I2.322 J-0.854 F1000
G1 Y18.452 F1400
X16.375 Y18.172
X16.41 Y17.892
X16.49 Y17.612
X16.621 Y17.332
X16.735 Y17.157
X16.88 Y16.983
X17.108 Y16.772
X17.274 Y16.655
X17.441 Y16.563
X17.722 Y16.453
X18.003 Y16.391
X18.564 Y16.373
X22.663
G3 X23.419 Y16.561 I-0.065 J1.873 F1000
X24.456 Y18.001 I-0.822 J1.685 F1400
G1 X27.097 Y38.009
G3 X26.06 Y39.939 I-1.858 J0.245
X25.304 Y40.127 I-0.822 J-1.685 F1000
G1 X19.126 F1400
X18.647 Y40.103
X18.238 Y40.016
X17.848 Y39.865
X17.488 Y39.653
X17.166 Y39.387
X16.89 Y39.073
X16.668 Y38.719
X16.505 Y38.334
X16.406 Y37.928
X16.373 Y37.512
G3 X16.51 Y36.741 I2.769 J0.097 F1000
X17.133 Y35.7 I2.632 J0.867 F1400
X20.936 Y39.313 I1.902 J1.806
X19.895 Y39.984 I-1.902 J-1.806
X19.126 Y40.127 I-0.861 J-2.478 F1000
G1 X18.564 F1400
X18.003 Y40.109
X17.722 Y40.047
X17.441 Y39.937
X17.274 Y39.845
X17.108 Y39.728
X16.88 Y39.517
X16.735 Y39.343
X16.621 Y39.168
X16.49 Y38.888
X16.41 Y38.608
X16.375 Y38.328
X16.373 Y38.048
Y33.494
G3 X16.561 Y32.737 I1.873 J0.065 F1000
X16.856 Y32.301 I1.685 J0.822 F1400
G1 X30.719 Y16.988
G3 X31.286 Y16.561 I1.39 J1.258
X32.043 Y16.373 I0.822 J1.685 F1000
G1 X38.221 F1400
X38.707 Y16.397
X39.276 Y16.472
X39.862 Y16.597
X40.542 Y16.801
X41.26 Y17.08
X42.055 Y17.466
X42.882 Y17.953
X43.731 Y18.55
X44.613 Y19.281
X45.457 Y20.104
X46.279 Y21.047
X47.067 Y22.113
X47.799 Y23.289
X48.452 Y24.553
X49.012 Y25.894
X49.472 Y27.302
X49.824 Y28.77
X50.061 Y30.291
X50.178 Y31.852
X50.169 Y33.406
X50.051 Y34.771
X49.85 Y35.968
X49.581 Y37.037
X49.255 Y37.999
X49.196 Y38.135
X48.974 Y38.56
X48.694 Y38.949
X48.36 Y39.293
X47.979 Y39.585
X47.56 Y39.818
X47.112 Y39.989
X46.644 Y40.093
X46.166 Y40.127
X40.029
G3 X39.273 Y39.939 I0.065 J-1.873 F1000
X38.228 Y38.423 I0.822 J-1.685 F1400
G1 X36.419 Y18.415
G3 X37.464 Y16.561 I1.867 J-0.169
X38.221 Y16.373 I0.822 J1.685 F1000
G1 X43.837 F1400
X44.669 Y16.414
X45.26 Y16.492
X45.878 Y16.624
X46.569 Y16.831
X47.273 Y17.105
X48.05 Y17.482
X48.817 Y17.933
X49.642 Y18.513
X50.457 Y19.189
X51.269 Y19.982
X52.094 Y20.928
X52.868 Y21.974
X53.595 Y23.142
X54.277 Y24.464
X54.883 Y25.913
X55.371 Y27.406
X55.741 Y28.933
X55.993 Y30.483
X56.124 Y32.048
X56.134 Y33.523
X56.038 Y34.817
X55.857 Y35.979
X55.607 Y37.024
X55.299 Y37.968
X55.221 Y38.155
X55.008 Y38.575
X54.736 Y38.96
X54.411 Y39.3
X54.039 Y39.589
X53.629 Y39.821
X53.19 Y39.99
X52.73 Y40.093
X52.261 Y40.127
X46.166
G3 X45.41 Y39.939 I0.065 J-1.873 F1000
X44.37 Y38.471 I0.822 J-1.685 F1400
G1 X42.04 Y18.463
G3 X43.08 Y16.561 I1.862 J-0.217
X43.837 Y16.373 I0.822 J1.685 F1000
G1 X50.014 F1400
X50.562 Y16.4
X51.15 Y16.477
X51.755 Y16.606
X52.441 Y16.812
X53.132 Y17.081
X53.905 Y17.456
X54.668 Y17.905
X55.498 Y18.489
X56.314 Y19.166
X57.143 Y19.975
X57.985 Y20.939
X58.773 Y22.005
X59.525 Y23.213
X60.227 Y24.575
X60.833 Y26.024
X61.324 Y27.516
X61.699 Y29.041
X61.957 Y30.591
X62.094 Y32.156
X62.107 Y33.608
X62.016 Y34.878
X61.841 Y36.022
X61.596 Y37.06
X61.294 Y37.996
X61.255 Y38.09
X61.037 Y38.524
X60.757 Y38.921
X60.422 Y39.272
X60.04 Y39.571
X59.617 Y39.811
X59.164 Y39.985
X58.69 Y40.092
X58.206 Y40.127
X52.261
G3 X51.504 Y39.939 I0.065 J-1.873 F1000
X50.463 Y38.463 I0.822 J-1.685 F1400
G1 X48.217 Y18.455
G3 X49.258 Y16.561 I1.863 J-0.209
X50.014 Y16.373 I0.822 J1.685 F1000
G1 X55.63 F1400
X56.455 Y16.414
X57.043 Y16.491
X57.649 Y16.621
X58.338 Y16.827
X59.034 Y17.098
X59.813 Y17.476
X60.581 Y17.928
X61.421 Y18.518
X62.242 Y19.199
X63.082 Y20.019
X63.932 Y20.994
X64.73 Y22.072
X65.489 Y23.292
X66.197 Y24.665
X66.803 Y26.114
X67.295 Y27.606
X67.671 Y29.131
X67.929 Y30.681
X68.066 Y32.245
X68.079 Y33.667
X67.99 Y34.908
X67.818 Y36.032
X67.574 Y37.063
X67.273 Y37.995
X67.233 Y38.091
X67.015 Y38.524
X66.736 Y38.921
X66.401 Y39.273
X66.018 Y39.571
X65.596 Y39.811
X65.143 Y39.985
X64.669 Y40.092
X64.185 Y40.127
X58.206
G3 X57.45 Y39.939 I0.065 J-1.873 F1000
X56.412 Y38.493 I0.822 J-1.685 F1400
G1 X53.837 Y18.485
G3 X54.874 Y16.561 I1.859 J-0.239
X55.63 Y16.373 I0.822 J1.685 F1000
G1 X61.808 F1400
X62.351 Y16.4
X62.942 Y16.477
X63.557 Y16.609
X64.247 Y16.816
X64.954 Y17.091
X65.736 Y17.47
X66.513 Y17.928
X67.36 Y18.523
X68.185 Y19.207
X69.035 Y20.036
X69.891 Y21.018
X70.691 Y22.1
X71.456 Y23.329
X72.169 Y24.711
X72.775 Y26.16
X73.267 Y27.652
X73.643 Y29.177
X73.9 Y30.727
X74.036 Y32.292
X74.047 Y33.704
X73.957 Y34.939
X73.785 Y36.056
X73.541 Y37.084
X73.239 Y38.014
X73.178 Y38.162
X72.966 Y38.581
X72.696 Y38.964
X72.372 Y39.303
X72.003 Y39.591
X71.595 Y39.822
X71.157 Y39.99
X70.7 Y40.093
X70.232 Y40.127
X64.185
G3 X63.428 Y39.939 I0.065 J-1.873 F1000
X62.389 Y38.475 I0.822 J-1.685 F1400
G1 X60.012 Y18.467
G3 X61.052 Y16.561 I1.861 J-0.221
X61.808 Y16.373 I0.822 J1.685 F1000
G1 X67.733 F1400
X68.293 Y16.401
X68.883 Y16.478
X69.502 Y16.61
X70.193 Y16.817
X70.904 Y17.094
X71.687 Y17.474
X72.469 Y17.935
X73.319 Y18.532
X74.145 Y19.217
X74.999 Y20.05
X75.857 Y21.034
X76.658 Y22.117
X77.425 Y23.349
X78.139 Y24.734
X78.745 Y26.183
X79.237 Y27.675
X79.612 Y29.2
X79.869 Y30.749
X80.005 Y32.314
X80.015 Y33.737
X79.924 Y34.978
X79.751 Y36.097
X79.507 Y37.123
X79.206 Y38.05
X79.187 Y38.096
X78.968 Y38.528
X78.688 Y38.924
X78.354 Y39.275
X77.971 Y39.573
X77.549 Y39.812
X77.097 Y39.986
X76.624 Y40.092
X76.14 Y40.127
X70.232
G3 X69.476 Y39.939 I0.065 J-1.873 F1000
X68.437 Y38.486 I0.822 J-1.685 F1400
G1 X65.938 Y18.478
G3 X66.976 Y16.561 I1.86 J-0.232
X67.733 Y16.373 I0.822 J1.685 F1000
G1 X73.602 F1400
X74.25 Y16.405
X74.841 Y16.483
X75.461 Y16.615
X76.152 Y16.822
X76.865 Y17.1
X77.648 Y17.48
X78.432 Y17.941
X79.283 Y18.539
X80.11 Y19.226
X80.965 Y20.06
X81.824 Y21.044
X82.625 Y22.127
X83.393 Y23.361
X84.108 Y24.746
X84.713 Y26.195
X85.205 Y27.687
X85.581 Y29.212
X85.839 Y30.762
X85.975 Y32.326
X85.986 Y33.73
X85.897 Y34.958
X85.726 Y36.069
X85.483 Y37.093
X85.183 Y38.021
X85.152 Y38.094
X84.934 Y38.527
X84.654 Y38.923
X84.319 Y39.274
X83.937 Y39.572
X83.514 Y39.811
X83.062 Y39.986
X82.589 Y40.092
X82.105 Y40.127
X76.14
G3 X75.384 Y39.939 I0.065 J-1.873 F1000
X74.346 Y38.49 I0.822 J-1.685 F1400
G1 X71.808 Y18.482
G3 X72.845 Y16.561 I1.86 J-0.236
X73.602 Y16.373 I0.822 J1.685 F1000
G1 X79.779 F1400
X80.201 Y16.394
X80.792 Y16.471
X81.415 Y16.604
X82.106 Y16.811
X82.822 Y17.09
X83.606 Y17.47
X84.392 Y17.933
X85.245 Y18.532
X86.073 Y19.22
X86.93 Y20.056
X87.789 Y21.041
X88.592 Y22.127
X89.362 Y23.363
X90.078 Y24.751
X90.684 Y26.2
X91.176 Y27.692
X91.551 Y29.217
X91.809 Y30.767
X91.944 Y32.332
X91.954 Y33.736
X91.864 Y34.964
X91.693 Y36.075
X91.449 Y37.099
X91.147 Y38.027
X91.068 Y38.217
X90.862 Y38.624
X90.599 Y38.996
X90.284 Y39.326
X89.925 Y39.606
X89.528 Y39.83
X89.103 Y39.994
X88.658 Y40.094
X88.203 Y40.127
X82.105
G3 X81.348 Y39.939 I0.065 J-1.873 F1000
X80.308 Y38.47 I0.822 J-1.685 F1400
G1 X77.983 Y18.462
G3 X79.023 Y16.561 I1.862 J-0.216
X79.779 Y16.373 I0.822 J1.685 F1000
G1 X85.395 F1400
X86.182 Y16.412
X86.773 Y16.489
X87.394 Y16.622
X88.084 Y16.829
X88.799 Y17.107
X89.582 Y17.487
X90.367 Y17.95
X91.219 Y18.548
X92.046 Y19.235
X92.902 Y20.07
X93.761 Y21.055
X94.564 Y22.139
X95.332 Y23.374
X96.047 Y24.759
X96.653 Y26.209
X97.144 Y27.7
X97.52 Y29.226
X97.776 Y30.775
X97.912 Y32.34
X97.921 Y33.769
X97.83 Y35.014
X97.656 Y36.133
X97.412 Y37.157
X97.111 Y38.081
X97.104 Y38.097
X96.885 Y38.53
X96.606 Y38.925
X96.271 Y39.276
X95.889 Y39.573
X95.467 Y39.812
X95.014 Y39.986
X94.542 Y40.092
X94.058 Y40.127
X88.203
G3 X87.447 Y39.939 I0.065 J-1.873 F1000
X86.413 Y38.515 I0.822 J-1.685 F1400
G1 X83.605 Y18.507
G3 X84.639 Y16.561 I1.856 J-0.261
X85.395 Y16.373 I0.822 J1.685 F1000
G1 X91.573 F1400
X92.136 Y16.401
X92.727 Y16.478
X93.351 Y16.612
X94.042 Y16.819
X94.758 Y17.098
X95.542 Y17.478
X96.329 Y17.941
X97.182 Y18.541
X98.01 Y19.228
X98.868 Y20.065
X99.727 Y21.05
X100.529 Y22.134
X101.129 Y23.098
X101.344 Y23.503
X101.5 Y23.935
X101.595 Y24.384
X101.627 Y24.841
Y36.369
X101.589 Y37.142
X101.507 Y37.768
X101.447 Y38.046
X101.317 Y38.474
X101.116 Y38.873
X100.851 Y39.233
X100.529 Y39.542
X100.159 Y39.793
X99.752 Y39.977
X99.319 Y40.089
X98.874 Y40.127
G3 X98.117 Y39.939 I0.065 J-1.873 F1000
X97.228 Y37.488 I0.822 J-1.685 F1400
G1 X98.043 Y35.668
G3 X101.439 Y35.612 I1.711 J0.766
X101.627 Y36.369 I-1.685 J0.822 F1000
G1 Y38.048 F1400
X101.625 Y38.328
X101.59 Y38.608
X101.51 Y38.888
X101.379 Y39.168
X101.265 Y39.343
X101.12 Y39.517
X100.892 Y39.728
X100.726 Y39.845
X100.559 Y39.937
X100.278 Y40.047
X99.997 Y40.109
X99.436 Y40.127
X94.058
G3 X93.302 Y39.939 I0.065 J-1.873 F1000
X92.263 Y38.485 I0.822 J-1.685 F1400
G1 X89.778 Y18.477
G3 X90.817 Y16.561 I1.86 J-0.231
X91.573 Y16.373 I0.822 J1.685 F1000
G1 X97.751 F1400
X98.098 Y16.39
X98.688 Y16.467
X99.313 Y16.601
X99.446 Y16.641
X99.852 Y16.795
X100.233 Y17.005
X100.58 Y17.267
X100.886 Y17.575
X101.146 Y17.924
X101.353 Y18.306
X101.505 Y18.713
X101.597 Y19.138
X101.627 Y19.572
G3 X101.439 Y20.328 I-1.873 J-0.065 F1000
X98.732 Y21.078 I-1.685 J-0.822 F1400
G1 X96.794 Y19.817
G3 X96.994 Y16.561 I1.022 J-1.571
X97.751 Y16.373 I0.822 J1.685 F1000
G1 X99.436 F1400
X99.997 Y16.391
X100.278 Y16.453
X100.559 Y16.563
X100.726 Y16.655
X100.892 Y16.772
X101.12 Y16.983
X101.265 Y17.157
X101.379 Y17.332
X101.51 Y17.612
X101.59 Y17.892
X101.625 Y18.172
X101.627 Y18.452
Y24.841
X101.614 Y24.941 Z-4.993 F1000
X101.6 Y25.039 Z-4.974
X101.587 Y25.134 Z-4.942
X101.574 Y25.224 Z-4.898
X101.546 Y25.302 Z-4.844
X101.521 Y25.372 Z-4.78
X101.498 Y25.435 Z-4.707
X101.479 Y25.489 Z-4.627
X101.464 Y25.532 Z-4.539
X101.452 Y25.565 Z-4.447
X101.444 Y25.587 Z-4.351
X101.44 Y25.595 Z-4.283
X101.439 Y25.598 Z-4.215
G0 Z5
X33.396 Y35.799
Z-2.5
G3 X23.951 Y20.701 Z-3.477 I-4.722 J-7.549 F333.3
X33.396 Y35.799 Z-4.454 I4.722 J7.549
X23.951 Y20.701 Z-5.43 I-4.722 J-7.549
X33.396 Y35.799 Z-6.407 I4.722 J7.549
X23.951 Y20.701 Z-7.384 I-4.722 J-7.549
X33.396 Y35.799 Z-8.361 I4.722 J7.549
X23.951 Y20.701 Z-9.338 I-4.722 J-7.549
X37.577 Y28.25 Z-10 I4.722 J7.549
X19.769 I-8.904
X37.577 I8.904
G1 X37.579 Y28.643 F1400
X37.616 Y29.034
X37.688 Y29.42
X38.113 Y30.932
X38.177 Y31.056
X38.302 Y31.326
X38.416 Y31.635
X38.514 Y31.985
X38.589 Y32.375
X38.638 Y32.803
X38.652 Y33.269
X38.628 Y33.768
X38.559 Y34.298
X38.441 Y34.855
X38.268 Y35.433
X38.038 Y36.027
X37.746 Y36.631
X37.39 Y37.238
X36.967 Y37.84
X36.478 Y38.431
X35.923 Y39.002
X35.569 Y39.311
X35.191 Y39.597
X34.776 Y39.825
X34.332 Y39.992
X33.869 Y40.093
X33.397 Y40.127
X25.304
X24.7 Y40.097
X23.975 Y40.002
X23.23 Y39.843
X22.471 Y39.615
X21.705 Y39.317
X20.941 Y38.946
X20.186 Y38.502
X19.449 Y37.984
X18.738 Y37.394
X18.061 Y36.734
X17.426 Y36.006
X17.02 Y35.456
X16.792 Y35.103
X16.611 Y34.724
X16.479 Y34.325
X16.399 Y33.913
X16.373 Y33.494
Y25.73
X16.426 Y24.664
X16.528 Y23.888
X16.698 Y23.093
X16.939 Y22.287
X17.254 Y21.479
X17.644 Y20.675
X18.109 Y19.885
X18.649 Y19.117
X19.262 Y18.378
X19.945 Y17.678
X20.7 Y17.02
X21.053 Y16.792
X21.432 Y16.611
X21.831 Y16.479
X22.243 Y16.399
X22.663 Y16.373
X32.043
X32.647 Y16.403
X33.371 Y16.498
X34.117 Y16.657
X34.876 Y16.885
X35.642 Y17.183
X36.406 Y17.554
X37.161 Y17.998
X37.897 Y18.516
X38.608 Y19.106
X39.285 Y19.766
X39.92 Y20.494
X40.802 Y21.686
X41.632 Y23.02
X42.39 Y24.396
X43.054 Y25.819
X43.553 Y27.161
X43.919 Y28.456
X44.168 Y29.711
X44.31 Y30.942
X44.352 Y32.158
X44.297 Y33.361
X44.146 Y34.552
X43.9 Y35.727
X43.559 Y36.884
X43.14 Y37.973
X43.004 Y38.255
X42.775 Y38.658
X42.492 Y39.024
X42.16 Y39.347
X41.787 Y39.62
X41.379 Y39.839
X40.944 Y39.998
X40.491 Y40.095
X40.029 Y40.127
X33.397
G3 X32.64 Y39.939 I0.065 J-1.873 F1000
X32.267 Y39.698 I0.822 J-1.685 F1400
G1 X17.051 Y27.109
G3 X16.561 Y26.487 I1.195 J-1.444
X16.373 Y25.73 I1.685 J-0.822 F1000
G1 Y19.012 F1400
X16.402 Y18.416
X16.495 Y18.004
X16.659 Y17.615
X16.891 Y17.262
X17.182 Y16.956
X17.523 Y16.707
X17.904 Y16.523
X18.311 Y16.411
X18.732 Y16.373
G3 X19.502 Y16.509 I-0.097 J2.789 F1000
X20.494 Y17.081 I-0.868 J2.652 F1400
X17.196 Y20.77 I-1.649 J1.844
X16.523 Y19.779 I1.649 J-1.844
X16.373 Y19.012 I2.322 J-0.854 F1000
G1 Y18.452 F1400
X16.375 Y18.172
X16.41 Y17.892
X16.49 Y17.612
X16.621 Y17.332
X16.735 Y17.157
X16.88 Y16.983
X17.108 Y16.772
X17.274 Y16.655
X17.441 Y16.563
X17.722 Y16.453
X18.003 Y16.391
X18.564 Y16.373
X22.663
G3 X23.419 Y16.561 I-0.065 J1.873 F1000
X24.456 Y18.001 I-0.822 J1.685 F1400
G1 X27.097 Y38.009
G3 X26.06 Y39.939 I-1.858 J0.245
X25.304 Y40.127 I-0.822 J-1.685 F1000
G1 X19.126 F1400
X18.647 Y40.103
X18.238 Y40.016
X17.848 Y39.865
X17.488 Y39.653
X17.166 Y39.387
X16.89 Y39.073
X16.668 Y38.719
X16.505 Y38.334
X16.406 Y37.928
X16.373 Y37.512
G3 X16.51 Y36.741 I2.769 J0.097 F1000
X17.133 Y35.7 I2.632 J0.867 F1400
X20.936 Y39.313 I1.902 J1.806
X19.895 Y39.984 I-1.902 J-1.806
X19.126 Y40.127 I-0.861 J-2.478 F1000
G1 X18.564 F1400
X18.003 Y40.109
X17.722 Y40.047
X17.441 Y39.937
X17.274 Y39.845
X17.108 Y39.728
X16.88 Y39.517
X16.735 Y39.343
X16.621 Y39.168
X16.49 Y38.888
X16.41 Y38.608
X16.375 Y38.328
X16.373 Y38.048
Y33.494
G3 X16.561 Y32.737 I1.873 J0.065 F1000
X16.856 Y32.301 I1.685 J0.822 F1400
G1 X30.719 Y16.988
G3 X31.286 Y16.561 I1.39 J1.258
X32.043 Y16.373 I0.822 J1.685 F1000
G1 X38.221 F1400
X38.707 Y16.397
X39.276 Y16.472
X39.862 Y16.597
X40.542 Y16.801
X41.26 Y17.08
X42.055 Y17.466
X42.882 Y17.953
X43.731 Y18.55
X44.613 Y19.281
X45.457 Y20.104
X46.279 Y21.047
X47.067 Y22.113
X47.799 Y23.289
X48.452 Y24.553
X49.012 Y25.894
X49.472 Y27.302
X49.824 Y28.77
X50.061 Y30.291
X50.178 Y31.852
X50.169 Y33.406
X50.051 Y34.771
X49.85 Y35.968
X49.581 Y37.037
X49.255 Y37.999
X49.196 Y38.135
X48.974 Y38.56
X48.694 Y38.949
X48.36 Y39.293
X47.979 Y39.585
X47.56 Y39.818
X47.112 Y39.989
X46.644 Y40.093
X46.166 Y40.127
X40.029
G3 X39.273 Y39.939 I0.065 J-1.873 F1000
X38.228 Y38.423 I0.822 J-1.685 F1400
G1 X36.419 Y18.415
G3 X37.464 Y16.561 I1.867 J-0.169
X38.221 Y16.373 I0.822 J1.685 F1000
G1 X43.837 F1400
X44.669 Y16.414
X45.26 Y16.492
X45.878 Y16.624
X46.569 Y16.831
X47.273 Y17.105
X48.05 Y17.482
X48.817 Y17.933
X49.642 Y18.513
X50.457 Y19.189
X51.269 Y19.982
X52.094 Y20.928
X52.868 Y21.974
X53.595 Y23.142
X54.277 Y24.464
X54.883 Y25.913
X55.371 Y27.406
X55.741 Y28.933
X55.993 Y30.483
X56.124 Y32.048
X56.134 Y33.523
X56.038 Y34.817
X55.857 Y35.979
X55.607 Y37.024
X55.299 Y37.968
X55.221 Y38.155
X55.008 Y38.575
X54.736 Y38.96
X54.411 Y39.3
X54.039 Y39.589
X53.629 Y39.821
X53.19 Y39.99
X52.73 Y40.093
X52.261 Y40.127
X46.166
G3 X45.41 Y39.939 I0.065 J-1.873 F1000
X44.37 Y38.471 I0.822 J-1.685 F1400
G1 X42.04 Y18.463
G3 X43.08 Y16.561 I1.862 J-0.217
X43.837 Y16.373 I0.822 J1.685 F1000
G1 X50.014 F1400
X50.562 Y16.4
X51.15 Y16.477
X51.755 Y16.606
X52.441 Y16.812
X53.132 Y17.081
X53.905 Y17.456
X54.668 Y17.905
X55.498 Y18.489
X56.314 Y19.166
X57.143 Y19.975
X57.985 Y20.939
X58.773 Y22.005
X59.525 Y23.213
X60.227 Y24.575
X60.833 Y26.024
X61.324 Y27.516
X61.699 Y29.041
X61.957 Y30.591
X62.094 Y32.156
X62.107 Y33.608
X62.016 Y34.878
X61.841 Y36.022
X61.596 Y37.06
X61.294 Y37.996
X61.255 Y38.09
X61.037 Y38.524
X60.757 Y38.921
X60.422 Y39.272
X60.04 Y39.571
X59.617 Y39.811
X59.164 Y39.985
X58.69 Y40.092
X58.206 Y40.127
X52.261
G3 X51.504 Y39.939 I0.065 J-1.873 F1000
X50.463 Y38.463 I0.822 J-1.685 F1400
G1 X48.217 Y18.455
G3 X49.258 Y16.561 I1.863 J-0.209
X50.014 Y16.373 I0.822 J1.685 F1000
G1 X55.63 F1400
X56.455 Y16.414
X57.043 Y16.491
X57.649 Y16.621
X58.338 Y16.827
X59.034 Y17.098
X59.813 Y17.476
X60.581 Y17.928
X61.421 Y18.518
X62.242 Y19.199
X63.082 Y20.019
X63.932 Y20.994
X64.73 Y22.072
X65.489 Y23.292
X66.197 Y24.665
X66.803 Y26.114
X67.295 Y27.606
X67.671 Y29.131
X67.929 Y30.681
X68.066 Y32.245
X68.079 Y33.667
X67.99 Y34.908
X67.818 Y36.032
X67.574 Y37.063
X67.273 Y37.995
X67.233 Y38.091
X67.015 Y38.524
X66.736 Y38.921
X66.401 Y39.273
X66.018 Y39.571
X65.596 Y39.811
X65.143 Y39.985
X64.669 Y40.092
X64.185 Y40.127
X58.206
G3 X57.45 Y39.939 I0.065 J-1.873 F1000
X56.412 Y38.493 I0.822 J-1.685 F1400
G1 X53.837 Y18.485
G3 X54.874 Y16.561 I1.859 J-0.239
X55.63 Y16.373 I0.822 J1.685 F1000
G1 X61.808 F1400
X62.351 Y16.4
X62.942 Y16.477
X63.557 Y16.609
X64.247 Y16.816
X64.954 Y17.091
X65.736 Y17.47
X66.513 Y17.928
X67.36 Y18.523
X68.185 Y19.207
X69.035 Y20.036
X69.891 Y21.018
X70.691 Y22.1
X71.456 Y23.329
X72.169 Y24.711
X72.775 Y26.16
X73.267 Y27.652
X73.643 Y29.177
X73.9 Y30.727
X74.036 Y32.292
X74.047 Y33.704
X73.957 Y34.939
X73.785 Y36.056
X73.541 Y37.084
X73.239 Y38.014
X73.178 Y38.162
X72.966 Y38.581
X72.696 Y38.964
X72.372 Y39.303
X72.003 Y39.591
X71.595 Y39.822
X71.157 Y39.99
X70.7 Y40.093
X70.232 Y40.127
X64.185
G3 X63.428 Y39.939 I0.065 J-1.873 F1000
X62.389 Y38.475 I0.822 J-1.685 F1400
G1 X60.012 Y18.467
G3 X61.052 Y16.561 I1.861 J-0.221
X61.808 Y16.373 I0.822 J1.685 F1000
G1 X67.733 F1400
X68.293 Y16.401
X68.883 Y16.478
X69.502 Y16.61
X70.193 Y16.817
X70.904 Y17.094
X71.687 Y17.474
X72.469 Y17.935
X73.319 Y18.532
X74.145 Y19.217
X74.999 Y20.05
X75.857 Y21.034
X76.658 Y22.117
X77.425 Y23.349
X78.139 Y24.734
X78.745 Y26.183
X79.237 Y27.675
X79.612 Y29.2
X79.869 Y30.749
X80.005 Y32.314
X80.015 Y33.737
X79.924 Y34.978
X79.751 Y36.097
X79.507 Y37.123
X79.206 Y38.05
X79.187 Y38.096
X78.968 Y38.528
X78.688 Y38.924
X78.354 Y39.275
X77.971 Y39.573
X77.549 Y39.812
X77.097 Y39.986
X76.624 Y40.092
X76.14 Y40.127
X70.232
G3 X69.476 Y39.939 I0.065 J-1.873 F1000
X68.437 Y38.486 I0.822 J-1.685 F1400
G1 X65.938 Y18.478
G3 X66.976 Y16.561 I1.86 J-0.232
X67.733 Y16.373 I0.822 J1.685 F1000
G1 X73.602 F1400
X74.25 Y16.405
X74.841 Y16.483
X75.461 Y16.615
X76.152 Y16.822
X76.865 Y17.1
X77.648 Y17.48
X78.432 Y17.941
X79.283 Y18.539
X80.11 Y19.226
X80.965 Y20.06
X81.824 Y21.044
X82.625 Y22.127
X83.393 Y23.361
X84.108 Y24.746
X84.713 Y26.195
X85.205 Y27.687
X85.581 Y29.212
X85.839 Y30.762
X85.975 Y32.326
X85.986 Y33.73
X85.897 Y34.958
X85.726 Y36.069
X85.483 Y37.093
X85.183 Y38.021
X85.152 Y38.094
X84.934 Y38.527
X84.654 Y38.923
X84.319 Y39.274
X83.937 Y39.572
X83.514 Y39.811
X83.062 Y39.986
X82.589 Y40.092
X82.105 Y40.127
X76.14
G3 X75.384 Y39.939 I0.065 J-1.873 F1000
X74.346 Y38.49 I0.822 J-1.685 F1400
G1 X71.808 Y18.482
G3 X72.845 Y16.561 I1.86 J-0.236
X73.602 Y16.373 I0.822 J1.685 F1000
G1 X79.779 F1400
X80.201 Y16.394
X80.792 Y16.471
X81.415 Y16.604
X82.106 Y16.811
X82.822 Y17.09
X83.606 Y17.47
X84.392 Y17.933
X85.245 Y18.532
X86.073 Y19.22
X86.93 Y20.056
X87.789 Y21.041
X88.592 Y22.127
X89.362 Y23.363
X90.078 Y24.751
X90.684 Y26.2
X91.176 Y27.692
X91.551 Y29.217
X91.809 Y30.767
X91.944 Y32.332
X91.954 Y33.736
X91.864 Y34.964
X91.693 Y36.075
X91.449 Y37.099
X91.147 Y38.027
X91.068 Y38.217
X90.862 Y38.624
X90.599 Y38.996
X90.284 Y39.326
X89.925 Y39.606
X89.528 Y39.83
X89.103 Y39.994
X88.658 Y40.094
X88.203 Y40.127
X82.105
G3 X81.348 Y39.939 I0.065 J-1.873 F1000
X80.308 Y38.47 I0.822 J-1.685 F1400
G1 X77.983 Y18.462
G3 X79.023 Y16.561 I1.862 J-0.216
X79.779 Y16.373 I0.822 J1.685 F1000
G1 X85.395 F1400
X86.182 Y16.412
X86.773 Y16.489
X87.394 Y16.622
X88.084 Y16.829
X88.799 Y17.107
X89.582 Y17.487
X90.367 Y17.95
X91.219 Y18.548
X92.046 Y19.235
X92.902 Y20.07
X93.761 Y21.055
X94.564 Y22.139
X95.332 Y23.374
X96.047 Y24.759
X96.653 Y26.209
X97.144 Y27.7
X97.52 Y29.226
X97.776 Y30.775
X97.912 Y32.34
X97.921 Y33.769
X97.83 Y35.014
X97.656 Y36.133
X97.412 Y37.157
X97.111 Y38.081
X97.104 Y38.097
X96.885 Y38.53
X96.606 Y38.925
X96.271 Y39.276
X95.889 Y39.573
X95.467 Y39.812
X95.014 Y39.986
X94.542 Y40.092
X94.058 Y40.127
X88.203
G3 X87.447 Y39.939 I0.065 J-1.873 F1000
X86.413 Y38.515 I0.822 J-1.685 F1400
G1 X83.605 Y18.507
G3 X84.639 Y16.561 I1.856 J-0.261
X85.395 Y16.373 I0.822 J1.685 F1000
G1 X91.573 F1400
X92.136 Y16.401
X92.727 Y16.478
X93.351 Y16.612
X94.042 Y16.819
X94.758 Y17.098
X95.542 Y17.478
X96.329 Y17.941
X97.182 Y18.541
X98.01 Y19.228
X98.868 Y20.065
X99.727 Y21.05
X100.529 Y22.134
X101.129 Y23.098
X101.344 Y23.503
X101.5 Y23.935
X101.595 Y24.384
X101.627 Y24.841
Y36.369
X101.589 Y37.142
X101.507 Y37.768
X101.447 Y38.046
X101.317 Y38.474
X101.116 Y38.873
X100.851 Y39.233
X100.529 Y39.542
X100.159 Y39.793
X99.752 Y39.977
X99.319 Y40.089
X98.874 Y40.127
G3 X98.117 Y39.939 I0.065 J-1.873 F1000
X97.228 Y37.488 I0.822 J-1.685 F1400
G1 X98.043 Y35.668
G3 X101.439 Y35.612 I1.711 J0.766
X101.627 Y36.369 I-1.685 J0.822 F1000
G1 Y38.048 F1400
X101.625 Y38.328
X101.59 Y38.608
X101.51 Y38.888
X101.379 Y39.168
X101.265 Y39.343
X101.12 Y39.517
X100.892 Y39.728
X100.726 Y39.845
X100.559 Y39.937
X100.278 Y40.047
X99.997 Y40.109
X99.436 Y40.127
X94.058
G3 X93.302 Y39.939 I0.065 J-1.873 F1000
X92.263 Y38.485 I0.822 J-1.685 F1400
G1 X89.778 Y18.477
G3 X90.817 Y16.561 I1.86 J-0.231
X91.573 Y16.373 I0.822 J1.685 F1000
G1 X97.751 F1400
X98.098 Y16.39
X98.688 Y16.467
X99.313 Y16.601
X99.446 Y16.641
X99.852 Y16.795
X100.233 Y17.005
X100.58 Y17.267
X100.886 Y17.575
X101.146 Y17.924
X101.353 Y18.306
X101.505 Y18.713
X101.597 Y19.138
X101.627 Y19.572
G3 X101.439 Y20.328 I-1.873 J-0.065 F1000
X98.732 Y21.078 I-1.685 J-0.822 F1400
G1 X96.794 Y19.817
G3 X96.994 Y16.561 I1.022 J-1.571
X97.751 Y16.373 I0.822 J1.685 F1000
G1 X99.436 F1400
X99.997 Y16.391
X100.278 Y16.453
X100.559 Y16.563
X100.726 Y16.655
X100.892 Y16.772
X101.12 Y16.983
X101.265 Y17.157
X101.379 Y17.332
X101.51 Y17.612
X101.59 Y17.892
X101.625 Y18.172
X101.627 Y18.452
Y24.841
X101.614 Y24.941 Z-9.993 F1000
X101.6 Y25.039 Z-9.974
X101.587 Y25.134 Z-9.942
X101.574 Y25.224 Z-9.898
X101.546 Y25.302 Z-9.844
X101.521 Y25.372 Z-9.78
X101.498 Y25.435 Z-9.707
X101.479 Y25.489 Z-9.627
X101.464 Y25.532 Z-9.539
X101.452 Y25.565 Z-9.447
X101.444 Y25.587 Z-9.351
X101.44 Y25.595 Z-9.283
X101.439 Y25.598 Z-9.215
G0 Z5
X32.222 Y36.416
Z-7.5
G3 X25.125 Y20.084 Z-8.477 I-3.549 J-8.166 F333.3
X32.222 Y36.416 Z-9.454 I3.549 J8.166
X25.125 Y20.084 Z-10.43 I-3.549 J-8.166
X32.222 Y36.416 Z-11.407 I3.549 J8.166
X25.125 Y20.084 Z-12.384 I-3.549 J-8.166
X37.577 Y28.25 Z-13 I3.549 J8.166
X19.769 I-8.904
X37.577 I8.904
G1 X37.579 Y28.643 F1400
X37.616 Y29.034
X37.688 Y29.42
X38.113 Y30.932
X38.177 Y31.056
X38.302 Y31.326
X38.416 Y31.635
X38.514 Y31.985
X38.589 Y32.375
X38.638 Y32.803
X38.652 Y33.269
X38.628 Y33.768
X38.559 Y34.298
X38.441 Y34.855
X38.268 Y35.433
X38.038 Y36.027
X37.746 Y36.631
X37.39 Y37.238
X36.967 Y37.84
X36.478 Y38.431
X35.923 Y39.002
X35.569 Y39.311
X35.191 Y39.597
X34.776 Y39.825
X34.332 Y39.992
X33.869 Y40.093
X33.397 Y40.127
X25.304
X24.7 Y40.097
X23.975 Y40.002
X23.23 Y39.843
X22.471 Y39.615
X21.705 Y39.317
X20.941 Y38.946
X20.186 Y38.502
X19.449 Y37.984
X18.738 Y37.394
X18.061 Y36.734
X17.426 Y36.006
X17.02 Y35.456
X16.792 Y35.103
X16.611 Y34.724
X16.479 Y34.325
X16.399 Y33.913
X16.373 Y33.494
Y25.73
X16.426 Y24.664
X16.528 Y23.888
X16.698 Y23.093
X16.939 Y22.287
X17.254 Y21.479
X17.644 Y20.675
X18.109 Y19.885
X18.649 Y19.117
X19.262 Y18.378
X19.945 Y17.678
X20.7 Y17.02
X21.053 Y16.792
X21.432 Y16.611
X21.831 Y16.479
X22.243 Y16.399
X22.663 Y16.373
X32.043
X32.647 Y16.403
X33.371 Y16.498
X34.117 Y16.657
X34.876 Y16.885
X35.642 Y17.183
X36.406 Y17.554
X37.161 Y17.998
X37.897 Y18.516
X38.608 Y19.106
X39.285 Y19.766
X39.92 Y20.494
X40.802 Y21.686
X41.632 Y23.02
X42.39 Y24.396
X43.054 Y25.819
X43.553 Y27.161
X43.919 Y28.456
X44.168 Y29.711
X44.31 Y30.942
X44.352 Y32.158
X44.297 Y33.361
X44.146 Y34.552
X43.9 Y35.727
X43.559 Y36.884
X43.14 Y37.973
X43.004 Y38.255
X42.775 Y38.658
X42.492 Y39.024
X42.16 Y39.347
X41.787 Y39.62
X41.379 Y39.839
X40.944 Y39.998
X40.491 Y40.095
X40.029 Y40.127
X33.397
G3 X32.64 Y39.939 I0.065 J-1.873 F1000
X32.267 Y39.698 I0.822 J-1.685 F1400
G1 X17.051 Y27.109
G3 X16.561 Y26.487 I1.195 J-1.444
X16.373 Y25.73 I1.685 J-0.822 F1000
G1 Y19.012 F1400
X16.402 Y18.416
X16.495 Y18.004
X16.659 Y17.615
X16.891 Y17.262
X17.182 Y16.956
X17.523 Y16.707
X17.904 Y16.523
X18.311 Y16.411
X18.732 Y16.373
G3 X19.502 Y16.509 I-0.097 J2.789 F1000
X20.494 Y17.081 I-0.868 J2.652 F1400
X17.196 Y20.77 I-1.649 J1.844
X16.523 Y19.779 I1.649 J-1.844
X16.373 Y19.012 I2.322 J-0.854 F1000
G1 Y18.452 F1400
X16.375 Y18.172
X16.41 Y17.892
X16.49 Y17.612
X16.621 Y17.332
X16.735 Y17.157
X16.88 Y16.983
X17.108 Y16.772
X17.274 Y16.655
X17.441 Y16.563
X17.722 Y16.453
X18.003 Y16.391
X18.564 Y16.373
X22.663
G3 X23.419 Y16.561 I-0.065 J1.873 F1000
X24.456 Y18.001 I-0.822 J1.685 F1400
G1 X27.097 Y38.009
G3 X26.06 Y39.939 I-1.858 J0.245
X25.304 Y40.127 I-0.822 J-1.685 F1000
G1 X19.126 F1400
X18.647 Y40.103
X18.238 Y40.016
X17.848 Y39.865
X17.488 Y39.653
X17.166 Y39.387
X16.89 Y39.073
X16.668 Y38.719
X16.505 Y38.334
X16.406 Y37.928
X16.373 Y37.512
G3 X16.51 Y36.741 I2.769 J0.097 F1000
X17.133 Y35.7 I2.632 J0.867 F1400
X20.936 Y39.313 I1.902 J1.806
X19.895 Y39.984 I-1.902 J-1.806
X19.126 Y40.127 I-0.861 J-2.478 F1000
G1 X18.564 F1400
X18.003 Y40.109
X17.722 Y40.047
X17.441 Y39.937
X17.274 Y39.845
X17.108 Y39.728
X16.88 Y39.517
X16.735 Y39.343
X16.621 Y39.168
X16.49 Y38.888
X16.41 Y38.608
X16.375 Y38.328
X16.373 Y38.048
Y33.494
G3 X16.561 Y32.737 I1.873 J0.065 F1000
X16.856 Y32.301 I1.685 J0.822 F1400
G1 X30.719 Y16.988
G3 X31.286 Y16.561 I1.39 J1.258
X32.043 Y16.373 I0.822 J1.685 F1000
G1 X38.221 F1400
X38.707 Y16.397
X39.276 Y16.472
X39.862 Y16.597
X40.542 Y16.801
X41.26 Y17.08
X42.055 Y17.466
X42.882 Y17.953
X43.731 Y18.55
X44.613 Y19.281
X45.457 Y20.104
X46.279 Y21.047
X47.067 Y22.113
X47.799 Y23.289
X48.452 Y24.553
X49.012 Y25.894
X49.472 Y27.302
X49.824 Y28.77
X50.061 Y30.291
X50.178 Y31.852
X50.169 Y33.406
X50.051 Y34.771
X49.85 Y35.968
X49.581 Y37.037
X49.255 Y37.999
X49.196 Y38.135
X48.974 Y38.56
X48.694 Y38.949
X48.36 Y39.293
X47.979 Y39.585
X47.56 Y39.818
X47.112 Y39.989
X46.644 Y40.093
X46.166 Y40.127
X40.029
G3 X39.273 Y39.939 I0.065 J-1.873 F1000
X38.228 Y38.423 I0.822 J-1.685 F1400
G1 X36.419 Y18.415
G3 X37.464 Y16.561 I1.867 J-0.169
X38.221 Y16.373 I0.822 J1.685 F1000
G1 X43.837 F1400
X44.669 Y16.414
X45.26 Y16.492
X45.878 Y16.624
X46.569 Y16.831
X47.273 Y17.105
X48.05 Y17.482
X48.817 Y17.933
X49.642 Y18.513
X50.457 Y19.189
X51.269 Y19.982
X52.094 Y20.928
X52.868 Y21.974
X53.595 Y23.142
X54.277 Y24.464
X54.883 Y25.913
X55.371 Y27.406
X55.741 Y28.933
X55.993 Y30.483
X56.124 Y32.048
X56.134 Y33.523
X56.038 Y34.817
X55.857 Y35.979
X55.607 Y37.024
X55.299 Y37.968
X55.221 Y38.155
X55.008 Y38.575
X54.736 Y38.96
X54.411 Y39.3
X54.039 Y39.589
X53.629 Y39.821
X53.19 Y39.99
X52.73 Y40.093
X52.261 Y40.127
X46.166
G3 X45.41 Y39.939 I0.065 J-1.873 F1000
X44.37 Y38.471 I0.822 J-1.685 F1400
G1 X42.04 Y18.463
G3 X43.08 Y16.561 I1.862 J-0.217
X43.837 Y16.373 I0.822 J1.685 F1000
G1 X50.014 F1400
X50.562 Y16.4
X51.15 Y16.477
X51.755 Y16.606
X52.441 Y16.812
X53.132 Y17.081
X53.905 Y17.456
X54.668 Y17.905
X55.498 Y18.489
X56.314 Y19.166
X57.143 Y19.975
X57.985 Y20.939
X58.773 Y22.005
X59.525 Y23.213
X60.227 Y24.575
X60.833 Y26.024
X61.324 Y27.516
X61.699 Y29.041
X61.957 Y30.591
X62.094 Y32.156
X62.107 Y33.608
X62.016 Y34.878
X61.841 Y36.022
X61.596 Y37.06
X61.294 Y37.996
X61.255 Y38.09
X61.037 Y38.524
X60.757 Y38.921
X60.422 Y39.272
X60.04 Y39.571
X59.617 Y39.811
X59.164 Y39.985
X58.69 Y40.092
X58.206 Y40.127
X52.261
G3 X51.504 Y39.939 I0.065 J-1.873 F1000
X50.463 Y38.463 I0.822 J-1.685 F1400
G1 X48.217 Y18.455
G3 X49.258 Y16.561 I1.863 J-0.209
X50.014 Y16.373 I0.822 J1.685 F1000
G1 X55.63 F1400
X56.455 Y16.414
X57.043 Y16.491
X57.649 Y16.621
X58.338 Y16.827
X59.034 Y17.098
X59.813 Y17.476
X60.581 Y17.928
X61.421 Y18.518
X62.242 Y19.199
X63.082 Y20.019
X63.932 Y20.994
X64.73 Y22.072
X65.489 Y23.292
X66.197 Y24.665
X66.803 Y26.114
X67.295 Y27.606
X67.671 Y29.131
X67.929 Y30.681
X68.066 Y32.245
X68.079 Y33.667
X67.99 Y34.908
X67.818 Y36.032
X67.574 Y37.063
X67.273 Y37.995
X67.233 Y38.091
X67.015 Y38.524
X66.736 Y38.921
X66.401 Y39.273
X66.018 Y39.571
X65.596 Y39.811
X65.143 Y39.985
X64.669 Y40.092
X64.185 Y40.127
X58.206
G3 X57.45 Y39.939 I0.065 J-1.873 F1000
X56.412 Y38.493 I0.822 J-1.685 F1400
G1 X53.837 Y18.485
G3 X54.874 Y16.561 I1.859 J-0.239
X55.63 Y16.373 I0.822 J1.685 F1000
G1 X61.808 F1400
X62.351 Y16.4
X62.942 Y16.477
X63.557 Y16.609
X64.247 Y16.816
X64.954 Y17.091
X65.736 Y17.47
X66.513 Y17.928
X67.36 Y18.523
X68.185 Y19.207
X69.035 Y20.036
X69.891 Y21.018
X70.691 Y22.1
X71.456 Y23.329
X72.169 Y24.711
X72.775 Y26.16
X73.267 Y27.652
X73.643 Y29.177
X73.9 Y30.727
X74.036 Y32.292
X74.047 Y33.704
X73.957 Y34.939
X73.785 Y36.056
X73.541 Y37.084
X73.239 Y38.014
X73.178 Y38.162
X72.966 Y38.581
X72.696 Y38.964
X72.372 Y39.303
X72.003 Y39.591
X71.595 Y39.822
X71.157 Y39.99
X70.7 Y40.093
X70.232 Y40.127
X64.185
G3 X63.428 Y39.939 I0.065 J-1.873 F1000
X62.389 Y38.475 I0.822 J-1.685 F1400
G1 X60.012 Y18.467
G3 X61.052 Y16.561 I1.861 J-0.221
X61.808 Y16.373 I0.822 J1.685 F1000
G1 X67.733 F1400
X68.293 Y16.401
X68.883 Y16.478
X69.502 Y16.61
X70.193 Y16.817
X70.904 Y17.094
X71.687 Y17.474
X72.469 Y17.935
X73.319 Y18.532
X74.145 Y19.217
X74.999 Y20.05
X75.857 Y21.034
X76.658 Y22.117
X77.425 Y23.349
X78.139 Y24.734
X78.745 Y26.183
X79.237 Y27.675
X79.612 Y29.2
X79.869 Y30.749
X80.005 Y32.314
X80.015 Y33.737
X79.924 Y34.978
X79.751 Y36.097
X79.507 Y37.123
X79.206 Y38.05
X79.187 Y38.096
X78.968 Y38.528
X78.688 Y38.924
X78.354 Y39.275
X77.971 Y39.573
X77.549 Y39.812
X77.097 Y39.986
X76.624 Y40.092
X76.14 Y40.127
X70.232
G3 X69.476 Y39.939 I0.065 J-1.873 F1000
X68.437 Y38.486 I0.822 J-1.685 F1400
G1 X65.938 Y18.478
G3 X66.976 Y16.561 I1.86 J-0.232
X67.733 Y16.373 I0.822 J1.685 F1000
G1 X73.602 F1400
X74.25 Y16.405
X74.841 Y16.483
X75.461 Y16.615
X76.152 Y16.822
X76.865 Y17.1
X77.648 Y17.48
X78.432 Y17.941
X79.283 Y18.539
X80.11 Y19.226
X80.965 Y20.06
X81.824 Y21.044
X82.625 Y22.127
X83.393 Y23.361
X84.108 Y24.746
X84.713 Y26.195
X85.205 Y27.687
X85.581 Y29.212
X85.839 Y30.762
X85.975 Y32.326
X85.986 Y33.73
X85.897 Y34.958
X85.726 Y36.069
X85.483 Y37.093
X85.183 Y38.021
X85.152 Y38.094
X84.934 Y38.527
X84.654 Y38.923
X84.319 Y39.274
X83.937 Y39.572
X83.514 Y39.811
X83.062 Y39.986
X82.589 Y40.092
X82.105 Y40.127
X76.14
G3 X75.384 Y39.939 I0.065 J-1.873 F1000
X74.346 Y38.49 I0.822 J-1.685 F1400
G1 X71.808 Y18.482
G3 X72.845 Y16.561 I1.86 J-0.236
X73.602 Y16.373 I0.822 J1.685 F1000
G1 X79.779 F1400
X80.201 Y16.394
X80.792 Y16.471
X81.415 Y16.604
X82.106 Y16.811
X82.822 Y17.09
X83.606 Y17.47
X84.392 Y17.933
X85.245 Y18.532
X86.073 Y19.22
X86.93 Y20.056
X87.789 Y21.041
X88.592 Y22.127
X89.362 Y23.363
X90.078 Y24.751
X90.684 Y26.2
X91.176 Y27.692
X91.551 Y29.217
X91.809 Y30.767
X91.944 Y32.332
X91.954 Y33.736
X91.864 Y34.964
X91.693 Y36.075
X91.449 Y37.099
X91.147 Y38.027
X91.068 Y38.217
X90.862 Y38.624
X90.599 Y38.996
X90.284 Y39.326
X89.925 Y39.606
X89.528 Y39.83
X89.103 Y39.994
X88.658 Y40.094
X88.203 Y40.127
X82.105
G3 X81.348 Y39.939 I0.065 J-1.873 F1000
X80.308 Y38.47 I0.822 J-1.685 F1400
G1 X77.983 Y18.462
G3 X79.023 Y16.561 I1.862 J-0.216
X79.779 Y16.373 I0.822 J1.685 F1000
G1 X85.395 F1400
X86.182 Y16.412
X86.773 Y16.489
X87.394 Y16.622
X88.084 Y16.829
X88.799 Y17.107
X89.582 Y17.487
X90.367 Y17.95
X91.219 Y18.548
X92.046 Y19.235
X92.902 Y20.07
X93.761 Y21.055
X94.564 Y22.139
X95.332 Y23.374
X96.047 Y24.759
X96.653 Y26.209
X97.144 Y27.7
X97.52 Y29.226
X97.776 Y30.775
X97.912 Y32.34
X97.921 Y33.769
X97.83 Y35.014
X97.656 Y36.133
X97.412 Y37.157
X97.111 Y38.081
X97.104 Y38.097
X96.885 Y38.53
X96.606 Y38.925
X96.271 Y39.276
X95.889 Y39.573
X95.467 Y39.812
X95.014 Y39.986
X94.542 Y40.092
X94.058 Y40.127
X88.203
G3 X87.447 Y39.939 I0.065 J-1.873 F1000
X86.413 Y38.515 I0.822 J-1.685 F1400
G1 X83.605 Y18.507
G3 X84.639 Y16.561 I1.856 J-0.261
X85.395 Y16.373 I0.822 J1.685 F1000
G1 X91.573 F1400
X92.136 Y16.401
X92.727 Y16.478
X93.351 Y16.612
X94.042 Y16.819
X94.758 Y17.098
X95.542 Y17.478
X96.329 Y17.941
X97.182 Y18.541
X98.01 Y19.228
X98.868 Y20.065
X99.727 Y21.05
X100.529 Y22.134
X101.129 Y23.098
X101.344 Y23.503
X101.5 Y23.935
X101.595 Y24.384
X101.627 Y24.841
Y36.369
X101.589 Y37.142
X101.507 Y37.768
X101.447 Y38.046
X101.317 Y38.474
X101.116 Y38.873
X100.851 Y39.233
X100.529 Y39.542
X100.159 Y39.793
X99.752 Y39.977
X99.319 Y40.089
X98.874 Y40.127
G3 X98.117 Y39.939 I0.065 J-1.873 F1000
X97.228 Y37.488 I0.822 J-1.685 F1400
G1 X98.043 Y35.668
G3 X101.439 Y35.612 I1.711 J0.766
X101.627 Y36.369 I-1.685 J0.822 F1000
G1 Y38.048 F1400
X101.625 Y38.328
X101.59 Y38.608
X101.51 Y38.888
X101.379 Y39.168
X101.265 Y39.343
X101.12 Y39.517
X100.892 Y39.728
X100.726 Y39.845
X100.559 Y39.937
X100.278 Y40.047
X99.997 Y40.109
X99.436 Y40.127
X94.058
G3 X93.302 Y39.939 I0.065 J-1.873 F1000
X92.263 Y38.485 I0.822 J-1.685 F1400
G1 X89.778 Y18.477
G3 X90.817 Y16.561 I1.86 J-0.231
X91.573 Y16.373 I0.822 J1.685 F1000
G1 X97.751 F1400
X98.098 Y16.39
X98.688 Y16.467
X99.313 Y16.601
X99.446 Y16.641
X99.852 Y16.795
X100.233 Y17.005
X100.58 Y17.267
X100.886 Y17.575
X101.146 Y17.924
X101.353 Y18.306
X101.505 Y18.713
X101.597 Y19.138
X101.627 Y19.572
G3 X101.439 Y20.328 I-1.873 J-0.065 F1000
X98.732 Y21.078 I-1.685 J-0.822 F1400
G1 X96.794 Y19.817
G3 X96.994 Y16.561 I1.022 J-1.571
X97.751 Y16.373 I0.822 J1.685 F1000
G1 X99.436 F1400
X99.997 Y16.391
X100.278 Y16.453
X100.559 Y16.563
X100.726 Y16.655
X100.892 Y16.772
X101.12 Y16.983
X101.265 Y17.157
X101.379 Y17.332
X101.51 Y17.612
X101.59 Y17.892
X101.625 Y18.172
X101.627 Y18.452
Y24.841
G3 X101.439 Y25.598 I-1.873 J-0.065 F1000
G1 X101.367 Y25.745 Z-12.993
X101.296 Y25.891 Z-12.972
X101.226 Y26.034 Z-12.936
X101.158 Y26.174 Z-12.887
X101.091 Y26.31 Z-12.824
X101.028 Y26.44 Z-12.749
X100.967 Y26.564 Z-12.661
X100.91 Y26.681 Z-12.561
X100.858 Y26.789 Z-12.451
X100.809 Y26.889 Z-12.33
X100.765 Y26.978 Z-12.201
X100.727 Y27.057 Z-12.063
X100.694 Y27.125 Z-11.918
X100.666 Y27.181 Z-11.767
X100.645 Y27.225 Z-11.611
X100.629 Y27.257 Z-11.451
X100.62 Y27.276 Z-11.289
X100.617 Y27.283 Z-11.125
G0 Z15
M30
%
