%
(bottom-pocket-1_8b)
(T1  D=3.17 CR=0 - ZMIN=-13 - flat end mill)
G90 G94
G17
G21

(PocketB-1_8)
M9
T1 M6
S5000 M3
G54
G0 X27.933 Y9.536
Z15
Z5
G1 Z1 F333.3
Z-12.683
G19 G2 Y9.219 Z-13 J-0.317
G1 Y8.902 F1000
G17 G3 X28.25 Y8.585 I0.317
G1 X109.415
Y47.915
X8.585
Y8.585
X28.25
G3 X28.567 Y8.902 J0.317
G1 Y9.219
G19 G3 Y9.536 Z-12.683 K0.317
G0 Z15
G17
M30
%
