%
(calibration-test-v)
(T1  D=6.35 CR=0 TAPER=30deg - ZMIN=-1 - chamfer mill)
G90 G94
G17
G21

(Engrave1)
M9
T1 M6
S5000 M3
G54
G0 X0.173 Y90
Z15
Z5
G1 Z-1 F762
G3 X-0.173 I-0.173
X0.173 I0.173
G0 Z5
X0.003 Y99.827
G1 Z-1 F762
G3 X-0.003 Y100.173 I-0.003 J0.173
X0.003 Y99.827 I0.003 J-0.173
G0 Z5
X9.827 Y99.997
G1 Z-1 F762
G2 X10.173 Y100.003 I0.173 J0.003
X9.827 Y99.997 I-0.173 J-0.003
G0 Z5
X9.997 Y90.173
G1 Z-1 F762
G2 X10.003 Y89.827 I0.003 J-0.173
X9.997 Y90.173 I-0.003 J0.173
G0 Z5
X19.827 Y90.003
G1 Z-1 F762
G3 X20.173 Y89.997 I0.173 J-0.003
X19.827 Y90.003 I-0.173 J0.003
G0 Z5
X19.997 Y80.173
G1 Z-1 F762
G3 X20.003 Y79.827 I0.003 J-0.173
X19.997 Y80.173 I-0.003 J0.173
G0 Z5
X10.173 Y80.003
G1 Z-1 F762
G3 X9.827 Y79.997 I-0.173 J-0.003
X10.173 Y80.003 I0.173 J0.003
G0 Z5
X10.003 Y70.173
G1 Z-1 F762
G3 X9.997 Y69.827 I-0.003 J-0.173
X10.003 Y70.173 I0.003 J0.173
G0 Z5
X10 Y60.173
G1 Z-1 F762
G3 Y59.827 J-0.173
Y60.173 J0.173
G0 Z5
X19.827 Y60.003
G1 Z-1 F762
G3 X20.173 Y59.997 I0.173 J-0.003
X19.827 Y60.003 I-0.173 J0.003
G0 Z5
X19.997 Y50.173
G1 Z-1 F762
G3 X20.003 Y49.827 I0.003 J-0.173
X19.997 Y50.173 I-0.003 J0.173
G0 Z5
X29.827 Y50.003
G1 Z-1 F762
G3 X30.173 Y49.997 I0.173 J-0.003
X29.827 Y50.003 I-0.173 J0.003
G0 Z5
X39.827 Y50
G1 Z-1 F762
G3 X40.173 I0.173
X39.827 I-0.173
G0 Z5
X39.997 Y40.173
G1 Z-1 F762
G2 X40.003 Y39.827 I0.003 J-0.173
X39.997 Y40.173 I-0.003 J0.173
G0 Z5
X49.827 Y40.003
G1 Z-1 F762
G2 X50.173 Y39.997 I0.173 J-0.003
X49.827 Y40.003 I-0.173 J0.003
G0 Z5
X49.997 Y30.173
G1 Z-1 F762
G2 X50.003 Y29.827 I0.003 J-0.173
X49.997 Y30.173 I-0.003 J0.173
G0 Z5
X40.173 Y30.003
G1 Z-1 F762
G2 X39.827 Y29.997 I-0.173 J-0.003
X40.173 Y30.003 I0.173 J0.003
G0 Z5
X40.003 Y20.173
G1 Z-1 F762
G3 X39.997 Y19.827 I-0.003 J-0.173
X40.003 Y20.173 I0.003 J0.173
G0 Z5
X30.173 Y20.003
G1 Z-1 F762
G3 X29.827 Y19.997 I-0.173 J-0.003
X30.173 Y20.003 I0.173 J0.003
G0 Z5
X30.003 Y29.827
G1 Z-1 F762
G2 X29.997 Y30.173 I-0.003 J0.173
X30.003 Y29.827 I0.003 J-0.173
G0 Z5
X30 Y39.827
G1 Z-1 F762
G2 Y40.173 J0.173
Y39.827 J-0.173
G0 Z5
X20.173 Y39.997
G1 Z-1 F762
G2 X19.827 Y40.003 I-0.173 J0.003
X20.173 Y39.997 I0.173 J-0.003
G0 Z5
X20.003 Y30.173
G1 Z-1 F762
G3 X19.997 Y29.827 I-0.003 J-0.173
X20.003 Y30.173 I0.003 J0.173
G0 Z5
X20 Y20.173
G1 Z-1 F762
G3 Y19.827 J-0.173
Y20.173 J0.173
G0 Z5
X10.173 Y20.003
G1 Z-1 F762
G2 X9.827 Y19.997 I-0.173 J-0.003
X10.173 Y20.003 I0.173 J0.003
G0 Z5
X10.003 Y10.173
G1 Z-1 F762
G3 X9.997 Y9.827 I-0.003 J-0.173
X10.003 Y10.173 I0.003 J0.173
G0 Z5
X19.827 Y10.003
G1 Z-1 F762
G3 X20.173 Y9.997 I0.173 J-0.003
X19.827 Y10.003 I-0.173 J0.003
G0 Z5
X29.827 Y10
G1 Z-1 F762
G2 X30.173 I0.173
X29.827 I-0.173
G0 Z5
X29.997 Y0.173
G1 Z-1 F762
G2 X30.003 Y-0.173 I0.003 J-0.173
X29.997 Y0.173 I-0.003 J0.173
G0 Z5
X20.173 Y0.003
G1 Z-1 F762
G2 X19.827 Y-0.003 I-0.173 J-0.003
X20.173 Y0.003 I0.173 J0.003
G0 Z5
X10.173 Y0
G1 Z-1 F762
G3 X9.827 I-0.173
X10.173 I0.173
G0 Z5
X0.173
G1 Z-1 F762
G3 X-0.173 I-0.173
X0.173 I0.173
G0 Z5
X0.003 Y9.827
G1 Z-1 F762
G3 X-0.003 Y10.173 I-0.003 J0.173
X0.003 Y9.827 I0.003 J-0.173
G0 Z5
X0 Y19.827
G1 Z-1 F762
G3 Y20.173 J0.173
Y19.827 J-0.173
G0 Z5
Y29.827
G1 Z-1 F762
G3 Y30.173 J0.173
Y29.827 J-0.173
G0 Z5
X9.827 Y29.997
G1 Z-1 F762
G3 X10.173 Y30.003 I0.173 J0.003
X9.827 Y29.997 I-0.173 J-0.003
G0 Z5
X9.997 Y39.827
G1 Z-1 F762
G3 X10.003 Y40.173 I0.003 J0.173
X9.997 Y39.827 I-0.003 J-0.173
G0 Z5
X0.173 Y39.997
G1 Z-1 F762
G2 X-0.173 Y40.003 I-0.173 J0.003
X0.173 Y39.997 I0.173 J-0.003
G0 Z5
X0.003 Y49.827
G1 Z-1 F762
G3 X-0.003 Y50.173 I-0.003 J0.173
X0.003 Y49.827 I0.003 J-0.173
G0 Z5
X9.827 Y49.997
G1 Z-1 F762
G2 X10.173 Y50.003 I0.173 J0.003
X9.827 Y49.997 I-0.173 J-0.003
G0 Z5
X0.121 Y59.877
G1 Z-1 F762
G2 X-0.121 Y60.123 I-0.121 J0.123
X0.121 Y59.877 I0.121 J-0.123
G0 Z5
X0.002 Y69.827
G1 Z-1 F762
G3 X-0.002 Y70.173 I-0.002 J0.173
X0.002 Y69.827 I0.002 J-0.173
G0 Z5
X0 Y79.827
G1 Z-1 F762
G2 Y80.173 J0.173
Y79.827 J-0.173
G0 Z5
X19.845 Y70.076
G1 Z-1 F762
G3 X20.155 Y69.924 I0.155 J-0.076
X19.845 Y70.076 I-0.155 J0.076
G0 Z5
X29.827 Y70.001
G1 Z-1 F762
G2 X30.173 Y69.999 I0.173 J-0.001
X29.827 Y70.001 I-0.173 J0.001
G0 Z5
X39.827 Y70
G1 Z-1 F762
G2 X40.173 I0.173
X39.827 I-0.173
G0 Z5
X39.997 Y60.173
G1 Z-1 F762
G2 X40.003 Y59.827 I0.003 J-0.173
X39.997 Y60.173 I-0.003 J0.173
G0 Z5
X30.173 Y60.003
G1 Z-1 F762
G2 X29.827 Y59.997 I-0.173 J-0.003
X30.173 Y60.003 I0.173 J0.003
G0 Z5
X49.827 Y60
G1 Z-1 F762
G3 X50.173 I0.173
X49.827 I-0.173
G0 Z5
X49.997 Y50.173
G1 Z-1 F762
G2 X50.003 Y49.827 I0.003 J-0.173
X49.997 Y50.173 I-0.003 J0.173
G0 Z5
X59.827 Y50.003
G1 Z-1 F762
G3 X60.173 Y49.997 I0.173 J-0.003
X59.827 Y50.003 I-0.173 J0.003
G0 Z5
X59.997 Y40.173
G1 Z-1 F762
G2 X60.003 Y39.827 I0.003 J-0.173
X59.997 Y40.173 I-0.003 J0.173
G0 Z5
X69.827 Y40.003
G1 Z-1 F762
G3 X70.173 Y39.997 I0.173 J-0.003
X69.827 Y40.003 I-0.173 J0.003
G0 Z5
X69.997 Y49.827
G1 Z-1 F762
G3 X70.003 Y50.173 I0.003 J0.173
X69.997 Y49.827 I-0.003 J-0.173
G0 Z5
X79.827 Y49.997
G1 Z-1 F762
G3 X80.173 Y50.003 I0.173 J0.003
X79.827 Y49.997 I-0.173 J-0.003
G0 Z5
X79.997 Y59.827
G1 Z-1 F762
G2 X80.003 Y60.173 I0.003 J0.173
X79.997 Y59.827 I-0.003 J-0.173
G0 Z5
X70.173 Y59.997
G1 Z-1 F762
G2 X69.827 Y60.003 I-0.173 J0.003
X70.173 Y59.997 I0.173 J-0.003
G0 Z5
X60.173 Y60
G1 Z-1 F762
G2 X59.827 I-0.173
X60.173 I0.173
G0 Z5
X60.003 Y69.827
G1 Z-1 F762
G3 X59.997 Y70.173 I-0.003 J0.173
X60.003 Y69.827 I0.003 J-0.173
G0 Z5
X50.173 Y69.997
G1 Z-1 F762
G3 X49.827 Y70.003 I-0.173 J0.003
X50.173 Y69.997 I0.173 J-0.003
G0 Z5
X50.003 Y79.827
G1 Z-1 F762
G2 X49.997 Y80.173 I-0.003 J0.173
X50.003 Y79.827 I0.003 J-0.173
G0 Z5
X40.173 Y79.997
G1 Z-1 F762
G2 X39.827 Y80.003 I-0.173 J0.003
X40.173 Y79.997 I0.173 J-0.003
G0 Z5
X40.003 Y89.827
G1 Z-1 F762
G3 X39.997 Y90.173 I-0.003 J0.173
X40.003 Y89.827 I0.003 J-0.173
G0 Z5
X30.173 Y89.997
G1 Z-1 F762
G3 X29.827 Y90.003 I-0.173 J0.003
X30.173 Y89.997 I0.173 J-0.003
G0 Z5
X30.003 Y80.173
G1 Z-1 F762
G2 X29.997 Y79.827 I-0.003 J-0.173
X30.003 Y80.173 I0.003 J0.173
G0 Z5
X30 Y99.827
G1 Z-1 F762
G2 Y100.173 J0.173
Y99.827 J-0.173
G0 Z5
X39.827 Y99.997
G1 Z-1 F762
G2 X40.173 Y100.003 I0.173 J0.003
X39.827 Y99.997 I-0.173 J-0.003
G0 Z5
X49.827 Y100
G1 Z-1 F762
G3 X50.173 I0.173
X49.827 I-0.173
G0 Z5
X49.997 Y90.173
G1 Z-1 F762
G3 X50.003 Y89.827 I0.003 J-0.173
X49.997 Y90.173 I-0.003 J0.173
G0 Z5
X59.827 Y90.003
G1 Z-1 F762
G2 X60.173 Y89.997 I0.173 J-0.003
X59.827 Y90.003 I-0.173 J0.003
G0 Z5
X59.997 Y80.173
G1 Z-1 F762
G3 X60.003 Y79.827 I0.003 J-0.173
X59.997 Y80.173 I-0.003 J0.173
G0 Z5
X69.827 Y80.003
G1 Z-1 F762
G3 X70.173 Y79.997 I0.173 J-0.003
X69.827 Y80.003 I-0.173 J0.003
G0 Z5
X69.997 Y89.827
G1 Z-1 F762
G3 X70.003 Y90.173 I0.003 J0.173
X69.997 Y89.827 I-0.003 J-0.173
G0 Z5
X79.827 Y89.997
G1 Z-1 F762
G3 X80.173 Y90.003 I0.173 J0.003
X79.827 Y89.997 I-0.173 J-0.003
G0 Z5
X79.997 Y99.827
G1 Z-1 F762
G2 X80.003 Y100.173 I0.003 J0.173
X79.997 Y99.827 I-0.003 J-0.173
G0 Z5
X89.827 Y99.997
G1 Z-1 F762
G2 X90.173 Y100.003 I0.173 J0.003
X89.827 Y99.997 I-0.173 J-0.003
G0 Z5
X89.997 Y90.173
G1 Z-1 F762
G3 X90.003 Y89.827 I0.003 J-0.173
X89.997 Y90.173 I-0.003 J0.173
G0 Z5
X90 Y80.173
G1 Z-1 F762
G2 Y79.827 J-0.173
Y80.173 J0.173
G0 Z5
X99.827 Y80.003
G1 Z-1 F762
G2 X100.173 Y79.997 I0.173 J-0.003
X99.827 Y80.003 I-0.173 J0.003
G0 Z5
X99.997 Y70.173
G1 Z-1 F762
G2 X100.003 Y69.827 I0.003 J-0.173
X99.997 Y70.173 I-0.003 J0.173
G0 Z5
X90.173 Y70.003
G1 Z-1 F762
G2 X89.827 Y69.997 I-0.173 J-0.003
X90.173 Y70.003 I0.173 J0.003
G0 Z5
X90.003 Y60.173
G1 Z-1 F762
G3 X89.997 Y59.827 I-0.003 J-0.173
X90.003 Y60.173 I0.003 J0.173
G0 Z5
X90 Y50.173
G1 Z-1 F762
G2 Y49.827 J-0.173
Y50.173 J0.173
G0 Z5
Y40.173
G1 Z-1 F762
G2 Y39.827 J-0.173
Y40.173 J0.173
G0 Z5
X99.827 Y40.003
G1 Z-1 F762
G2 X100.173 Y39.997 I0.173 J-0.003
X99.827 Y40.003 I-0.173 J0.003
G0 Z5
X99.997 Y49.827
G1 Z-1 F762
G3 X100.003 Y50.173 I0.003 J0.173
X99.997 Y49.827 I-0.003 J-0.173
G0 Z5
X100 Y59.827
G1 Z-1 F762
G3 Y60.173 J0.173
Y59.827 J-0.173
G0 Z5
X80.154 Y69.922
G1 Z-1 F762
G3 X79.846 Y70.078 I-0.154 J0.078
X80.154 Y69.922 I0.154 J-0.078
G0 Z5
X70.173 Y69.999
G1 Z-1 F762
G2 X69.827 Y70.001 I-0.173 J0.001
X70.173 Y69.999 I0.173 J-0.001
G0 Z5
X79.879 Y79.877
G1 Z-1 F762
G3 X80.121 Y80.123 I0.121 J0.123
X79.879 Y79.877 I-0.121 J-0.123
G0 Z5
X99.846 Y89.922
G1 Z-1 F762
G3 X100.154 Y90.078 I0.154 J0.078
X99.846 Y89.922 I-0.154 J-0.078
G0 Z5
X99.997 Y99.827
G1 Z-1 F762
G3 X100.003 Y100.173 I0.003 J0.173
X99.997 Y99.827 I-0.003 J-0.173
G0 Z5
X70.173 Y99.999
G1 Z-1 F762
G2 X69.827 Y100.001 I-0.173 J0.001
X70.173 Y99.999 I0.173 J-0.001
G0 Z5
X60.173 Y100
G1 Z-1 F762
G2 X59.827 I-0.173
X60.173 I0.173
G0 Z5
X20.173
G1 Z-1 F762
G3 X19.827 I-0.173
X20.173 I0.173
G0 Z5
X59.915 Y30.15
G1 Z-1 F762
G2 X60.085 Y29.85 I0.085 J-0.15
X59.915 Y30.15 I-0.085 J0.15
G0 Z5
X69.827 Y30.003
G1 Z-1 F762
G2 X70.173 Y29.997 I0.173 J-0.003
X69.827 Y30.003 I-0.173 J0.003
G0 Z5
X69.997 Y20.173
G1 Z-1 F762
G3 X70.003 Y19.827 I0.003 J-0.173
X69.997 Y20.173 I-0.003 J0.173
G0 Z5
X60.173 Y20.003
G1 Z-1 F762
G3 X59.827 Y19.997 I-0.173 J-0.003
X60.173 Y20.003 I0.173 J0.003
G0 Z5
X60.003 Y10.173
G1 Z-1 F762
G2 X59.997 Y9.827 I-0.003 J-0.173
X60.003 Y10.173 I0.003 J0.173
G0 Z5
X69.827 Y10.003
G1 Z-1 F762
G2 X70.173 Y9.997 I0.173 J-0.003
X69.827 Y10.003 I-0.173 J0.003
G0 Z5
X79.827 Y10
G1 Z-1 F762
G2 X80.173 I0.173
X79.827 I-0.173
G0 Z5
X79.997 Y0.173
G1 Z-1 F762
G3 X80.003 Y-0.173 I0.003 J-0.173
X79.997 Y0.173 I-0.003 J0.173
G0 Z5
X70.173 Y0.003
G1 Z-1 F762
G3 X69.827 Y-0.003 I-0.173 J-0.003
X70.173 Y0.003 I0.173 J0.003
G0 Z5
X60.173 Y0
G1 Z-1 F762
G3 X59.827 I-0.173
X60.173 I0.173
G0 Z5
X50.173
G1 Z-1 F762
G3 X49.827 I-0.173
X50.173 I0.173
G0 Z5
X40.173
G1 Z-1 F762
G2 X39.827 I-0.173
X40.173 I0.173
G0 Z5
X40.003 Y9.827
G1 Z-1 F762
G2 X39.997 Y10.173 I-0.003 J0.173
X40.003 Y9.827 I0.003 J-0.173
G0 Z5
X49.827 Y9.997
G1 Z-1 F762
G3 X50.173 Y10.003 I0.173 J0.003
X49.827 Y9.997 I-0.173 J-0.003
G0 Z5
X49.997 Y19.827
G1 Z-1 F762
G2 X50.003 Y20.173 I0.003 J0.173
X49.997 Y19.827 I-0.003 J-0.173
G0 Z5
X79.827 Y19.999
G1 Z-1 F762
G3 X80.173 Y20.001 I0.173 J0.001
X79.827 Y19.999 I-0.173 J-0.001
G0 Z5
X79.997 Y29.827
G1 Z-1 F762
G2 X80.003 Y30.173 I0.003 J0.173
X79.997 Y29.827 I-0.003 J-0.173
G0 Z5
X89.827 Y29.997
G1 Z-1 F762
G3 X90.173 Y30.003 I0.173 J0.003
X89.827 Y29.997 I-0.173 J-0.003
G0 Z5
X99.827 Y30
G1 Z-1 F762
G3 X100.173 I0.173
X99.827 I-0.173
G0 Z5
X99.997 Y20.173
G1 Z-1 F762
G3 X100.003 Y19.827 I0.003 J-0.173
X99.997 Y20.173 I-0.003 J0.173
G0 Z5
X100 Y10.173
G1 Z-1 F762
G2 Y9.827 J-0.173
Y10.173 J0.173
G0 Z5
Y0.173
G1 Z-1 F762
G3 Y-0.173 J-0.173
Y0.173 J0.173
G0 Z5
X90.173 Y0.003
G1 Z-1 F762
G2 X89.827 Y-0.003 I-0.173 J-0.003
X90.173 Y0.003 I0.173 J0.003
G0 Z5
X90.003 Y9.827
G1 Z-1 F762
G2 X89.997 Y10.173 I-0.003 J0.173
X90.003 Y9.827 I0.003 J-0.173
G0 Z5
X90 Y19.827
G1 Z-1 F762
G2 Y20.173 J0.173
Y19.827 J-0.173
G0 Z5
X80.077 Y39.845
G1 Z-1 F762
G2 X79.923 Y40.155 I-0.077 J0.155
X80.077 Y39.845 I0.077 J-0.155
G0 Z15
M30
%
