%
(calibration-test2-v)
(T1  D=6.35 CR=0 TAPER=30deg - ZMIN=-1 - chamfer mill)
G90 G94
G17
G21

(Engrave2)
M9
T1 M6
S5000 M3
G54
G0 X0.173 Y0
Z15
Z5
G1 Z-1 F762
G2 X-0.173 I-0.173
X0.173 I0.173
G0 Z5
X0.003 Y9.827
G1 Z-1 F762
G2 X-0.003 Y10.173 I-0.003 J0.173
X0.003 Y9.827 I0.003 J-0.173
G0 Z5
X0 Y19.827
G1 Z-1 F762
G3 Y20.173 J0.173
Y19.827 J-0.173
G0 Z5
X9.827 Y19.997
G1 Z-1 F762
G3 X10.173 Y20.003 I0.173 J0.003
X9.827 Y19.997 I-0.173 J-0.003
G0 Z5
X9.997 Y10.173
G1 Z-1 F762
G3 X10.003 Y9.827 I0.003 J-0.173
X9.997 Y10.173 I-0.003 J0.173
G0 Z5
X10 Y0.173
G1 Z-1 F762
G2 Y-0.173 J-0.173
Y0.173 J0.173
G0 Z5
Y29.827
G1 Z-1 F762
G2 Y30.173 J0.173
Y29.827 J-0.173
G0 Z5
Y39.827
G1 Z-1 F762
G3 Y40.173 J0.173
Y39.827 J-0.173
G0 Z5
X0.173 Y39.997
G1 Z-1 F762
G2 X-0.173 Y40.003 I-0.173 J0.003
X0.173 Y39.997 I0.173 J-0.003
G0 Z5
X0.003 Y30.173
G1 Z-1 F762
G3 X-0.003 Y29.827 I-0.003 J-0.173
X0.003 Y30.173 I0.003 J0.173
G0 Z5
X0 Y49.827
G1 Z-1 F762
G2 Y50.173 J0.173
Y49.827 J-0.173
G0 Z5
X9.827 Y49.997
G1 Z-1 F762
G2 X10.173 Y50.003 I0.173 J0.003
X9.827 Y49.997 I-0.173 J-0.003
G0 Z5
X9.997 Y59.827
G1 Z-1 F762
G3 X10.003 Y60.173 I0.003 J0.173
X9.997 Y59.827 I-0.003 J-0.173
G0 Z5
X0.173 Y59.997
G1 Z-1 F762
G3 X-0.173 Y60.003 I-0.173 J0.003
X0.173 Y59.997 I0.173 J-0.003
G0 Z5
X0.003 Y69.827
G1 Z-1 F762
G3 X-0.003 Y70.173 I-0.003 J0.173
X0.003 Y69.827 I0.003 J-0.173
G0 Z5
X0 Y79.827
G1 Z-1 F762
G2 Y80.173 J0.173
Y79.827 J-0.173
G0 Z5
Y89.827
G1 Z-1 F762
G2 Y90.173 J0.173
Y89.827 J-0.173
G0 Z5
X9.827 Y89.997
G1 Z-1 F762
G2 X10.173 Y90.003 I0.173 J0.003
X9.827 Y89.997 I-0.173 J-0.003
G0 Z5
X9.997 Y80.173
G1 Z-1 F762
G3 X10.003 Y79.827 I0.003 J-0.173
X9.997 Y80.173 I-0.003 J0.173
G0 Z5
X10 Y70.173
G1 Z-1 F762
G2 Y69.827 J-0.173
Y70.173 J0.173
G0 Z5
Y99.827
G1 Z-1 F762
G2 Y100.173 J0.173
Y99.827 J-0.173
G0 Z5
X0.173 Y99.997
G1 Z-1 F762
G3 X-0.173 Y100.003 I-0.173 J0.003
X0.173 Y99.997 I0.173 J-0.003
G0 Z15
M30
%
