%
(top1-3_4)
(T1  D=2.812 CR=0 - ZMIN=-7.5 - flat end mill)
G90 G94
G17
G21

(Rough-1_8)
M9
T1 M6
S16000 M3
G54
G0 X25.069 Y25.241
Z15
Z5
Z2.5
G3 X23.942 Y27.662 Z2.353 I-0.563 J1.211 F333.3
X25.069 Y25.241 Z2.207 I0.563 J-1.211
X23.942 Y27.662 Z2.06 I-0.563 J1.211
X25.069 Y25.241 Z1.914 I0.563 J-1.211
X23.942 Y27.662 Z1.767 I-0.563 J1.211
X25.069 Y25.241 Z1.621 I0.563 J-1.211
X23.942 Y27.662 Z1.474 I-0.563 J1.211
X25.069 Y25.241 Z1.328 I0.563 J-1.211
X23.942 Y27.662 Z1.181 I-0.563 J1.211
X25.069 Y25.241 Z1.035 I0.563 J-1.211
X23.942 Y27.662 Z0.888 I-0.563 J1.211
X25.069 Y25.241 Z0.742 I0.563 J-1.211
X23.942 Y27.662 Z0.595 I-0.563 J1.211
X25.069 Y25.241 Z0.449 I0.563 J-1.211
X23.942 Y27.662 Z0.302 I-0.563 J1.211
X25.069 Y25.241 Z0.156 I0.563 J-1.211
X23.942 Y27.662 Z0.009 I-0.563 J1.211
X25.069 Y25.241 Z-0.137 I0.563 J-1.211
X23.942 Y27.662 Z-0.284 I-0.563 J1.211
X25.069 Y25.241 Z-0.43 I0.563 J-1.211
X23.942 Y27.662 Z-0.577 I-0.563 J1.211
X25.069 Y25.241 Z-0.724 I0.563 J-1.211
X23.942 Y27.662 Z-0.87 I-0.563 J1.211
X25.069 Y25.241 Z-1.017 I0.563 J-1.211
X23.942 Y27.662 Z-1.163 I-0.563 J1.211
X25.069 Y25.241 Z-1.31 I0.563 J-1.211
X23.942 Y27.662 Z-1.456 I-0.563 J1.211
X25.069 Y25.241 Z-1.603 I0.563 J-1.211
X23.942 Y27.662 Z-1.749 I-0.563 J1.211
X25.069 Y25.241 Z-1.896 I0.563 J-1.211
X23.942 Y27.662 Z-2.042 I-0.563 J1.211
X25.069 Y25.241 Z-2.189 I0.563 J-1.211
X23.942 Y27.662 Z-2.335 I-0.563 J1.211
X25.069 Y25.241 Z-2.482 I0.563 J-1.211
X23.942 Y27.662 Z-2.628 I-0.563 J1.211
X25.069 Y25.241 Z-2.775 I0.563 J-1.211
X23.942 Y27.662 Z-2.921 I-0.563 J1.211
X25.069 Y25.241 Z-3.068 I0.563 J-1.211
X23.942 Y27.662 Z-3.214 I-0.563 J1.211
X25.069 Y25.241 Z-3.361 I0.563 J-1.211
X23.942 Y27.662 Z-3.507 I-0.563 J1.211
X25.069 Y25.241 Z-3.654 I0.563 J-1.211
X23.942 Y27.662 Z-3.801 I-0.563 J1.211
X25.069 Y25.241 Z-3.947 I0.563 J-1.211
X25.842 Y26.451 Z-4 I-0.563 J1.211
X23.17 I-1.336
X25.842 I1.336
G1 X25.872 Y27.155 F1400
X25.885 Y27.243
X25.888 Y27.392
X25.861 Y27.54
X25.812 Y27.682
X25.743 Y27.815
X25.657 Y27.938
X25.558 Y28.05
X25.447 Y28.151
X25.326 Y28.24
X25.197 Y28.316
X25.061 Y28.38
X24.92 Y28.432
X24.775 Y28.471
X24.627 Y28.497
X24.478 Y28.511
X24.328 Y28.513
X24.176 Y28.502
X24.023 Y28.479
X23.87 Y28.443
X23.719 Y28.395
X23.572 Y28.334
X23.428 Y28.261
X23.289 Y28.176
X23.157 Y28.079
X23.033 Y27.972
X22.917 Y27.854
X22.81 Y27.726
X22.713 Y27.59
X22.627 Y27.446
X22.553 Y27.296
X22.491 Y27.139
X22.442 Y26.977
X22.405 Y26.812
X22.382 Y26.644
X22.373 Y26.474
X22.377 Y26.304
X22.395 Y26.135
X22.427 Y25.967
X22.471 Y25.803
X22.529 Y25.642
X22.6 Y25.486
X22.683 Y25.337
X22.778 Y25.194
X22.884 Y25.06
X23.001 Y24.934
X23.127 Y24.818
X23.262 Y24.713
X23.405 Y24.619
X23.556 Y24.536
X23.712 Y24.466
X23.874 Y24.409
X24.04 Y24.365
X24.209 Y24.334
X24.379 Y24.317
X24.551 Y24.314
X24.722 Y24.324
X24.892 Y24.348
X25.06 Y24.386
X25.224 Y24.437
X25.383 Y24.501
X25.537 Y24.578
X25.684 Y24.667
X25.823 Y24.767
X25.954 Y24.878
X26.076 Y24.999
X26.187 Y25.13
X26.288 Y25.269
X26.383 Y25.425
X26.486 Y25.631
X26.607 Y25.929
X26.707 Y26.246
X26.764 Y26.496
X26.796 Y26.717
X26.809 Y26.932
X26.806 Y27.133
X26.788 Y27.321
X26.755 Y27.505
X26.707 Y27.687
X26.645 Y27.862
X26.572 Y28.028
X26.484 Y28.188
X26.382 Y28.344
X26.267 Y28.493
X26.139 Y28.633
X25.999 Y28.764
X25.848 Y28.883
X25.686 Y28.992
X25.512 Y29.089
X25.329 Y29.173
X25.137 Y29.243
X24.936 Y29.298
X24.729 Y29.338
X24.517 Y29.361
X24.3 Y29.367
X24.082 Y29.355
X23.863 Y29.326
X23.645 Y29.278
X23.43 Y29.213
X23.219 Y29.131
X23.014 Y29.03
X22.816 Y28.913
X22.627 Y28.78
X22.449 Y28.631
X22.282 Y28.467
X22.128 Y28.29
X21.988 Y28.1
X21.864 Y27.899
X21.756 Y27.688
X21.664 Y27.468
X21.591 Y27.24
X21.536 Y27.007
X21.499 Y26.77
X21.482 Y26.53
X21.484 Y26.289
X21.505 Y26.049
X21.546 Y25.811
X21.606 Y25.577
X21.684 Y25.348
X21.781 Y25.126
X21.895 Y24.912
X22.026 Y24.707
X22.173 Y24.514
X22.335 Y24.334
X22.512 Y24.166
X22.701 Y24.014
X22.902 Y23.877
X23.113 Y23.756
X23.334 Y23.653
X23.562 Y23.568
X23.796 Y23.501
X24.035 Y23.454
X24.277 Y23.426
X24.52 Y23.417
X24.763 Y23.428
X25.005 Y23.458
X25.244 Y23.508
X25.477 Y23.576
X25.705 Y23.663
X25.925 Y23.769
X26.136 Y23.891
X26.336 Y24.03
X26.526 Y24.186
X26.711 Y24.364
X26.899 Y24.578
X27.078 Y24.817
X27.244 Y25.08
X27.39 Y25.36
X27.512 Y25.647
X27.608 Y25.936
X27.679 Y26.224
X27.725 Y26.508
X27.747 Y26.789
Y27.066
X27.725 Y27.339
X27.682 Y27.606
X27.618 Y27.866
X27.534 Y28.119
X27.43 Y28.364
X27.306 Y28.6
X27.164 Y28.825
X27.005 Y29.038
X26.827 Y29.239
X26.634 Y29.426
X26.424 Y29.598
X26.2 Y29.754
X25.961 Y29.892
X25.711 Y30.012
X25.449 Y30.112
X25.177 Y30.192
X24.898 Y30.25
X24.612 Y30.285
X24.322 Y30.298
X24.03 Y30.288
X23.738 Y30.254
X23.447 Y30.196
X23.16 Y30.114
X22.879 Y30.009
X22.605 Y29.881
X22.342 Y29.73
X22.089 Y29.558
X21.851 Y29.366
X21.627 Y29.154
X21.421 Y28.923
X21.232 Y28.676
X21.064 Y28.414
X20.917 Y28.138
X20.792 Y27.85
X20.69 Y27.553
X20.612 Y27.248
X20.559 Y26.936
X20.531 Y26.621
X20.529 Y26.304
X20.552 Y25.988
X20.6 Y25.674
X20.673 Y25.364
X20.772 Y25.061
X20.894 Y24.767
X21.039 Y24.483
X21.207 Y24.212
X21.397 Y23.955
X21.606 Y23.714
X21.834 Y23.49
X22.08 Y23.285
X22.341 Y23.101
X22.616 Y22.938
X22.904 Y22.797
X23.202 Y22.681
X23.508 Y22.588
X23.821 Y22.52
X24.139 Y22.478
X24.459 Y22.461
X24.779 Y22.47
X25.097 Y22.505
X25.412 Y22.565
X25.721 Y22.65
X26.022 Y22.76
X26.314 Y22.893
X26.597 Y23.051
X26.873 Y23.237
X27.143 Y23.45
X27.402 Y23.692
X27.647 Y23.961
X27.874 Y24.254
X28.078 Y24.567
X28.257 Y24.895
X28.408 Y25.236
X28.531 Y25.584
X28.624 Y25.939
X28.688 Y26.296
X28.723 Y26.654
X28.729 Y27.01
X28.706 Y27.363
X28.655 Y27.711
X28.577 Y28.052
X28.473 Y28.384
X28.342 Y28.706
X28.186 Y29.016
X28.006 Y29.313
X27.803 Y29.595
X27.576 Y29.86
X27.329 Y30.106
X27.061 Y30.334
X26.774 Y30.54
X26.47 Y30.723
X26.151 Y30.882
X25.817 Y31.016
X25.472 Y31.124
X25.117 Y31.203
X24.755 Y31.255
X24.387 Y31.277
X24.017 Y31.27
X23.646 Y31.233
X23.278 Y31.166
X22.914 Y31.068
X22.557 Y30.942
X22.21 Y30.786
X21.875 Y30.603
X21.554 Y30.392
X21.251 Y30.155
X20.966 Y29.893
X20.702 Y29.609
X20.461 Y29.303
X20.245 Y28.978
X20.055 Y28.635
X19.892 Y28.278
X19.759 Y27.908
X19.655 Y27.528
X19.583 Y27.139
X19.541 Y26.746
X19.531 Y26.35
X19.553 Y25.954
X19.607 Y25.56
X19.693 Y25.172
X19.809 Y24.791
X19.956 Y24.421
X20.132 Y24.063
X20.336 Y23.72
X20.568 Y23.395
X20.824 Y23.089
X21.105 Y22.805
X21.408 Y22.544
X21.73 Y22.308
X22.071 Y22.098
X22.428 Y21.917
X22.798 Y21.765
X23.179 Y21.643
X23.569 Y21.551
X23.965 Y21.492
X24.364 Y21.464
X24.765 Y21.469
X25.164 Y21.506
X25.558 Y21.574
X25.947 Y21.674
X26.328 Y21.806
X26.701 Y21.97
X27.064 Y22.165
X27.415 Y22.392
X27.753 Y22.651
X28.075 Y22.942
X28.377 Y23.262
X28.656 Y23.609
X28.907 Y23.98
X29.128 Y24.371
X29.317 Y24.778
X29.472 Y25.197
X29.592 Y25.626
X29.677 Y26.061
X29.727 Y26.498
X29.742 Y26.936
X29.721 Y27.371
X29.666 Y27.802
X29.576 Y28.224
X29.454 Y28.637
X29.299 Y29.039
X29.112 Y29.426
X28.895 Y29.796
X28.649 Y30.149
X28.375 Y30.481
X28.074 Y30.79
X27.749 Y31.076
X27.4 Y31.335
X27.03 Y31.567
X26.641 Y31.769
X26.235 Y31.94
X25.814 Y32.078
X25.382 Y32.183
X24.941 Y32.253
X24.493 Y32.288
X24.041 Y32.287
X23.589 Y32.249
X23.14 Y32.174
X22.696 Y32.064
X22.261 Y31.917
X21.836 Y31.736
X21.427 Y31.52
X21.034 Y31.271
X20.662 Y30.99
X20.312 Y30.679
X19.987 Y30.34
X19.69 Y29.975
X19.422 Y29.587
X19.186 Y29.177
X18.983 Y28.749
X18.814 Y28.305
X18.682 Y27.848
X18.586 Y27.381
X18.528 Y26.907
X18.509 Y26.43
X18.527 Y25.952
X18.585 Y25.476
X18.68 Y25.006
X18.812 Y24.545
X18.982 Y24.095
X19.187 Y23.661
X19.427 Y23.244
X19.699 Y22.847
X20.002 Y22.473
X20.335 Y22.125
X20.694 Y21.804
X21.079 Y21.514
X21.485 Y21.254
X21.911 Y21.029
X22.354 Y20.838
X22.811 Y20.683
X23.279 Y20.566
X23.755 Y20.486
X24.236 Y20.445
X24.719 Y20.442
X25.2 Y20.479
X25.678 Y20.554
X26.15 Y20.667
X26.614 Y20.819
X27.068 Y21.009
X27.51 Y21.237
X27.937 Y21.503
X28.347 Y21.807
X28.735 Y22.146
X29.098 Y22.518
X29.432 Y22.922
X29.735 Y23.353
X30.002 Y23.808
X30.232 Y24.283
X30.423 Y24.774
X30.574 Y25.278
X30.683 Y25.791
X30.751 Y26.31
X30.777 Y26.83
X30.761 Y27.349
X30.703 Y27.864
X30.605 Y28.37
X30.467 Y28.866
X30.289 Y29.349
X30.074 Y29.815
X29.822 Y30.263
X29.534 Y30.689
X29.213 Y31.091
X28.86 Y31.467
X28.477 Y31.814
X28.067 Y32.13
X27.631 Y32.413
X27.172 Y32.661
X26.692 Y32.873
X26.196 Y33.045
X25.685 Y33.178
X25.163 Y33.27
X24.633 Y33.32
X24.099 Y33.327
X23.564 Y33.291
X23.031 Y33.212
X22.505 Y33.09
X21.988 Y32.925
X21.484 Y32.719
X20.997 Y32.473
X20.529 Y32.187
X20.085 Y31.863
X19.667 Y31.504
X19.278 Y31.112
X18.921 Y30.688
X18.599 Y30.237
X18.313 Y29.759
X18.066 Y29.26
X17.859 Y28.741
X17.695 Y28.207
X17.573 Y27.66
X17.496 Y27.104
X17.464 Y26.544
X17.477 Y25.982
X17.535 Y25.422
X17.637 Y24.868
X17.784 Y24.324
X17.974 Y23.793
X18.207 Y23.279
X18.48 Y22.784
X18.792 Y22.313
X19.141 Y21.868
X19.525 Y21.453
X19.941 Y21.07
X20.386 Y20.721
X20.859 Y20.409
X21.355 Y20.135
X21.871 Y19.903
X22.404 Y19.712
X22.951 Y19.565
X23.509 Y19.462
X24.073 Y19.405
X24.64 Y19.392
X25.207 Y19.426
X25.77 Y19.505
X26.328 Y19.629
X26.877 Y19.799
X27.415 Y20.013
X27.937 Y20.273
X28.442 Y20.575
X28.924 Y20.92
X29.38 Y21.306
X29.808 Y21.73
X30.202 Y22.19
X30.559 Y22.682
X30.877 Y23.202
X31.152 Y23.747
X31.382 Y24.313
X31.567 Y24.894
X31.703 Y25.487
X31.792 Y26.088
X31.832 Y26.693
X31.823 Y27.297
X31.766 Y27.897
X31.661 Y28.489
X31.51 Y29.07
X31.312 Y29.637
X31.07 Y30.185
X30.784 Y30.712
X30.457 Y31.214
X30.091 Y31.69
X29.687 Y32.134
X29.247 Y32.546
X28.775 Y32.922
X28.273 Y33.26
X27.745 Y33.557
X27.192 Y33.811
X26.619 Y34.021
X26.029 Y34.185
X25.425 Y34.302
X24.812 Y34.369
X24.194 Y34.388
X23.574 Y34.357
X22.956 Y34.275
X22.345 Y34.144
X21.745 Y33.964
X21.159 Y33.736
X20.592 Y33.46
X20.047 Y33.139
X19.528 Y32.774
X19.039 Y32.368
X18.583 Y31.923
X18.163 Y31.441
X17.783 Y30.927
X17.444 Y30.382
X17.15 Y29.811
X16.902 Y29.218
X16.702 Y28.605
X16.552 Y27.978
X16.453 Y27.339
X16.405 Y26.694
X16.409 Y26.047
X16.465 Y25.402
X16.573 Y24.762
X16.731 Y24.133
X16.94 Y23.518
X17.198 Y22.922
X17.503 Y22.348
X17.853 Y21.8
X18.246 Y21.281
X18.68 Y20.796
X19.151 Y20.347
X19.657 Y19.937
X20.195 Y19.569
X20.76 Y19.245
X21.35 Y18.968
X21.96 Y18.738
X22.587 Y18.559
X23.226 Y18.43
X23.873 Y18.353
X24.526 Y18.328
X25.179 Y18.355
X25.829 Y18.435
X26.473 Y18.568
X27.107 Y18.753
X27.728 Y18.989
X28.332 Y19.276
X28.915 Y19.613
X29.472 Y19.998
X30 Y20.43
X30.495 Y20.905
X30.953 Y21.421
X31.369 Y21.974
X31.74 Y22.561
X32.064 Y23.176
X32.337 Y23.815
X32.558 Y24.474
X32.725 Y25.148
X32.837 Y25.832
X32.894 Y26.521
X32.896 Y27.212
X32.842 Y27.898
X32.733 Y28.577
X32.571 Y29.245
X32.355 Y29.896
X32.089 Y30.527
X31.772 Y31.135
X31.408 Y31.716
X30.998 Y32.266
X30.544 Y32.782
X30.05 Y33.261
X29.518 Y33.699
X28.952 Y34.094
X28.354 Y34.443
X27.729 Y34.743
X27.079 Y34.994
X26.41 Y35.192
X25.725 Y35.335
X25.029 Y35.424
X24.325 Y35.457
X23.621 Y35.433
X22.921 Y35.353
X22.23 Y35.217
X21.551 Y35.027
X20.89 Y34.783
X20.25 Y34.488
X19.636 Y34.143
X19.05 Y33.751
X18.497 Y33.315
X17.98 Y32.836
X17.502 Y32.319
X17.066 Y31.765
X16.674 Y31.18
X16.329 Y30.565
X16.032 Y29.926
X15.786 Y29.266
X15.592 Y28.589
X15.45 Y27.899
X15.363 Y27.2
X15.329 Y26.496
X15.35 Y25.791
X15.424 Y25.091
X15.553 Y24.398
X15.734 Y23.717
X15.968 Y23.052
X16.252 Y22.408
X16.586 Y21.787
X16.966 Y21.194
X17.391 Y20.632
X17.857 Y20.104
X18.363 Y19.614
X18.905 Y19.163
X19.48 Y18.756
X20.084 Y18.393
X20.714 Y18.078
X21.367 Y17.812
X22.037 Y17.597
X22.723 Y17.433
X23.419 Y17.323
X24.121 Y17.266
X24.825 Y17.262
X25.528 Y17.313
X26.225 Y17.416
X26.912 Y17.573
X27.586 Y17.78
X28.241 Y18.038
X28.875 Y18.346
X29.484 Y18.701
X30.064 Y19.1
X30.614 Y19.541
X31.13 Y20.021
X31.609 Y20.537
X32.051 Y21.086
X32.451 Y21.666
X32.809 Y22.273
X33.123 Y22.904
X33.39 Y23.556
X33.607 Y24.226
X33.774 Y24.911
X33.891 Y25.605
X33.958 Y26.307
X33.973 Y27.011
X33.938 Y27.715
X33.852 Y28.414
X33.716 Y29.105
X33.529 Y29.785
X33.295 Y30.449
X33.011 Y31.094
X32.68 Y31.716
X32.303 Y32.312
X31.884 Y32.878
X31.425 Y33.412
X30.927 Y33.911
X30.395 Y34.373
X29.832 Y34.796
X29.239 Y35.176
X28.62 Y35.514
X27.979 Y35.806
X27.318 Y36.05
X26.64 Y36.244
X25.951 Y36.388
X25.252 Y36.482
X24.549 Y36.526
X23.845 Y36.52
X23.142 Y36.465
X22.445 Y36.361
X21.758 Y36.208
X21.082 Y36.007
X20.424 Y35.756
X19.785 Y35.459
X19.169 Y35.118
X18.578 Y34.734
X18.015 Y34.31
X17.483 Y33.848
X16.984 Y33.351
X16.52 Y32.821
X16.094 Y32.259
X15.709 Y31.669
X15.367 Y31.053
X15.07 Y30.414
X14.817 Y29.757
X14.61 Y29.083
X14.449 Y28.397
X14.336 Y27.702
X14.27 Y27
X14.251 Y26.296
X14.282 Y25.592
X14.363 Y24.892
X14.493 Y24.2
X14.67 Y23.518
X14.894 Y22.85
X15.163 Y22.199
X15.476 Y21.567
X15.831 Y20.959
X16.227 Y20.376
X16.662 Y19.821
X17.134 Y19.299
X17.643 Y18.811
X18.184 Y18.36
X18.754 Y17.946
X19.352 Y17.572
X19.973 Y17.24
X20.615 Y16.95
X21.275 Y16.704
X21.951 Y16.504
X22.638 Y16.35
X23.335 Y16.246
X24.038 Y16.19
X24.742 Y16.183
X25.446 Y16.224
X26.145 Y16.311
X26.836 Y16.446
X27.517 Y16.626
X28.185 Y16.852
X28.836 Y17.123
X29.466 Y17.438
X30.072 Y17.796
X30.653 Y18.194
X31.207 Y18.63
X31.731 Y19.102
X32.223 Y19.606
X32.681 Y20.141
X33.105 Y20.704
X33.491 Y21.293
X33.839 Y21.906
X34.145 Y22.54
X34.408 Y23.194
X34.626 Y23.865
X34.799 Y24.547
X34.927 Y25.24
X35.011 Y25.94
X35.049 Y26.643
X35.042 Y27.348
X34.99 Y28.051
X34.892 Y28.748
X34.748 Y29.438
X34.558 Y30.117
X34.324 Y30.781
X34.045 Y31.428
X33.725 Y32.056
X33.363 Y32.661
X32.963 Y33.241
X32.526 Y33.793
X32.055 Y34.317
X31.55 Y34.808
X31.013 Y35.265
X30.447 Y35.684
X29.855 Y36.066
X29.239 Y36.409
X28.603 Y36.711
X28.507 Y36.749
X28.428 Y36.775
X28.347 Y36.79
X28.265 Y36.796
X21.305
X20.898 Y36.775
X20.566 Y36.732
X20.221 Y36.658
X19.771 Y36.523
X19.288 Y36.335
X18.733 Y36.066
X18.126 Y35.708
X17.549 Y35.304
X17.001 Y34.861
X16.484 Y34.382
X15.998 Y33.872
X15.545 Y33.332
X15.127 Y32.765
X14.748 Y32.171
X14.409 Y31.554
X14.218 Y31.148
X14.184 Y31.059
X14.163 Y30.965
X14.156 Y30.869
Y22.89
X14.168 Y22.644
X14.208 Y22.339
X14.277 Y22.017
X14.403 Y21.597
X14.575 Y21.156
X14.834 Y20.622
X15.184 Y20.027
X15.589 Y19.45
X16.035 Y18.905
X16.517 Y18.39
X17.031 Y17.909
X17.575 Y17.461
X18.147 Y17.05
X18.743 Y16.675
X19.362 Y16.337
X19.718 Y16.17
X19.807 Y16.135
X19.901 Y16.114
X19.997 Y16.107
X28.027
X28.383 Y16.125
X28.684 Y16.165
X29.004 Y16.233
X29.417 Y16.357
X29.853 Y16.527
X30.387 Y16.786
X30.986 Y17.138
X31.563 Y17.544
X32.11 Y17.988
X32.627 Y18.466
X33.114 Y18.975
X33.569 Y19.513
X33.991 Y20.078
X34.378 Y20.666
X34.73 Y21.276
X35.045 Y21.907
X35.321 Y22.555
X35.558 Y23.219
X35.755 Y23.895
X35.912 Y24.582
X36.028 Y25.277
X36.103 Y25.978
X36.136 Y26.681
X36.127 Y27.386
X36.076 Y28.089
X35.983 Y28.787
X35.849 Y29.479
X35.674 Y30.161
X35.458 Y30.832
X35.203 Y31.489
X34.909 Y32.129
X34.577 Y32.751
X34.209 Y33.351
X33.804 Y33.928
X33.366 Y34.48
X32.896 Y35.005
X32.395 Y35.5
X31.865 Y35.965
X31.309 Y36.397
X30.897 Y36.68
X30.782 Y36.744
X30.656 Y36.782
X30.526 Y36.796
X28.265
G3 X28.188 Y36.247 I0.01 J-0.281 F1000
G1 X28.247 Y36.228 Z-3.993
X28.304 Y36.21 Z-3.972
X28.354 Y36.193 Z-3.939
X28.397 Y36.179 Z-3.894
X28.429 Y36.169 Z-3.841
X28.448 Y36.163 Z-3.781
X28.455 Y36.16 Z-3.719
G0 Z5
X14.521 Y23.885
Z-3.438
G1 Z-3.719 F1000
X14.517 Y23.879 Z-3.781
X14.507 Y23.861 Z-3.841
X14.49 Y23.833 Z-3.894
X14.467 Y23.794 Z-3.939
X14.44 Y23.749 Z-3.972
X14.409 Y23.698 Z-3.993
X14.377 Y23.644 Z-4
G3 X14.156 Y22.89 I1.36 J-0.809
G1 Y20.81 F1400
X14.168 Y20.572
X14.193 Y20.379
X14.244 Y20.14
X14.325 Y19.87
X14.443 Y19.566
X14.621 Y19.2
X14.864 Y18.787
X15.187 Y18.327
X15.621 Y17.804
X16.113 Y17.3
X16.64 Y16.832
X17.195 Y16.398
X17.45 Y16.223
X17.565 Y16.16
X17.691 Y16.121
X17.822 Y16.107
G3 X18.036 Y16.559 I-0.01 J0.281 F1000
G1 X17.932 Y16.694
X14.718 Y20.895 F1400
X14.66 Y20.971 F1000
G3 X14.156 Y20.81 I-0.223 J-0.171
G1 Y19.05 F1400
X14.164 Y18.883
X14.185 Y18.723
X14.226 Y18.533
X14.296 Y18.299
X14.39 Y18.059
X14.528 Y17.774
X14.72 Y17.447
X14.981 Y17.075
X15.32 Y16.668
X15.673 Y16.305
X15.81 Y16.198
X15.97 Y16.13
X16.143 Y16.107
G3 X16.37 Y16.54 I-0.01 J0.281 F1000
G1 X16.265 Y16.703
X14.712 Y19.131 F1400
X14.674 Y19.192 F1000
G3 X14.156 Y19.05 I-0.237 J-0.151
G1 Y17.522 F1400
X14.163 Y17.373
X14.185 Y17.213
X14.223 Y17.04
X14.281 Y16.851
X14.37 Y16.626
X14.445 Y16.474
X14.548 Y16.323
X14.687 Y16.206
X14.854 Y16.133
X15.034 Y16.107
G3 X15.273 Y16.519 I-0.01 J0.281 F1000
G1 X15.172 Y16.712
X14.708 Y17.601 F1400
X14.686 Y17.643 F1000
G3 X14.156 Y17.522 I-0.249 J-0.13
G1 Y16.41 F1400
X14.158 Y16.37
X14.165 Y16.33
X14.178 Y16.292
X14.198 Y16.254
X14.226 Y16.216
X14.242 Y16.196
X14.262 Y16.177
X14.27 Y16.17
X14.308 Y16.144
X14.346 Y16.126
X14.384 Y16.115
X14.422 Y16.109
X14.582 Y16.107
X19.997
G3 X20.074 Y16.656 I-0.01 J0.281 F1000
G1 X20.014 Y16.675 Z-3.993
X19.958 Y16.693 Z-3.972
X19.907 Y16.71 Z-3.939
X19.865 Y16.724 Z-3.894
X19.833 Y16.734 Z-3.841
X19.813 Y16.74 Z-3.781
X19.806 Y16.743 Z-3.719
G0 Z5
X22.3 Y36.431
Z-3.438
G1 Z-3.719 F1000
X22.294 Y36.434 Z-3.781
X22.276 Y36.445 Z-3.841
X22.247 Y36.462 Z-3.894
X22.209 Y36.485 Z-3.939
X22.163 Y36.512 Z-3.972
X22.112 Y36.542 Z-3.993
X22.058 Y36.574 Z-4
G3 X21.305 Y36.796 I-0.809 J-1.36
G1 X18.904 F1400
X18.754 Y36.788
X18.556 Y36.761
X18.313 Y36.708
X18.022 Y36.619
X17.709 Y36.496
X17.319 Y36.305
X16.885 Y36.046
X16.396 Y35.7
X15.856 Y35.247
X15.353 Y34.754
X14.884 Y34.228
X14.449 Y33.674
X14.272 Y33.418
X14.208 Y33.302
X14.169 Y33.176
X14.156 Y33.045
G3 X14.609 Y32.832 I0.281 J0.01 F1000
G1 X14.742 Y32.935
X18.989 Y36.233 F1400
X19.066 Y36.292 F1000
G3 X18.904 Y36.796 I-0.172 J0.222
G1 X17.215 F1400
X17.042 Y36.787
X16.868 Y36.764
X16.68 Y36.724
X16.449 Y36.655
X16.186 Y36.552
X15.904 Y36.415
X15.557 Y36.211
X15.182 Y35.948
X14.752 Y35.591
X14.354 Y35.202
X14.246 Y35.066
X14.179 Y34.905
X14.156 Y34.733
G3 X14.588 Y34.506 I0.281 J0.01 F1000
G1 X14.751 Y34.61
X17.296 Y36.239 F1400
X17.357 Y36.278 F1000
G3 X17.215 Y36.796 I-0.152 J0.237
G1 X15.702 F1400
X15.513 Y36.786
X15.356 Y36.766
X15.174 Y36.727
X14.987 Y36.671
X14.76 Y36.582
X14.535 Y36.473
X14.479 Y36.44
X14.345 Y36.336
X14.242 Y36.2
X14.178 Y36.043
X14.156 Y35.875
G3 X14.563 Y35.633 I0.281 J0.01 F1000
G1 X14.762 Y35.733
X15.781 Y36.244 F1400
X15.819 Y36.263 F1000
G3 X15.702 Y36.796 I-0.126 J0.251
G1 X14.582 F1400
X14.494 Y36.795
X14.422 Y36.794
X14.382 Y36.788
X14.342 Y36.775
X14.302 Y36.755
X14.282 Y36.742
X14.262 Y36.726
X14.242 Y36.707
X14.226 Y36.688
X14.198 Y36.65
X14.178 Y36.61
X14.164 Y36.57
X14.157 Y36.53
X14.156 Y36.49
Y30.869
G3 X14.704 Y30.792 I0.281 J0.01 F1000
G1 X14.724 Y30.852 Z-3.993
X14.742 Y30.908 Z-3.972
X14.758 Y30.959 Z-3.939
X14.772 Y31.001 Z-3.894
X14.782 Y31.033 Z-3.841
X14.789 Y31.053 Z-3.781
X14.791 Y31.06 Z-3.719
G0 Z5
X27.032 Y16.472
Z-3.438
G1 Z-3.719 F1000
X27.038 Y16.469 Z-3.781
X27.056 Y16.458 Z-3.841
X27.085 Y16.441 Z-3.894
X27.123 Y16.418 Z-3.939
X27.169 Y16.391 Z-3.972
X27.22 Y16.361 Z-3.993
X27.274 Y16.329 Z-4
G3 X28.027 Y16.107 I0.809 J1.36
G1 X30.268 F1400
X30.431 Y16.116
X30.625 Y16.141
X30.864 Y16.192
X31.137 Y16.274
X31.443 Y16.393
X31.815 Y16.574
X32.241 Y16.824
X32.717 Y17.159
X33.26 Y17.609
X33.764 Y18.101
X34.235 Y18.625
X34.673 Y19.177
X35.08 Y19.752
X35.454 Y20.349
X35.794 Y20.966
X36.1 Y21.601
X36.371 Y22.251
X36.604 Y22.916
X36.8 Y23.593
X36.959 Y24.279
X37.082 Y24.973
X37.166 Y25.673
X37.213 Y26.376
X37.221 Y27.08
X37.191 Y27.784
X37.123 Y28.486
X37.018 Y29.182
X36.875 Y29.872
X36.693 Y30.553
X36.474 Y31.223
X36.218 Y31.879
X35.927 Y32.521
X35.601 Y33.145
X35.241 Y33.751
X34.849 Y34.336
X34.425 Y34.899
X33.971 Y35.438
X33.489 Y35.952
X32.979 Y36.439
X32.747 Y36.638
X32.619 Y36.724
X32.474 Y36.777
X32.32 Y36.796
X30.526
G3 X30.449 Y36.247 I0.01 J-0.281 F1000
G1 X30.508 Y36.228 Z-3.993
X30.565 Y36.21 Z-3.972
X30.616 Y36.193 Z-3.939
X30.658 Y36.179 Z-3.894
X30.69 Y36.169 Z-3.841
X30.71 Y36.163 Z-3.781
X30.716 Y36.16 Z-3.719
G0 Z5
X29.273 Y16.472
Z-3.438
G1 Z-3.719 F1000
X29.279 Y16.469 Z-3.781
X29.297 Y16.458 Z-3.841
X29.326 Y16.441 Z-3.894
X29.364 Y16.418 Z-3.939
X29.41 Y16.391 Z-3.972
X29.461 Y16.361 Z-3.993
X29.515 Y16.329 Z-4
G3 X30.268 Y16.107 I0.809 J1.36
G1 X32.029 F1400
X32.179 Y16.115
X32.347 Y16.141
X32.55 Y16.19
X32.801 Y16.273
X33.051 Y16.378
X33.361 Y16.538
X33.702 Y16.751
X34.116 Y17.058
X34.561 Y17.447
X35.053 Y17.952
X35.504 Y18.494
X35.919 Y19.063
X36.302 Y19.654
X36.652 Y20.266
X36.971 Y20.894
X37.256 Y21.538
X37.509 Y22.196
X37.727 Y22.866
X37.912 Y23.546
X38.062 Y24.234
X38.178 Y24.929
X38.258 Y25.629
X38.303 Y26.333
X38.312 Y27.037
X38.286 Y27.741
X38.225 Y28.443
X38.129 Y29.141
X37.998 Y29.833
X37.833 Y30.518
X37.633 Y31.194
X37.399 Y31.859
X37.132 Y32.511
X36.833 Y33.148
X36.501 Y33.77
X36.138 Y34.374
X35.744 Y34.958
X35.322 Y35.522
X34.871 Y36.064
X34.395 Y36.583
X34.369 Y36.608
X34.234 Y36.71
X34.077 Y36.774
X33.91 Y36.796
X32.32
G3 X32.243 Y36.247 I0.01 J-0.281 F1000
G1 X32.303 Y36.228 Z-3.993
X32.359 Y36.21 Z-3.972
X32.41 Y36.193 Z-3.939
X32.453 Y36.179 Z-3.894
X32.484 Y36.169 Z-3.841
X32.504 Y36.163 Z-3.781
X32.511 Y36.16 Z-3.719
G0 Z5
X31.034 Y16.472
Z-3.438
G1 Z-3.719 F1000
X31.04 Y16.469 Z-3.781
X31.058 Y16.458 Z-3.841
X31.086 Y16.441 Z-3.894
X31.125 Y16.418 Z-3.939
X31.171 Y16.391 Z-3.972
X31.222 Y16.361 Z-3.993
X31.275 Y16.329 Z-4
G3 X32.029 Y16.107 I0.809 J1.36
G1 X33.47 F1400
X33.659 Y16.117
X33.808 Y16.136
X33.986 Y16.175
X34.191 Y16.236
X34.402 Y16.319
X34.664 Y16.445
X34.946 Y16.612
X35.269 Y16.839
X35.628 Y17.137
X36.05 Y17.549
X36.513 Y18.081
X36.932 Y18.647
X37.315 Y19.238
X37.665 Y19.85
X37.981 Y20.479
X38.266 Y21.124
X38.52 Y21.781
X38.741 Y22.45
X38.932 Y23.128
X39.091 Y23.815
X39.217 Y24.508
X39.311 Y25.206
X39.373 Y25.908
X39.401 Y26.612
X39.398 Y27.317
X39.361 Y28.02
X39.293 Y28.722
X39.192 Y29.419
X39.057 Y30.111
X38.89 Y30.795
X38.691 Y31.471
X38.461 Y32.137
X38.199 Y32.791
X37.908 Y33.433
X37.587 Y34.06
X37.236 Y34.671
X36.858 Y35.265
X36.451 Y35.841
X36.019 Y36.397
X35.875 Y36.566
X35.733 Y36.69
X35.562 Y36.769
X35.376 Y36.796
X33.91
G3 X33.833 Y36.247 I0.01 J-0.281 F1000
G1 X33.892 Y36.228 Z-3.993
X33.949 Y36.21 Z-3.972
X33.999 Y36.193 Z-3.939
X34.042 Y36.179 Z-3.894
X34.074 Y36.169 Z-3.841
X34.093 Y36.163 Z-3.781
X34.1 Y36.16 Z-3.719
G0 Z5
X32.474 Y16.472
Z-3.438
G1 Z-3.719 F1000
X32.48 Y16.469 Z-3.781
X32.498 Y16.458 Z-3.841
X32.527 Y16.441 Z-3.894
X32.565 Y16.418 Z-3.939
X32.611 Y16.391 Z-3.972
X32.662 Y16.361 Z-3.993
X32.716 Y16.329 Z-4
G3 X33.47 Y16.107 I0.809 J1.36
G1 X34.91 F1400
X35.076 Y16.116
X35.225 Y16.135
X35.38 Y16.169
X35.568 Y16.225
X35.777 Y16.307
X35.998 Y16.415
X36.272 Y16.577
X36.549 Y16.772
X36.887 Y17.054
X37.235 Y17.396
X37.648 Y17.871
X38.066 Y18.438
X38.442 Y19.034
X38.782 Y19.651
X39.089 Y20.285
X39.365 Y20.933
X39.612 Y21.593
X39.828 Y22.263
X40.015 Y22.943
X40.171 Y23.63
X40.297 Y24.323
X40.392 Y25.021
X40.457 Y25.723
X40.491 Y26.427
X40.495 Y27.131
X40.469 Y27.835
X40.413 Y28.538
X40.326 Y29.237
X40.209 Y29.932
X40.062 Y30.621
X39.884 Y31.303
X39.678 Y31.976
X39.442 Y32.64
X39.177 Y33.293
X38.883 Y33.933
X38.561 Y34.56
X38.212 Y35.172
X37.836 Y35.768
X37.435 Y36.348
X37.287 Y36.54
X37.143 Y36.678
X36.964 Y36.765
X36.767 Y36.796
X35.376
G3 X35.299 Y36.247 I0.01 J-0.281 F1000
G1 X35.359 Y36.228 Z-3.993
X35.415 Y36.21 Z-3.972
X35.466 Y36.193 Z-3.939
X35.508 Y36.179 Z-3.894
X35.54 Y36.169 Z-3.841
X35.56 Y36.163 Z-3.781
X35.567 Y36.16 Z-3.719
G0 Z5
X33.915 Y16.472
Z-3.438
G1 Z-3.719 F1000
X33.921 Y16.469 Z-3.781
X33.939 Y16.458 Z-3.841
X33.968 Y16.441 Z-3.894
X34.006 Y16.418 Z-3.939
X34.052 Y16.391 Z-3.972
X34.103 Y16.361 Z-3.993
X34.157 Y16.329 Z-4
G3 X34.91 Y16.107 I0.809 J1.36
G1 X36.279 F1400
X36.432 Y16.115
X36.58 Y16.135
X36.738 Y16.17
X36.918 Y16.226
X37.103 Y16.301
X37.328 Y16.413
X37.568 Y16.558
X37.834 Y16.748
X38.14 Y17.009
X38.474 Y17.341
X38.839 Y17.769
X39.252 Y18.34
X39.619 Y18.942
X39.947 Y19.566
X40.242 Y20.206
X40.506 Y20.859
X40.742 Y21.523
X40.948 Y22.196
X41.127 Y22.878
X41.276 Y23.567
X41.398 Y24.261
X41.49 Y24.959
X41.553 Y25.661
X41.587 Y26.365
X41.593 Y27.069
X41.57 Y27.773
X41.52 Y28.476
X41.44 Y29.176
X41.333 Y29.873
X41.197 Y30.564
X41.033 Y31.249
X40.842 Y31.927
X40.623 Y32.597
X40.377 Y33.257
X40.104 Y33.907
X39.804 Y34.545
X39.479 Y35.169
X39.127 Y35.78
X38.75 Y36.375
X38.637 Y36.529
X38.492 Y36.672
X38.31 Y36.764
X38.109 Y36.796
X36.767
G3 X36.69 Y36.247 I0.01 J-0.281 F1000
G1 X36.75 Y36.228 Z-3.993
X36.806 Y36.21 Z-3.972
X36.857 Y36.193 Z-3.939
X36.899 Y36.179 Z-3.894
X36.931 Y36.169 Z-3.841
X36.951 Y36.163 Z-3.781
X36.958 Y36.16 Z-3.719
G0 Z5
X35.283 Y16.472
Z-3.438
G1 Z-3.719 F1000
X35.29 Y16.469 Z-3.781
X35.307 Y16.458 Z-3.841
X35.336 Y16.441 Z-3.894
X35.374 Y16.418 Z-3.939
X35.42 Y16.391 Z-3.972
X35.471 Y16.361 Z-3.993
X35.525 Y16.329 Z-4
G3 X36.279 Y16.107 I0.809 J1.36
G1 X37.631 F1400
X37.781 Y16.115
X37.929 Y16.14
X38.095 Y16.183
X38.261 Y16.24
X38.456 Y16.326
X38.679 Y16.446
X38.905 Y16.592
X39.187 Y16.809
X39.461 Y17.057
X39.795 Y17.411
X40.145 Y17.848
X40.538 Y18.43
X40.885 Y19.043
X41.193 Y19.677
X41.468 Y20.326
X41.713 Y20.986
X41.93 Y21.656
X42.12 Y22.335
X42.282 Y23.021
X42.418 Y23.712
X42.526 Y24.408
X42.607 Y25.108
X42.662 Y25.811
X42.689 Y26.515
Y27.219
X42.663 Y27.923
X42.61 Y28.626
X42.529 Y29.326
X42.422 Y30.022
X42.288 Y30.714
X42.128 Y31.4
X41.942 Y32.08
X41.73 Y32.752
X41.492 Y33.415
X41.229 Y34.069
X40.941 Y34.712
X40.628 Y35.343
X40.292 Y35.962
X40.014 Y36.424
X39.945 Y36.521
X39.8 Y36.668
X39.616 Y36.763
X39.411 Y36.796
X38.109
G3 X38.032 Y36.247 I0.01 J-0.281 F1000
G1 X38.092 Y36.228 Z-3.993
X38.148 Y36.21 Z-3.972
X38.199 Y36.193 Z-3.939
X38.241 Y36.179 Z-3.894
X38.273 Y36.169 Z-3.841
X38.293 Y36.163 Z-3.781
X38.3 Y36.16 Z-3.719
G0 Z5
X36.636 Y16.472
Z-3.438
G1 Z-3.719 F1000
X36.642 Y16.469 Z-3.781
X36.66 Y16.458 Z-3.841
X36.689 Y16.441 Z-3.894
X36.727 Y16.418 Z-3.939
X36.773 Y16.391 Z-3.972
X36.824 Y16.361 Z-3.993
X36.878 Y16.329 Z-4
G3 X37.631 Y16.107 I0.809 J1.36
G1 X38.912 F1400
X39.062 Y16.115
X39.209 Y16.141
X39.367 Y16.183
X39.541 Y16.246
X39.724 Y16.329
X39.945 Y16.451
X40.164 Y16.596
X40.423 Y16.799
X40.702 Y17.058
X41.012 Y17.394
X41.339 Y17.811
X41.712 Y18.377
X42.052 Y18.994
X42.351 Y19.632
X42.617 Y20.284
X42.853 Y20.948
X43.061 Y21.621
X43.242 Y22.302
X43.398 Y22.989
X43.528 Y23.682
X43.632 Y24.379
X43.71 Y25.079
X43.762 Y25.781
X43.789 Y26.486
X43.79 Y27.19
X43.766 Y27.894
X43.716 Y28.597
X43.641 Y29.298
X43.54 Y29.995
X43.415 Y30.688
X43.264 Y31.377
X43.089 Y32.059
X42.89 Y32.735
X42.666 Y33.403
X42.419 Y34.063
X42.148 Y34.713
X41.853 Y35.353
X41.535 Y35.982
X41.304 Y36.392
X41.226 Y36.507
X41.08 Y36.661
X40.892 Y36.761
X40.682 Y36.796
X39.411
G3 X39.335 Y36.247 I0.01 J-0.281 F1000
G1 X39.394 Y36.228 Z-3.993
X39.451 Y36.21 Z-3.972
X39.501 Y36.193 Z-3.939
X39.544 Y36.179 Z-3.894
X39.576 Y36.169 Z-3.841
X39.595 Y36.163 Z-3.781
X39.602 Y36.16 Z-3.719
G0 Z5
X37.917 Y16.472
Z-3.438
G1 Z-3.719 F1000
X37.923 Y16.469 Z-3.781
X37.94 Y16.458 Z-3.841
X37.969 Y16.441 Z-3.894
X38.008 Y16.418 Z-3.939
X38.053 Y16.391 Z-3.972
X38.104 Y16.361 Z-3.993
X38.158 Y16.329 Z-4
G3 X38.912 Y16.107 I0.809 J1.36
G1 X40.12 F1400
X40.27 Y16.115
X40.418 Y16.137
X40.566 Y16.174
X40.734 Y16.231
X40.905 Y16.305
X41.109 Y16.413
X41.32 Y16.547
X41.557 Y16.726
X41.826 Y16.965
X42.103 Y17.255
X42.415 Y17.638
X42.762 Y18.144
X43.113 Y18.755
X43.418 Y19.39
X43.687 Y20.041
X43.924 Y20.705
X44.132 Y21.378
X44.314 Y22.058
X44.47 Y22.745
X44.602 Y23.438
X44.709 Y24.134
X44.791 Y24.834
X44.849 Y25.536
X44.883 Y26.24
X44.892 Y26.944
X44.877 Y27.649
X44.839 Y28.352
X44.776 Y29.054
X44.689 Y29.753
X44.579 Y30.449
X44.445 Y31.141
X44.288 Y31.828
X44.107 Y32.509
X43.903 Y33.183
X43.677 Y33.85
X43.427 Y34.509
X43.155 Y35.159
X42.86 Y35.799
X42.621 Y36.268
X42.488 Y36.484
X42.384 Y36.613
X42.25 Y36.712
X42.095 Y36.774
X41.93 Y36.796
X40.682
G3 X40.605 Y36.247 I0.01 J-0.281 F1000
G1 X40.665 Y36.228 Z-3.993
X40.721 Y36.21 Z-3.972
X40.772 Y36.193 Z-3.939
X40.815 Y36.179 Z-3.894
X40.846 Y36.169 Z-3.841
X40.866 Y36.163 Z-3.781
X40.873 Y36.16 Z-3.719
G0 Z5
X39.125 Y16.472
Z-3.438
G1 Z-3.719 F1000
X39.131 Y16.469 Z-3.781
X39.149 Y16.458 Z-3.841
X39.178 Y16.441 Z-3.894
X39.216 Y16.418 Z-3.939
X39.262 Y16.391 Z-3.972
X39.313 Y16.361 Z-3.993
X39.367 Y16.329 Z-4
G3 X40.12 Y16.107 I0.809 J1.36
G1 X41.313 F1400
X41.463 Y16.115
X41.611 Y16.135
X41.758 Y16.169
X41.906 Y16.217
X42.08 Y16.288
X42.272 Y16.387
X42.471 Y16.509
X42.713 Y16.687
X42.946 Y16.888
X43.233 Y17.179
X43.512 Y17.513
X43.838 Y17.972
X44.191 Y18.567
X44.502 Y19.2
X44.772 Y19.85
X45.009 Y20.514
X45.218 Y21.187
X45.399 Y21.868
X45.555 Y22.555
X45.686 Y23.247
X45.794 Y23.943
X45.879 Y24.643
X45.94 Y25.345
X45.978 Y26.048
X45.993 Y26.753
X45.985 Y27.457
X45.954 Y28.161
X45.901 Y28.864
X45.825 Y29.564
X45.726 Y30.262
X45.605 Y30.956
X45.462 Y31.646
X45.297 Y32.331
X45.109 Y33.01
X44.9 Y33.683
X44.669 Y34.348
X44.416 Y35.006
X44.142 Y35.655
X43.882 Y36.206
X43.725 Y36.48
X43.704 Y36.511
X43.558 Y36.663
X43.371 Y36.762
X43.163 Y36.796
X41.93
G3 X41.853 Y36.247 I0.01 J-0.281 F1000
G1 X41.912 Y36.228 Z-3.993
X41.969 Y36.21 Z-3.972
X42.02 Y36.193 Z-3.939
X42.062 Y36.179 Z-3.894
X42.094 Y36.169 Z-3.841
X42.114 Y36.163 Z-3.781
X42.12 Y36.16 Z-3.719
G0 Z5
X40.318 Y16.472
Z-3.438
G1 Z-3.719 F1000
X40.324 Y16.469 Z-3.781
X40.341 Y16.458 Z-3.841
X40.37 Y16.441 Z-3.894
X40.409 Y16.418 Z-3.939
X40.454 Y16.391 Z-3.972
X40.505 Y16.361 Z-3.993
X40.559 Y16.329 Z-4
G3 X41.313 Y16.107 I0.809 J1.36
G1 X42.521 F1400
X42.671 Y16.115
X42.82 Y16.136
X42.965 Y16.171
X43.119 Y16.222
X43.297 Y16.297
X43.474 Y16.389
X43.686 Y16.523
X43.905 Y16.686
X44.15 Y16.902
X44.419 Y17.181
X44.707 Y17.531
X45.012 Y17.968
X45.353 Y18.554
X45.658 Y19.189
X45.921 Y19.842
X46.151 Y20.508
X46.352 Y21.184
X46.527 Y21.866
X46.677 Y22.555
X46.803 Y23.248
X46.906 Y23.945
X46.987 Y24.645
X47.046 Y25.347
X47.083 Y26.051
X47.097 Y26.755
X47.089 Y27.46
X47.059 Y28.164
X47.008 Y28.866
X46.935 Y29.567
X46.841 Y30.265
X46.726 Y30.96
X46.589 Y31.652
X46.431 Y32.338
X46.253 Y33.02
X46.053 Y33.696
X45.833 Y34.365
X45.592 Y35.027
X45.33 Y35.681
X45.104 Y36.18
X44.94 Y36.476
X44.922 Y36.502
X44.776 Y36.659
X44.587 Y36.761
X44.376 Y36.796
X43.163
G3 X43.086 Y36.247 I0.01 J-0.281 F1000
G1 X43.145 Y36.228 Z-3.993
X43.202 Y36.21 Z-3.972
X43.253 Y36.193 Z-3.939
X43.295 Y36.179 Z-3.894
X43.327 Y36.169 Z-3.841
X43.347 Y36.163 Z-3.781
X43.353 Y36.16 Z-3.719
G0 Z5
X41.526 Y16.472
Z-3.438
G1 Z-3.719 F1000
X41.532 Y16.469 Z-3.781
X41.55 Y16.458 Z-3.841
X41.579 Y16.441 Z-3.894
X41.617 Y16.418 Z-3.939
X41.663 Y16.391 Z-3.972
X41.714 Y16.361 Z-3.993
X41.768 Y16.329 Z-4
G3 X42.521 Y16.107 I0.809 J1.36
G1 X43.714 F1400
X43.864 Y16.115
X44.012 Y16.136
X44.158 Y16.172
X44.31 Y16.223
X44.488 Y16.3
X44.664 Y16.392
X44.873 Y16.525
X45.087 Y16.687
X45.328 Y16.901
X45.591 Y17.176
X45.872 Y17.521
X46.168 Y17.951
X46.498 Y18.524
X46.8 Y19.161
X47.059 Y19.816
X47.283 Y20.484
X47.479 Y21.161
X47.648 Y21.845
X47.794 Y22.534
X47.916 Y23.228
X48.016 Y23.925
X48.095 Y24.626
X48.152 Y25.328
X48.187 Y26.032
X48.201 Y26.736
X48.194 Y27.441
X48.166 Y28.145
X48.118 Y28.847
X48.049 Y29.549
X47.959 Y30.248
X47.849 Y30.943
X47.719 Y31.636
X47.569 Y32.324
X47.399 Y33.008
X47.209 Y33.687
X46.999 Y34.359
X46.769 Y35.025
X46.518 Y35.684
X46.309 Y36.163
X46.15 Y36.458
X46.127 Y36.495
X45.98 Y36.656
X45.789 Y36.76
X45.575 Y36.796
X44.376
G3 X44.299 Y36.247 I0.01 J-0.281 F1000
G1 X44.358 Y36.228 Z-3.993
X44.415 Y36.21 Z-3.972
X44.466 Y36.193 Z-3.939
X44.508 Y36.179 Z-3.894
X44.54 Y36.169 Z-3.841
X44.56 Y36.163 Z-3.781
X44.566 Y36.16 Z-3.719
G0 Z5
X42.719 Y16.472
Z-3.438
G1 Z-3.719 F1000
X42.725 Y16.469 Z-3.781
X42.742 Y16.458 Z-3.841
X42.771 Y16.441 Z-3.894
X42.81 Y16.418 Z-3.939
X42.855 Y16.391 Z-3.972
X42.906 Y16.361 Z-3.993
X42.96 Y16.329 Z-4
G3 X43.714 Y16.107 I0.809 J1.36
G1 X44.922 F1400
X45.072 Y16.115
X45.22 Y16.14
X45.365 Y16.179
X45.522 Y16.235
X45.698 Y16.315
X45.878 Y16.415
X46.093 Y16.558
X46.301 Y16.721
X46.551 Y16.953
X46.802 Y17.226
X47.095 Y17.601
X47.381 Y18.035
X47.705 Y18.626
X47.994 Y19.269
X48.241 Y19.928
X48.454 Y20.6
X48.639 Y21.28
X48.799 Y21.966
X48.935 Y22.657
X49.05 Y23.353
X49.142 Y24.051
X49.214 Y24.752
X49.265 Y25.455
X49.296 Y26.159
X49.306 Y26.863
X49.297 Y27.568
X49.267 Y28.272
X49.217 Y28.974
X49.147 Y29.675
X49.058 Y30.374
X48.949 Y31.07
X48.821 Y31.763
X48.673 Y32.452
X48.507 Y33.137
X48.321 Y33.817
X48.117 Y34.491
X47.893 Y35.159
X47.647 Y35.819
X47.479 Y36.199
X47.328 Y36.478
X47.317 Y36.497
X47.17 Y36.656
X46.98 Y36.76
X46.766 Y36.796
X45.575
G3 X45.498 Y36.247 I0.01 J-0.281 F1000
G1 X45.558 Y36.228 Z-3.993
X45.614 Y36.21 Z-3.972
X45.665 Y36.193 Z-3.939
X45.707 Y36.179 Z-3.894
X45.739 Y36.169 Z-3.841
X45.759 Y36.163 Z-3.781
X45.766 Y36.16 Z-3.719
G0 Z5
X43.927 Y16.472
Z-3.438
G1 Z-3.719 F1000
X43.933 Y16.469 Z-3.781
X43.951 Y16.458 Z-3.841
X43.98 Y16.441 Z-3.894
X44.018 Y16.418 Z-3.939
X44.064 Y16.391 Z-3.972
X44.115 Y16.361 Z-3.993
X44.169 Y16.329 Z-4
G3 X44.922 Y16.107 I0.809 J1.36
G1 X46.115 F1400
X46.265 Y16.115
X46.412 Y16.143
X46.556 Y16.184
X46.71 Y16.241
X46.892 Y16.327
X47.071 Y16.43
X47.281 Y16.574
X47.496 Y16.748
X47.738 Y16.978
X47.996 Y17.267
X48.277 Y17.637
X48.564 Y18.086
X48.884 Y18.689
X49.163 Y19.335
X49.402 Y19.998
X49.607 Y20.672
X49.784 Y21.354
X49.937 Y22.042
X50.066 Y22.735
X50.175 Y23.431
X50.262 Y24.13
X50.329 Y24.831
X50.377 Y25.534
X50.405 Y26.239
X50.413 Y26.943
X50.402 Y27.648
X50.371 Y28.351
X50.321 Y29.054
X50.251 Y29.755
X50.163 Y30.454
X50.057 Y31.151
X49.932 Y31.844
X49.788 Y32.534
X49.626 Y33.22
X49.446 Y33.901
X49.247 Y34.577
X49.03 Y35.247
X48.788 Y35.909
X48.639 Y36.244
X48.524 Y36.454
X48.42 Y36.595
X48.283 Y36.704
X48.121 Y36.772
X47.948 Y36.796
X46.766
G3 X46.689 Y36.247 I0.01 J-0.281 F1000
G1 X46.749 Y36.228 Z-3.993
X46.805 Y36.21 Z-3.972
X46.856 Y36.193 Z-3.939
X46.898 Y36.179 Z-3.894
X46.93 Y36.169 Z-3.841
X46.95 Y36.163 Z-3.781
X46.957 Y36.16 Z-3.719
G0 Z5
X45.119 Y16.472
Z-3.438
G1 Z-3.719 F1000
X45.126 Y16.469 Z-3.781
X45.143 Y16.458 Z-3.841
X45.172 Y16.441 Z-3.894
X45.21 Y16.418 Z-3.939
X45.256 Y16.391 Z-3.972
X45.307 Y16.361 Z-3.993
X45.361 Y16.329 Z-4
G3 X46.115 Y16.107 I0.809 J1.36
G1 X47.235 F1400
X47.385 Y16.115
X47.533 Y16.137
X47.679 Y16.175
X47.823 Y16.225
X47.99 Y16.299
X48.173 Y16.398
X48.364 Y16.522
X48.587 Y16.693
X48.803 Y16.889
X49.068 Y17.172
X49.316 Y17.482
X49.606 Y17.912
X49.915 Y18.46
X50.21 Y19.099
X50.459 Y19.759
X50.671 Y20.43
X50.853 Y21.111
X51.009 Y21.798
X51.142 Y22.49
X51.254 Y23.186
X51.345 Y23.884
X51.417 Y24.585
X51.469 Y25.288
X51.503 Y25.992
X51.517 Y26.696
X51.513 Y27.401
X51.49 Y28.105
X51.449 Y28.808
X51.389 Y29.51
X51.311 Y30.211
X51.215 Y30.909
X51.101 Y31.604
X50.97 Y32.296
X50.82 Y32.985
X50.654 Y33.669
X50.469 Y34.349
X50.267 Y35.024
X50.044 Y35.693
X49.859 Y36.148
X49.731 Y36.404
X49.684 Y36.48
X49.58 Y36.611
X49.445 Y36.711
X49.29 Y36.774
X49.124 Y36.796
X47.948
G3 X47.871 Y36.247 I0.01 J-0.281 F1000
G1 X47.931 Y36.228 Z-3.993
X47.987 Y36.21 Z-3.972
X48.038 Y36.193 Z-3.939
X48.08 Y36.179 Z-3.894
X48.112 Y36.169 Z-3.841
X48.132 Y36.163 Z-3.781
X48.139 Y36.16 Z-3.719
G0 Z5
X46.24 Y16.472
Z-3.438
G1 Z-3.719 F1000
X46.246 Y16.469 Z-3.781
X46.264 Y16.458 Z-3.841
X46.293 Y16.441 Z-3.894
X46.331 Y16.418 Z-3.939
X46.377 Y16.391 Z-3.972
X46.428 Y16.361 Z-3.993
X46.482 Y16.329 Z-4
G3 X47.235 Y16.107 I0.809 J1.36
G1 X48.356 F1400
X48.509 Y16.115
X48.657 Y16.135
X48.803 Y16.169
X48.949 Y16.217
X49.116 Y16.288
X49.283 Y16.375
X49.48 Y16.499
X49.682 Y16.65
X49.908 Y16.848
X50.152 Y17.1
X50.411 Y17.415
X50.684 Y17.807
X50.983 Y18.32
X51.288 Y18.955
X51.543 Y19.612
X51.759 Y20.283
X51.943 Y20.963
X52.101 Y21.649
X52.236 Y22.341
X52.348 Y23.037
X52.441 Y23.735
X52.514 Y24.436
X52.568 Y25.138
X52.604 Y25.842
X52.622 Y26.546
Y27.251
X52.603 Y27.955
X52.567 Y28.659
X52.514 Y29.362
X52.443 Y30.063
X52.354 Y30.762
X52.248 Y31.458
X52.126 Y32.152
X51.986 Y32.842
X51.829 Y33.529
X51.655 Y34.212
X51.464 Y34.89
X51.253 Y35.563
X51.067 Y36.054
X50.926 Y36.354
X50.861 Y36.466
X50.757 Y36.603
X50.621 Y36.707
X50.462 Y36.773
X50.292 Y36.796
X49.124
G3 X49.047 Y36.247 I0.01 J-0.281 F1000
G1 X49.106 Y36.228 Z-3.993
X49.163 Y36.21 Z-3.972
X49.213 Y36.193 Z-3.939
X49.256 Y36.179 Z-3.894
X49.288 Y36.169 Z-3.841
X49.307 Y36.163 Z-3.781
X49.314 Y36.16 Z-3.719
G0 Z5
X47.36 Y16.472
Z-3.438
G1 Z-3.719 F1000
X47.366 Y16.469 Z-3.781
X47.384 Y16.458 Z-3.841
X47.413 Y16.441 Z-3.894
X47.451 Y16.418 Z-3.939
X47.497 Y16.391 Z-3.972
X47.548 Y16.361 Z-3.993
X47.602 Y16.329 Z-4
G3 X48.356 Y16.107 I0.809 J1.36
G1 X49.564 F1400
X49.714 Y16.115
X49.862 Y16.141
X50.006 Y16.181
X50.167 Y16.241
X50.326 Y16.316
X50.513 Y16.422
X50.708 Y16.554
X50.921 Y16.726
X51.156 Y16.948
X51.398 Y17.218
X51.668 Y17.572
X51.953 Y18.015
X52.241 Y18.554
X52.523 Y19.2
X52.758 Y19.864
X52.958 Y20.54
X53.129 Y21.223
X53.274 Y21.913
X53.397 Y22.607
X53.499 Y23.304
X53.581 Y24.004
X53.645 Y24.705
X53.691 Y25.408
X53.72 Y26.112
X53.73 Y26.817
X53.724 Y27.521
X53.7 Y28.225
X53.659 Y28.929
X53.601 Y29.631
X53.527 Y30.332
X53.436 Y31.03
X53.328 Y31.727
X53.203 Y32.42
X53.062 Y33.111
X52.905 Y33.797
X52.731 Y34.48
X52.539 Y35.158
X52.321 Y35.828
X52.168 Y36.2
X52.047 Y36.436
X52.018 Y36.484
X51.913 Y36.613
X51.779 Y36.712
X51.624 Y36.774
X51.459 Y36.796
X50.292
G3 X50.215 Y36.247 I0.01 J-0.281 F1000
G1 X50.275 Y36.228 Z-3.993
X50.331 Y36.21 Z-3.972
X50.382 Y36.193 Z-3.939
X50.424 Y36.179 Z-3.894
X50.456 Y36.169 Z-3.841
X50.476 Y36.163 Z-3.781
X50.483 Y36.16 Z-3.719
G0 Z5
X48.569 Y16.472
Z-3.438
G1 Z-3.719 F1000
X48.575 Y16.469 Z-3.781
X48.593 Y16.458 Z-3.841
X48.622 Y16.441 Z-3.894
X48.66 Y16.418 Z-3.939
X48.706 Y16.391 Z-3.972
X48.757 Y16.361 Z-3.993
X48.811 Y16.329 Z-4
G3 X49.564 Y16.107 I0.809 J1.36
G1 X50.685 F1400
X50.834 Y16.115
X50.983 Y16.138
X51.128 Y16.176
X51.271 Y16.227
X51.442 Y16.303
X51.614 Y16.398
X51.809 Y16.525
X52.021 Y16.69
X52.241 Y16.893
X52.488 Y17.159
X52.739 Y17.477
X53.012 Y17.886
X53.306 Y18.414
X53.597 Y19.055
X53.84 Y19.717
X54.044 Y20.391
X54.218 Y21.074
X54.365 Y21.763
X54.49 Y22.457
X54.593 Y23.154
X54.678 Y23.853
X54.744 Y24.555
X54.792 Y25.257
X54.823 Y25.961
X54.837 Y26.666
X54.834 Y27.37
X54.815 Y28.075
X54.779 Y28.778
X54.727 Y29.481
X54.659 Y30.182
X54.574 Y30.882
X54.474 Y31.579
X54.357 Y32.274
X54.225 Y32.966
X54.076 Y33.655
X53.912 Y34.34
X53.729 Y35.021
X53.524 Y35.695
X53.368 Y36.105
X53.237 Y36.38
X53.185 Y36.469
X53.081 Y36.604
X52.945 Y36.708
X52.787 Y36.773
X52.618 Y36.796
X51.459
G3 X51.382 Y36.247 I0.01 J-0.281 F1000
G1 X51.442 Y36.228 Z-3.993
X51.498 Y36.21 Z-3.972
X51.549 Y36.193 Z-3.939
X51.591 Y36.179 Z-3.894
X51.623 Y36.169 Z-3.841
X51.643 Y36.163 Z-3.781
X51.65 Y36.16 Z-3.719
G0 Z5
X49.689 Y16.472
Z-3.438
G1 Z-3.719 F1000
X49.695 Y16.469 Z-3.781
X49.713 Y16.458 Z-3.841
X49.742 Y16.441 Z-3.894
X49.78 Y16.418 Z-3.939
X49.826 Y16.391 Z-3.972
X49.877 Y16.361 Z-3.993
X49.931 Y16.329 Z-4
G3 X50.685 Y16.107 I0.809 J1.36
G1 X51.877 F1400
X52.027 Y16.115
X52.174 Y16.144
X52.318 Y16.187
X52.478 Y16.25
X52.642 Y16.33
X52.826 Y16.439
X53.028 Y16.581
X53.236 Y16.755
X53.477 Y16.991
X53.712 Y17.262
X53.984 Y17.631
X54.259 Y18.077
X54.546 Y18.636
X54.817 Y19.287
X55.042 Y19.955
X55.232 Y20.633
X55.393 Y21.319
X55.529 Y22.011
X55.643 Y22.706
X55.738 Y23.404
X55.814 Y24.104
X55.872 Y24.807
X55.913 Y25.51
X55.938 Y26.214
X55.946 Y26.919
X55.938 Y27.623
X55.914 Y28.327
X55.874 Y29.031
X55.818 Y29.733
X55.747 Y30.434
X55.66 Y31.133
X55.558 Y31.831
X55.44 Y32.525
X55.306 Y33.217
X55.157 Y33.906
X54.992 Y34.591
X54.808 Y35.271
X54.615 Y35.872
X54.474 Y36.217
X54.358 Y36.444
X54.334 Y36.483
X54.23 Y36.613
X54.096 Y36.712
X53.941 Y36.774
X53.775 Y36.796
X52.618
G3 X52.541 Y36.247 I0.01 J-0.281 F1000
G1 X52.6 Y36.228 Z-3.993
X52.657 Y36.21 Z-3.972
X52.708 Y36.193 Z-3.939
X52.75 Y36.179 Z-3.894
X52.782 Y36.169 Z-3.841
X52.802 Y36.163 Z-3.781
X52.808 Y36.16 Z-3.719
G0 Z5
X50.882 Y16.472
Z-3.438
G1 Z-3.719 F1000
X50.888 Y16.469 Z-3.781
X50.906 Y16.458 Z-3.841
X50.935 Y16.441 Z-3.894
X50.973 Y16.418 Z-3.939
X51.019 Y16.391 Z-3.972
X51.07 Y16.361 Z-3.993
X51.124 Y16.329 Z-4
G3 X51.877 Y16.107 I0.809 J1.36
G1 X52.998 F1400
X53.147 Y16.115
X53.295 Y16.142
X53.439 Y16.183
X53.583 Y16.238
X53.753 Y16.318
X53.932 Y16.42
X54.125 Y16.553
X54.341 Y16.728
X54.559 Y16.937
X54.81 Y17.217
X55.057 Y17.545
X55.329 Y17.971
X55.619 Y18.519
X55.898 Y19.166
X56.129 Y19.831
X56.323 Y20.509
X56.486 Y21.194
X56.625 Y21.885
X56.741 Y22.58
X56.836 Y23.278
X56.914 Y23.978
X56.973 Y24.68
X57.017 Y25.384
X57.043 Y26.088
X57.054 Y26.792
X57.049 Y27.497
X57.029 Y28.201
X56.993 Y28.905
X56.942 Y29.607
X56.876 Y30.309
X56.795 Y31.009
X56.698 Y31.707
X56.587 Y32.402
X56.461 Y33.096
X56.319 Y33.786
X56.162 Y34.473
X55.986 Y35.155
X55.784 Y35.82
X55.645 Y36.173
X55.526 Y36.416
X55.491 Y36.474
X55.387 Y36.608
X55.252 Y36.71
X55.095 Y36.774
X54.927 Y36.796
X53.775
G3 X53.698 Y36.247 I0.01 J-0.281 F1000
G1 X53.758 Y36.228 Z-3.993
X53.814 Y36.21 Z-3.972
X53.865 Y36.193 Z-3.939
X53.908 Y36.179 Z-3.894
X53.939 Y36.169 Z-3.841
X53.959 Y36.163 Z-3.781
X53.966 Y36.16 Z-3.719
G0 Z5
X52.002 Y16.472
Z-3.438
G1 Z-3.719 F1000
X52.008 Y16.469 Z-3.781
X52.026 Y16.458 Z-3.841
X52.055 Y16.441 Z-3.894
X52.093 Y16.418 Z-3.939
X52.139 Y16.391 Z-3.972
X52.19 Y16.361 Z-3.993
X52.244 Y16.329 Z-4
G3 X52.998 Y16.107 I0.809 J1.36
G1 X54.118 F1400
X54.268 Y16.115
X54.416 Y16.141
X54.56 Y16.18
X54.707 Y16.235
X54.878 Y16.314
X55.046 Y16.409
X55.245 Y16.543
X55.446 Y16.705
X55.671 Y16.917
X55.909 Y17.18
X56.166 Y17.516
X56.428 Y17.921
X56.714 Y18.452
X56.997 Y19.097
X57.231 Y19.762
X57.426 Y20.439
X57.591 Y21.124
X57.729 Y21.815
X57.846 Y22.51
X57.942 Y23.208
X58.019 Y23.908
X58.08 Y24.61
X58.123 Y25.313
X58.151 Y26.017
X58.163 Y26.722
X58.16 Y27.426
X58.142 Y28.131
X58.109 Y28.835
X58.061 Y29.537
X57.998 Y30.239
X57.921 Y30.94
X57.829 Y31.638
X57.723 Y32.335
X57.602 Y33.029
X57.467 Y33.72
X57.315 Y34.408
X57.145 Y35.092
X56.948 Y35.769
X56.807 Y36.139
X56.688 Y36.39
X56.643 Y36.468
X56.539 Y36.604
X56.403 Y36.708
X56.245 Y36.773
X56.075 Y36.796
X54.927
G3 X54.85 Y36.247 I0.01 J-0.281 F1000
G1 X54.91 Y36.228 Z-3.993
X54.966 Y36.21 Z-3.972
X55.017 Y36.193 Z-3.939
X55.059 Y36.179 Z-3.894
X55.091 Y36.169 Z-3.841
X55.111 Y36.163 Z-3.781
X55.118 Y36.16 Z-3.719
G0 Z5
X53.123 Y16.472
Z-3.438
G1 Z-3.719 F1000
X53.129 Y16.469 Z-3.781
X53.147 Y16.458 Z-3.841
X53.175 Y16.441 Z-3.894
X53.214 Y16.418 Z-3.939
X53.26 Y16.391 Z-3.972
X53.311 Y16.361 Z-3.993
X53.364 Y16.329 Z-4
G3 X54.118 Y16.107 I0.809 J1.36
G1 X55.238 F1400
X55.388 Y16.115
X55.536 Y16.139
X55.681 Y16.178
X55.829 Y16.232
X55.998 Y16.309
X56.166 Y16.404
X56.366 Y16.538
X56.561 Y16.693
X56.789 Y16.906
X57.019 Y17.157
X57.28 Y17.495
X57.535 Y17.886
X57.817 Y18.405
X58.103 Y19.049
X58.338 Y19.713
X58.534 Y20.39
X58.699 Y21.075
X58.837 Y21.766
X58.954 Y22.461
X59.05 Y23.159
X59.127 Y23.859
X59.188 Y24.561
X59.232 Y25.264
X59.26 Y25.968
X59.273 Y26.673
X59.271 Y27.377
X59.254 Y28.082
X59.223 Y28.786
X59.178 Y29.489
X59.118 Y30.191
X59.044 Y30.892
X58.957 Y31.591
X58.855 Y32.288
X58.738 Y32.983
X58.608 Y33.675
X58.461 Y34.364
X58.296 Y35.049
X58.105 Y35.727
X57.963 Y36.11
X57.844 Y36.369
X57.791 Y36.462
X57.687 Y36.6
X57.55 Y36.706
X57.391 Y36.773
X57.22 Y36.796
X56.075
G3 X55.998 Y36.247 I0.01 J-0.281 F1000
G1 X56.058 Y36.228 Z-3.993
X56.114 Y36.21 Z-3.972
X56.165 Y36.193 Z-3.939
X56.207 Y36.179 Z-3.894
X56.239 Y36.169 Z-3.841
X56.259 Y36.163 Z-3.781
X56.265 Y36.16 Z-3.719
G0 Z5
X54.243 Y16.472
Z-3.438
G1 Z-3.719 F1000
X54.249 Y16.469 Z-3.781
X54.267 Y16.458 Z-3.841
X54.296 Y16.441 Z-3.894
X54.334 Y16.418 Z-3.939
X54.38 Y16.391 Z-3.972
X54.431 Y16.361 Z-3.993
X54.485 Y16.329 Z-4
G3 X55.238 Y16.107 I0.809 J1.36
G1 X56.359 F1400
X56.509 Y16.115
X56.657 Y16.138
X56.802 Y16.176
X56.95 Y16.229
X57.117 Y16.305
X57.285 Y16.399
X57.484 Y16.531
X57.676 Y16.682
X57.905 Y16.894
X58.129 Y17.138
X58.392 Y17.475
X58.641 Y17.854
X58.921 Y18.363
X59.209 Y19.006
X59.446 Y19.669
X59.642 Y20.346
X59.807 Y21.031
X59.946 Y21.722
X60.062 Y22.417
X60.158 Y23.115
X60.236 Y23.815
X60.296 Y24.517
X60.34 Y25.22
X60.369 Y25.924
X60.383 Y26.629
X60.382 Y27.333
X60.367 Y28.038
X60.338 Y28.742
X60.295 Y29.445
X60.238 Y30.147
X60.167 Y30.848
X60.083 Y31.548
X59.984 Y32.245
X59.872 Y32.941
X59.746 Y33.634
X59.604 Y34.324
X59.444 Y35.01
X59.257 Y35.69
X59.116 Y36.084
X58.995 Y36.35
X58.936 Y36.457
X58.832 Y36.597
X58.695 Y36.705
X58.534 Y36.772
X58.362 Y36.796
X57.22
G3 X57.143 Y36.247 I0.01 J-0.281 F1000
G1 X57.202 Y36.228 Z-3.993
X57.259 Y36.21 Z-3.972
X57.309 Y36.193 Z-3.939
X57.352 Y36.179 Z-3.894
X57.384 Y36.169 Z-3.841
X57.403 Y36.163 Z-3.781
X57.41 Y36.16 Z-3.719
G0 Z5
X55.364 Y16.472
Z-3.438
G1 Z-3.719 F1000
X55.37 Y16.469 Z-3.781
X55.388 Y16.458 Z-3.841
X55.416 Y16.441 Z-3.894
X55.455 Y16.418 Z-3.939
X55.5 Y16.391 Z-3.972
X55.552 Y16.361 Z-3.993
X55.605 Y16.329 Z-4
G3 X56.359 Y16.107 I0.809 J1.36
G1 X57.479 F1400
X57.629 Y16.115
X57.777 Y16.137
X57.923 Y16.175
X58.071 Y16.227
X58.235 Y16.301
X58.404 Y16.394
X58.601 Y16.524
X58.792 Y16.674
X59.022 Y16.885
X59.241 Y17.122
X59.505 Y17.458
X59.75 Y17.827
X60.027 Y18.328
X60.315 Y18.965
X60.553 Y19.628
X60.751 Y20.305
X60.916 Y20.989
X61.055 Y21.68
X61.171 Y22.375
X61.267 Y23.073
X61.345 Y23.773
X61.405 Y24.475
X61.449 Y25.179
X61.478 Y25.883
X61.493 Y26.587
Y27.292
X61.48 Y27.996
X61.452 Y28.7
X61.411 Y29.404
X61.357 Y30.106
X61.289 Y30.807
X61.208 Y31.507
X61.113 Y32.205
X61.005 Y32.902
X60.883 Y33.596
X60.745 Y34.287
X60.59 Y34.974
X60.407 Y35.654
X60.265 Y36.059
X60.143 Y36.333
X60.078 Y36.453
X59.974 Y36.595
X59.837 Y36.704
X59.675 Y36.772
X59.502 Y36.796
X58.362
G3 X58.285 Y36.247 I0.01 J-0.281 F1000
G1 X58.344 Y36.228 Z-3.993
X58.401 Y36.21 Z-3.972
X58.452 Y36.193 Z-3.939
X58.494 Y36.179 Z-3.894
X58.526 Y36.169 Z-3.841
X58.546 Y36.163 Z-3.781
X58.552 Y36.16 Z-3.719
G0 Z5
X56.484 Y16.472
Z-3.438
G1 Z-3.719 F1000
X56.49 Y16.469 Z-3.781
X56.508 Y16.458 Z-3.841
X56.537 Y16.441 Z-3.894
X56.575 Y16.418 Z-3.939
X56.621 Y16.391 Z-3.972
X56.672 Y16.361 Z-3.993
X56.726 Y16.329 Z-4
G3 X57.479 Y16.107 I0.809 J1.36
G1 X58.6 F1400
X58.75 Y16.115
X58.898 Y16.137
X59.044 Y16.173
X59.192 Y16.226
X59.354 Y16.298
X59.524 Y16.391
X59.718 Y16.518
X59.909 Y16.667
X60.138 Y16.877
X60.354 Y17.11
X60.619 Y17.444
X60.86 Y17.806
X61.135 Y18.299
X61.421 Y18.928
X61.661 Y19.59
X61.859 Y20.266
X62.025 Y20.951
X62.164 Y21.642
X62.28 Y22.337
X62.376 Y23.035
X62.454 Y23.735
X62.514 Y24.437
X62.559 Y25.14
X62.588 Y25.844
X62.603 Y26.549
X62.605 Y27.253
X62.592 Y27.958
X62.566 Y28.662
X62.527 Y29.365
X62.475 Y30.068
X62.41 Y30.769
X62.332 Y31.47
X62.241 Y32.168
X62.136 Y32.865
X62.018 Y33.56
X61.884 Y34.252
X61.732 Y34.94
X61.554 Y35.621
X61.411 Y36.036
X61.289 Y36.317
X61.218 Y36.449
X61.115 Y36.592
X60.977 Y36.702
X60.815 Y36.772
X60.64 Y36.796
X59.502
G3 X59.425 Y36.247 I0.01 J-0.281 F1000
G1 X59.484 Y36.228 Z-3.993
X59.541 Y36.21 Z-3.972
X59.592 Y36.193 Z-3.939
X59.634 Y36.179 Z-3.894
X59.666 Y36.169 Z-3.841
X59.686 Y36.163 Z-3.781
X59.692 Y36.16 Z-3.719
G0 Z5
X57.605 Y16.472
Z-3.438
G1 Z-3.719 F1000
X57.611 Y16.469 Z-3.781
X57.629 Y16.458 Z-3.841
X57.657 Y16.441 Z-3.894
X57.696 Y16.418 Z-3.939
X57.741 Y16.391 Z-3.972
X57.792 Y16.361 Z-3.993
X57.846 Y16.329 Z-4
G3 X58.6 Y16.107 I0.809 J1.36
G1 X59.72 F1400
X59.87 Y16.115
X60.019 Y16.136
X60.164 Y16.173
X60.313 Y16.225
X60.473 Y16.296
X60.643 Y16.389
X60.835 Y16.514
X61.027 Y16.662
X61.254 Y16.87
X61.469 Y17.101
X61.732 Y17.431
X61.973 Y17.791
X62.245 Y18.278
X62.529 Y18.899
X62.771 Y19.561
X62.97 Y20.237
X63.136 Y20.922
X63.274 Y21.613
X63.39 Y22.308
X63.486 Y23.006
X63.563 Y23.706
X63.624 Y24.408
X63.669 Y25.111
X63.699 Y25.815
X63.714 Y26.52
X63.716 Y27.224
X63.705 Y27.929
X63.681 Y28.633
X63.643 Y29.336
X63.593 Y30.039
X63.53 Y30.741
X63.455 Y31.441
X63.366 Y32.14
X63.265 Y32.838
X63.15 Y33.533
X63.02 Y34.225
X62.872 Y34.914
X62.696 Y35.597
X62.554 Y36.019
X62.431 Y36.304
X62.356 Y36.446
X62.253 Y36.59
X62.115 Y36.701
X61.952 Y36.772
X61.776 Y36.796
X60.64
G3 X60.563 Y36.247 I0.01 J-0.281 F1000
G1 X60.622 Y36.228 Z-3.993
X60.679 Y36.21 Z-3.972
X60.73 Y36.193 Z-3.939
X60.772 Y36.179 Z-3.894
X60.804 Y36.169 Z-3.841
X60.824 Y36.163 Z-3.781
X60.83 Y36.16 Z-3.719
G0 Z5
X58.725 Y16.472
Z-3.438
G1 Z-3.719 F1000
X58.731 Y16.469 Z-3.781
X58.749 Y16.458 Z-3.841
X58.778 Y16.441 Z-3.894
X58.816 Y16.418 Z-3.939
X58.862 Y16.391 Z-3.972
X58.913 Y16.361 Z-3.993
X58.967 Y16.329 Z-4
G3 X59.72 Y16.107 I0.809 J1.36
G1 X60.841 F1400
X60.991 Y16.115
X61.139 Y16.136
X61.285 Y16.172
X61.434 Y16.224
X61.592 Y16.294
X61.763 Y16.387
X61.952 Y16.51
X62.145 Y16.659
X62.37 Y16.864
X62.586 Y17.095
X62.846 Y17.422
X63.087 Y17.781
X63.357 Y18.263
X63.64 Y18.879
X63.882 Y19.541
X64.082 Y20.217
X64.248 Y20.902
X64.386 Y21.593
X64.502 Y22.288
X64.597 Y22.986
X64.674 Y23.686
X64.735 Y24.388
X64.779 Y25.091
X64.809 Y25.795
X64.826 Y26.5
X64.828 Y27.204
X64.818 Y27.909
X64.795 Y28.613
X64.759 Y29.317
X64.71 Y30.02
X64.649 Y30.721
X64.576 Y31.422
X64.491 Y32.122
X64.392 Y32.819
X64.28 Y33.515
X64.153 Y34.208
X64.007 Y34.897
X63.835 Y35.58
X63.692 Y36.008
X63.57 Y36.296
X63.493 Y36.444
X63.389 Y36.589
X63.251 Y36.701
X63.088 Y36.771
X62.911 Y36.796
X61.776
G3 X61.699 Y36.247 I0.01 J-0.281 F1000
G1 X61.759 Y36.228 Z-3.993
X61.815 Y36.21 Z-3.972
X61.866 Y36.193 Z-3.939
X61.908 Y36.179 Z-3.894
X61.94 Y36.169 Z-3.841
X61.96 Y36.163 Z-3.781
X61.967 Y36.16 Z-3.719
G0 Z5
X59.845 Y16.472
Z-3.438
G1 Z-3.719 F1000
X59.852 Y16.469 Z-3.781
X59.869 Y16.458 Z-3.841
X59.898 Y16.441 Z-3.894
X59.936 Y16.418 Z-3.939
X59.982 Y16.391 Z-3.972
X60.033 Y16.361 Z-3.993
X60.087 Y16.329 Z-4
G3 X60.841 Y16.107 I0.809 J1.36
G1 X61.961 F1400
X62.111 Y16.115
X62.26 Y16.136
X62.405 Y16.172
X62.555 Y16.224
X62.712 Y16.294
X62.883 Y16.386
X63.071 Y16.509
X63.264 Y16.658
X63.487 Y16.861
X63.703 Y17.092
X63.961 Y17.416
X64.203 Y17.776
X64.472 Y18.255
X64.754 Y18.868
X64.996 Y19.529
X65.195 Y20.205
X65.361 Y20.89
X65.499 Y21.581
X65.614 Y22.276
X65.709 Y22.974
X65.786 Y23.675
X65.846 Y24.377
X65.891 Y25.08
X65.921 Y25.784
X65.937 Y26.488
X65.94 Y27.193
X65.931 Y27.897
X65.908 Y28.601
X65.874 Y29.305
X65.827 Y30.008
X65.768 Y30.71
X65.697 Y31.411
X65.613 Y32.111
X65.517 Y32.809
X65.408 Y33.505
X65.284 Y34.199
X65.14 Y34.888
X64.969 Y35.572
X64.828 Y36.002
X64.706 Y36.291
X64.627 Y36.442
X64.524 Y36.588
X64.386 Y36.7
X64.222 Y36.771
X64.045 Y36.796
X62.911
G3 X62.834 Y36.247 I0.01 J-0.281 F1000
G1 X62.894 Y36.228 Z-3.993
X62.95 Y36.21 Z-3.972
X63.001 Y36.193 Z-3.939
X63.044 Y36.179 Z-3.894
X63.075 Y36.169 Z-3.841
X63.095 Y36.163 Z-3.781
X63.102 Y36.16 Z-3.719
G0 Z5
X60.966 Y16.472
Z-3.438
G1 Z-3.719 F1000
X60.972 Y16.469 Z-3.781
X60.99 Y16.458 Z-3.841
X61.019 Y16.441 Z-3.894
X61.057 Y16.418 Z-3.939
X61.103 Y16.391 Z-3.972
X61.154 Y16.361 Z-3.993
X61.208 Y16.329 Z-4
G3 X61.961 Y16.107 I0.809 J1.36
G1 X63.082 F1400
X63.231 Y16.115
X63.38 Y16.136
X63.526 Y16.172
X63.676 Y16.224
X63.831 Y16.293
X64.003 Y16.386
X64.19 Y16.508
X64.383 Y16.658
X64.606 Y16.86
X64.822 Y17.092
X65.078 Y17.414
X65.321 Y17.775
X65.589 Y18.252
X65.869 Y18.863
X66.111 Y19.524
X66.31 Y20.2
X66.475 Y20.885
X66.613 Y21.576
X66.727 Y22.272
X66.822 Y22.97
X66.898 Y23.67
X66.958 Y24.372
X67.002 Y25.075
X67.033 Y25.779
X67.049 Y26.484
X67.053 Y27.188
X67.044 Y27.893
X67.022 Y28.597
X66.988 Y29.301
X66.943 Y30.004
X66.885 Y30.706
X66.816 Y31.407
X66.735 Y32.107
X66.641 Y32.806
X66.534 Y33.502
X66.412 Y34.196
X66.271 Y34.886
X66.101 Y35.57
X65.96 Y36
X65.839 Y36.288
X65.76 Y36.441
X65.657 Y36.587
X65.518 Y36.7
X65.355 Y36.771
X65.178 Y36.796
X64.045
G3 X63.968 Y36.247 I0.01 J-0.281 F1000
G1 X64.028 Y36.228 Z-3.993
X64.084 Y36.21 Z-3.972
X64.135 Y36.193 Z-3.939
X64.177 Y36.179 Z-3.894
X64.209 Y36.169 Z-3.841
X64.229 Y36.163 Z-3.781
X64.236 Y36.16 Z-3.719
G0 Z5
X62.086 Y16.472
Z-3.438
G1 Z-3.719 F1000
X62.092 Y16.469 Z-3.781
X62.11 Y16.458 Z-3.841
X62.139 Y16.441 Z-3.894
X62.177 Y16.418 Z-3.939
X62.223 Y16.391 Z-3.972
X62.274 Y16.361 Z-3.993
X62.328 Y16.329 Z-4
G3 X63.082 Y16.107 I0.809 J1.36
G1 X64.202 F1400
X64.352 Y16.115
X64.5 Y16.136
X64.646 Y16.172
X64.796 Y16.225
X64.951 Y16.294
X65.123 Y16.387
X65.31 Y16.509
X65.503 Y16.659
X65.725 Y16.861
X65.942 Y17.093
X66.197 Y17.414
X66.44 Y17.777
X66.707 Y18.253
X66.987 Y18.863
X67.228 Y19.525
X67.426 Y20.201
X67.591 Y20.886
X67.727 Y21.577
X67.841 Y22.273
X67.935 Y22.971
X68.011 Y23.672
X68.07 Y24.374
X68.115 Y25.077
X68.145 Y25.781
X68.161 Y26.485
X68.165 Y27.19
X68.156 Y27.894
X68.136 Y28.598
X68.103 Y29.302
X68.059 Y30.005
X68.003 Y30.708
X67.935 Y31.409
X67.856 Y32.109
X67.764 Y32.808
X67.659 Y33.505
X67.539 Y34.199
X67.399 Y34.889
X67.231 Y35.574
X67.091 Y36.002
X66.971 Y36.288
X66.892 Y36.441
X66.789 Y36.587
X66.65 Y36.7
X66.486 Y36.771
X66.309 Y36.796
X65.178
G3 X65.101 Y36.247 I0.01 J-0.281 F1000
G1 X65.16 Y36.228 Z-3.993
X65.217 Y36.21 Z-3.972
X65.267 Y36.193 Z-3.939
X65.31 Y36.179 Z-3.894
X65.342 Y36.169 Z-3.841
X65.361 Y36.163 Z-3.781
X65.368 Y36.16 Z-3.719
G0 Z5
X63.207 Y16.472
Z-3.438
G1 Z-3.719 F1000
X63.213 Y16.469 Z-3.781
X63.231 Y16.458 Z-3.841
X63.26 Y16.441 Z-3.894
X63.298 Y16.418 Z-3.939
X63.344 Y16.391 Z-3.972
X63.395 Y16.361 Z-3.993
X63.449 Y16.329 Z-4
G3 X64.202 Y16.107 I0.809 J1.36
G1 X65.323 F1400
X65.472 Y16.115
X65.621 Y16.136
X65.766 Y16.173
X65.917 Y16.226
X66.072 Y16.295
X66.243 Y16.388
X66.43 Y16.511
X66.624 Y16.661
X66.846 Y16.863
X67.062 Y17.096
X67.317 Y17.417
X67.56 Y17.781
X67.826 Y18.257
X68.105 Y18.868
X68.346 Y19.53
X68.543 Y20.206
X68.707 Y20.892
X68.843 Y21.583
X68.956 Y22.279
X69.049 Y22.977
X69.124 Y23.677
X69.183 Y24.38
X69.227 Y25.083
X69.257 Y25.787
X69.274 Y26.491
X69.278 Y27.196
X69.27 Y27.9
X69.249 Y28.605
X69.218 Y29.308
X69.174 Y30.012
X69.12 Y30.714
X69.054 Y31.416
X68.976 Y32.116
X68.886 Y32.815
X68.783 Y33.512
X68.664 Y34.206
X68.526 Y34.897
X68.358 Y35.581
X68.219 Y36.007
X68.1 Y36.29
X68.022 Y36.441
X67.919 Y36.587
X67.781 Y36.7
X67.617 Y36.771
X67.439 Y36.796
X66.309
G3 X66.232 Y36.247 I0.01 J-0.281 F1000
G1 X66.292 Y36.228 Z-3.993
X66.348 Y36.21 Z-3.972
X66.399 Y36.193 Z-3.939
X66.441 Y36.179 Z-3.894
X66.473 Y36.169 Z-3.841
X66.493 Y36.163 Z-3.781
X66.5 Y36.16 Z-3.719
G0 Z5
X64.327 Y16.472
Z-3.438
G1 Z-3.719 F1000
X64.333 Y16.469 Z-3.781
X64.351 Y16.458 Z-3.841
X64.38 Y16.441 Z-3.894
X64.418 Y16.418 Z-3.939
X64.464 Y16.391 Z-3.972
X64.515 Y16.361 Z-3.993
X64.569 Y16.329 Z-4
G3 X65.323 Y16.107 I0.809 J1.36
G1 X66.443 F1400
X66.593 Y16.115
X66.741 Y16.137
X66.887 Y16.173
X67.037 Y16.226
X67.192 Y16.296
X67.364 Y16.39
X67.551 Y16.513
X67.745 Y16.664
X67.967 Y16.867
X68.183 Y17.1
X68.438 Y17.422
X68.681 Y17.787
X68.946 Y18.264
X69.225 Y18.876
X69.464 Y19.539
X69.66 Y20.216
X69.823 Y20.901
X69.958 Y21.593
X70.07 Y22.288
X70.163 Y22.987
X70.237 Y23.687
X70.296 Y24.39
X70.34 Y25.093
X70.37 Y25.797
X70.387 Y26.501
X70.391 Y27.206
X70.383 Y27.91
X70.363 Y28.615
X70.332 Y29.318
X70.29 Y30.022
X70.236 Y30.724
X70.172 Y31.426
X70.095 Y32.126
X70.007 Y32.825
X69.905 Y33.523
X69.788 Y34.217
X69.651 Y34.908
X69.484 Y35.593
X69.346 Y36.013
X69.228 Y36.293
X69.152 Y36.441
X69.049 Y36.587
X68.91 Y36.7
X68.746 Y36.771
X68.569 Y36.796
X67.439
G3 X67.363 Y36.247 I0.01 J-0.281 F1000
G1 X67.422 Y36.228 Z-3.993
X67.479 Y36.21 Z-3.972
X67.529 Y36.193 Z-3.939
X67.572 Y36.179 Z-3.894
X67.604 Y36.169 Z-3.841
X67.623 Y36.163 Z-3.781
X67.63 Y36.16 Z-3.719
G0 Z5
X65.448 Y16.472
Z-3.438
G1 Z-3.719 F1000
X65.454 Y16.469 Z-3.781
X65.472 Y16.458 Z-3.841
X65.501 Y16.441 Z-3.894
X65.539 Y16.418 Z-3.939
X65.585 Y16.391 Z-3.972
X65.636 Y16.361 Z-3.993
X65.689 Y16.329 Z-4
G3 X66.443 Y16.107 I0.809 J1.36
G1 X67.563 F1400
X67.713 Y16.115
X67.862 Y16.137
X68.007 Y16.174
X68.157 Y16.227
X68.313 Y16.298
X68.485 Y16.392
X68.673 Y16.516
X68.866 Y16.667
X69.088 Y16.871
X69.305 Y17.106
X69.559 Y17.429
X69.802 Y17.795
X70.067 Y18.274
X70.345 Y18.888
X70.583 Y19.551
X70.779 Y20.228
X70.94 Y20.914
X71.074 Y21.606
X71.186 Y22.301
X71.277 Y23
X71.351 Y23.701
X71.409 Y24.403
X71.453 Y25.106
X71.483 Y25.81
X71.499 Y26.514
X71.504 Y27.219
X71.496 Y27.924
X71.477 Y28.628
X71.447 Y29.332
X71.405 Y30.035
X71.353 Y30.738
X71.289 Y31.439
X71.214 Y32.14
X71.127 Y32.839
X71.027 Y33.537
X70.911 Y34.232
X70.775 Y34.923
X70.608 Y35.608
X70.471 Y36.022
X70.355 Y36.298
X70.28 Y36.442
X70.177 Y36.588
X70.039 Y36.7
X69.875 Y36.771
X69.698 Y36.796
X68.569
G3 X68.492 Y36.247 I0.01 J-0.281 F1000
G1 X68.552 Y36.228 Z-3.993
X68.608 Y36.21 Z-3.972
X68.659 Y36.193 Z-3.939
X68.701 Y36.179 Z-3.894
X68.733 Y36.169 Z-3.841
X68.753 Y36.163 Z-3.781
X68.76 Y36.16 Z-3.719
G0 Z5
X66.568 Y16.472
Z-3.438
G1 Z-3.719 F1000
X66.574 Y16.469 Z-3.781
X66.592 Y16.458 Z-3.841
X66.621 Y16.441 Z-3.894
X66.659 Y16.418 Z-3.939
X66.705 Y16.391 Z-3.972
X66.756 Y16.361 Z-3.993
X66.81 Y16.329 Z-4
G3 X67.563 Y16.107 I0.809 J1.36
G1 X68.684 F1400
X68.834 Y16.115
X68.982 Y16.137
X69.127 Y16.175
X69.278 Y16.229
X69.434 Y16.299
X69.606 Y16.394
X69.794 Y16.519
X69.988 Y16.671
X70.21 Y16.877
X70.427 Y17.112
X70.681 Y17.437
X70.924 Y17.804
X71.189 Y18.286
X71.466 Y18.903
X71.703 Y19.566
X71.897 Y20.244
X72.057 Y20.93
X72.191 Y21.622
X72.301 Y22.317
X72.392 Y23.016
X72.465 Y23.717
X72.523 Y24.419
X72.566 Y25.122
X72.596 Y25.826
X72.613 Y26.531
X72.617 Y27.235
X72.61 Y27.94
X72.591 Y28.644
X72.561 Y29.348
X72.521 Y30.051
X72.469 Y30.754
X72.407 Y31.456
X72.333 Y32.157
X72.247 Y32.856
X72.148 Y33.554
X72.033 Y34.249
X71.897 Y34.94
X71.733 Y35.615
X71.598 Y36.025
X71.482 Y36.299
X71.408 Y36.442
X71.305 Y36.588
X71.167 Y36.7
X71.003 Y36.771
X70.826 Y36.796
X69.698
G3 X69.621 Y36.247 I0.01 J-0.281 F1000
G1 X69.681 Y36.228 Z-3.993
X69.737 Y36.21 Z-3.972
X69.788 Y36.193 Z-3.939
X69.83 Y36.179 Z-3.894
X69.862 Y36.169 Z-3.841
X69.882 Y36.163 Z-3.781
X69.889 Y36.16 Z-3.719
G0 Z5
X67.689 Y16.472
Z-3.438
G1 Z-3.719 F1000
X67.695 Y16.469 Z-3.781
X67.713 Y16.458 Z-3.841
X67.741 Y16.441 Z-3.894
X67.78 Y16.418 Z-3.939
X67.826 Y16.391 Z-3.972
X67.877 Y16.361 Z-3.993
X67.93 Y16.329 Z-4
G3 X68.684 Y16.107 I0.809 J1.36
G1 X69.804 F1400
X69.954 Y16.115
X70.102 Y16.138
X70.248 Y16.176
X70.398 Y16.23
X70.556 Y16.302
X70.727 Y16.397
X70.916 Y16.523
X71.109 Y16.676
X71.333 Y16.883
X71.549 Y17.119
X71.804 Y17.447
X72.046 Y17.815
X72.311 Y18.299
X72.588 Y18.919
X72.823 Y19.584
X73.016 Y20.261
X73.175 Y20.948
X73.307 Y21.64
X73.417 Y22.336
X73.507 Y23.035
X73.58 Y23.735
X73.637 Y24.438
X73.68 Y25.141
X73.709 Y25.845
X73.726 Y26.549
X73.73 Y27.254
X73.723 Y27.958
X73.705 Y28.663
X73.676 Y29.367
X73.636 Y30.07
X73.585 Y30.773
X73.524 Y31.475
X73.451 Y32.176
X73.366 Y32.875
X73.268 Y33.573
X73.154 Y34.268
X73.019 Y34.96
X72.857 Y35.624
X72.723 Y36.03
X72.609 Y36.302
X72.535 Y36.442
X72.432 Y36.588
X72.294 Y36.7
X72.13 Y36.771
X71.953 Y36.796
X70.826
G3 X70.749 Y36.247 I0.01 J-0.281 F1000
G1 X70.809 Y36.228 Z-3.993
X70.865 Y36.21 Z-3.972
X70.916 Y36.193 Z-3.939
X70.958 Y36.179 Z-3.894
X70.99 Y36.169 Z-3.841
X71.01 Y36.163 Z-3.781
X71.017 Y36.16 Z-3.719
G0 Z5
X68.809 Y16.472
Z-3.438
G1 Z-3.719 F1000
X68.815 Y16.469 Z-3.781
X68.833 Y16.458 Z-3.841
X68.862 Y16.441 Z-3.894
X68.9 Y16.418 Z-3.939
X68.946 Y16.391 Z-3.972
X68.997 Y16.361 Z-3.993
X69.051 Y16.329 Z-4
G3 X69.804 Y16.107 I0.809 J1.36
G1 X70.925 F1400
X71.075 Y16.115
X71.223 Y16.138
X71.368 Y16.176
X71.518 Y16.231
X71.677 Y16.304
X71.848 Y16.4
X72.038 Y16.527
X72.231 Y16.68
X72.455 Y16.89
X72.671 Y17.126
X72.927 Y17.457
X73.168 Y17.826
X73.433 Y18.314
X73.711 Y18.938
X73.944 Y19.603
X74.135 Y20.281
X74.293 Y20.968
X74.424 Y21.66
X74.533 Y22.356
X74.622 Y23.055
X74.694 Y23.756
X74.751 Y24.458
X74.794 Y25.162
X74.823 Y25.866
X74.839 Y26.57
X74.844 Y27.275
X74.837 Y27.979
X74.819 Y28.684
X74.79 Y29.388
X74.751 Y30.091
X74.701 Y30.794
X74.641 Y31.496
X74.569 Y32.197
X74.485 Y32.896
X74.388 Y33.594
X74.275 Y34.29
X74.14 Y34.981
X73.98 Y35.634
X73.847 Y36.036
X73.734 Y36.305
X73.662 Y36.443
X73.558 Y36.588
X73.42 Y36.701
X73.256 Y36.771
X73.08 Y36.796
X71.953
G3 X71.876 Y36.247 I0.01 J-0.281 F1000
G1 X71.936 Y36.228 Z-3.993
X71.992 Y36.21 Z-3.972
X72.043 Y36.193 Z-3.939
X72.085 Y36.179 Z-3.894
X72.117 Y36.169 Z-3.841
X72.137 Y36.163 Z-3.781
X72.144 Y36.16 Z-3.719
G0 Z5
X69.93 Y16.472
Z-3.438
G1 Z-3.719 F1000
X69.936 Y16.469 Z-3.781
X69.954 Y16.458 Z-3.841
X69.982 Y16.441 Z-3.894
X70.021 Y16.418 Z-3.939
X70.066 Y16.391 Z-3.972
X70.118 Y16.361 Z-3.993
X70.171 Y16.329 Z-4
G3 X70.925 Y16.107 I0.809 J1.36
G1 X72.045 F1400
X72.195 Y16.115
X72.343 Y16.139
X72.488 Y16.178
X72.638 Y16.233
X72.798 Y16.307
X72.969 Y16.403
X73.161 Y16.532
X73.353 Y16.686
X73.578 Y16.897
X73.793 Y17.134
X74.051 Y17.469
X74.291 Y17.839
X74.556 Y18.33
X74.834 Y18.959
X75.065 Y19.624
X75.255 Y20.303
X75.411 Y20.99
X75.541 Y21.682
X75.649 Y22.379
X75.738 Y23.078
X75.809 Y23.779
X75.865 Y24.481
X75.908 Y25.184
X75.936 Y25.888
X75.953 Y26.593
X75.957 Y27.297
X75.951 Y28.002
X75.933 Y28.706
X75.905 Y29.41
X75.866 Y30.114
X75.817 Y30.816
X75.757 Y31.519
X75.686 Y32.22
X75.604 Y32.919
X75.507 Y33.617
X75.394 Y34.313
X75.26 Y35.004
X75.102 Y35.646
X74.97 Y36.043
X74.858 Y36.308
X74.787 Y36.443
X74.684 Y36.589
X74.546 Y36.701
X74.382 Y36.771
X74.206 Y36.796
X73.08
G3 X73.003 Y36.247 I0.01 J-0.281 F1000
G1 X73.062 Y36.228 Z-3.993
X73.119 Y36.21 Z-3.972
X73.17 Y36.193 Z-3.939
X73.212 Y36.179 Z-3.894
X73.244 Y36.169 Z-3.841
X73.264 Y36.163 Z-3.781
X73.27 Y36.16 Z-3.719
G0 Z5
X71.05 Y16.472
Z-3.438
G1 Z-3.719 F1000
X71.056 Y16.469 Z-3.781
X71.074 Y16.458 Z-3.841
X71.103 Y16.441 Z-3.894
X71.141 Y16.418 Z-3.939
X71.187 Y16.391 Z-3.972
X71.238 Y16.361 Z-3.993
X71.292 Y16.329 Z-4
G3 X72.045 Y16.107 I0.809 J1.36
G1 X73.166 F1400
X73.316 Y16.115
X73.464 Y16.14
X73.608 Y16.179
X73.758 Y16.234
X73.92 Y16.309
X74.091 Y16.406
X74.283 Y16.537
X74.475 Y16.691
X74.701 Y16.905
X74.916 Y17.143
X75.175 Y17.481
X75.414 Y17.852
X75.68 Y18.347
X75.957 Y18.981
X76.186 Y19.647
X76.374 Y20.326
X76.53 Y21.013
X76.659 Y21.706
X76.766 Y22.402
X76.853 Y23.101
X76.924 Y23.802
X76.98 Y24.505
X77.022 Y25.208
X77.05 Y25.912
X77.067 Y26.617
X77.071 Y27.321
X77.065 Y28.026
X77.047 Y28.73
X77.02 Y29.434
X76.982 Y30.138
X76.933 Y30.841
X76.874 Y31.543
X76.804 Y32.244
X76.722 Y32.944
X76.626 Y33.642
X76.514 Y34.337
X76.379 Y35.029
X76.223 Y35.659
X76.093 Y36.05
X75.981 Y36.312
X75.912 Y36.444
X75.809 Y36.589
X75.671 Y36.701
X75.507 Y36.771
X75.331 Y36.796
X74.206
G3 X74.129 Y36.247 I0.01 J-0.281 F1000
G1 X74.188 Y36.228 Z-3.993
X74.245 Y36.21 Z-3.972
X74.296 Y36.193 Z-3.939
X74.338 Y36.179 Z-3.894
X74.37 Y36.169 Z-3.841
X74.39 Y36.163 Z-3.781
X74.396 Y36.16 Z-3.719
G0 Z5
X72.171 Y16.472
Z-3.438
G1 Z-3.719 F1000
X72.177 Y16.469 Z-3.781
X72.194 Y16.458 Z-3.841
X72.223 Y16.441 Z-3.894
X72.262 Y16.418 Z-3.939
X72.307 Y16.391 Z-3.972
X72.358 Y16.361 Z-3.993
X72.412 Y16.329 Z-4
G3 X73.166 Y16.107 I0.809 J1.36
G1 X74.286 F1400
X74.436 Y16.115
X74.584 Y16.14
X74.729 Y16.18
X74.878 Y16.236
X75.041 Y16.312
X75.212 Y16.41
X75.405 Y16.542
X75.597 Y16.697
X75.824 Y16.913
X76.039 Y17.152
X76.298 Y17.493
X76.537 Y17.866
X76.803 Y18.365
X77.08 Y19.004
X77.308 Y19.671
X77.494 Y20.35
X77.648 Y21.038
X77.776 Y21.731
X77.882 Y22.427
X77.969 Y23.127
X78.039 Y23.828
X78.094 Y24.53
X78.136 Y25.233
X78.164 Y25.937
X78.18 Y26.642
X78.185 Y27.346
X78.179 Y28.051
X78.162 Y28.755
X78.134 Y29.459
X78.097 Y30.163
X78.049 Y30.866
X77.991 Y31.568
X77.921 Y32.269
X77.84 Y32.969
X77.744 Y33.667
X77.632 Y34.363
X77.497 Y35.054
X77.344 Y35.672
X77.215 Y36.058
X77.104 Y36.317
X77.037 Y36.445
X76.933 Y36.59
X76.795 Y36.701
X76.632 Y36.772
X76.456 Y36.796
X75.331
G3 X75.254 Y36.247 I0.01 J-0.281 F1000
G1 X75.314 Y36.228 Z-3.993
X75.37 Y36.21 Z-3.972
X75.421 Y36.193 Z-3.939
X75.463 Y36.179 Z-3.894
X75.495 Y36.169 Z-3.841
X75.515 Y36.163 Z-3.781
X75.522 Y36.16 Z-3.719
G0 Z5
X73.291 Y16.472
Z-3.438
G1 Z-3.719 F1000
X73.297 Y16.469 Z-3.781
X73.315 Y16.458 Z-3.841
X73.344 Y16.441 Z-3.894
X73.382 Y16.418 Z-3.939
X73.428 Y16.391 Z-3.972
X73.479 Y16.361 Z-3.993
X73.533 Y16.329 Z-4
G3 X74.286 Y16.107 I0.809 J1.36
G1 X75.407 F1400
X75.557 Y16.115
X75.704 Y16.141
X75.849 Y16.181
X75.998 Y16.237
X76.163 Y16.315
X76.333 Y16.413
X76.528 Y16.547
X76.719 Y16.703
X76.947 Y16.92
X77.162 Y17.162
X77.422 Y17.506
X77.66 Y17.88
X77.927 Y18.384
X78.204 Y19.028
X78.429 Y19.696
X78.614 Y20.376
X78.767 Y21.064
X78.894 Y21.757
X78.999 Y22.453
X79.085 Y23.153
X79.154 Y23.854
X79.209 Y24.556
X79.25 Y25.26
X79.278 Y25.964
X79.294 Y26.668
X79.299 Y27.373
X79.293 Y28.077
X79.276 Y28.782
X79.249 Y29.486
X79.212 Y30.189
X79.165 Y30.892
X79.107 Y31.595
X79.038 Y32.296
X78.957 Y32.996
X78.862 Y33.694
X78.75 Y34.389
X78.615 Y35.081
X78.464 Y35.686
X78.336 Y36.066
X78.226 Y36.322
X78.161 Y36.446
X78.057 Y36.59
X77.919 Y36.701
X77.756 Y36.772
X77.58 Y36.796
X76.456
G3 X76.379 Y36.247 I0.01 J-0.281 F1000
G1 X76.439 Y36.228 Z-3.993
X76.495 Y36.21 Z-3.972
X76.546 Y36.193 Z-3.939
X76.588 Y36.179 Z-3.894
X76.62 Y36.169 Z-3.841
X76.64 Y36.163 Z-3.781
X76.646 Y36.16 Z-3.719
G0 Z5
X74.411 Y16.472
Z-3.438
G1 Z-3.719 F1000
X74.418 Y16.469 Z-3.781
X74.435 Y16.458 Z-3.841
X74.464 Y16.441 Z-3.894
X74.502 Y16.418 Z-3.939
X74.548 Y16.391 Z-3.972
X74.599 Y16.361 Z-3.993
X74.653 Y16.329 Z-4
G3 X75.407 Y16.107 I0.809 J1.36
G1 X76.527 F1400
X76.677 Y16.115
X76.825 Y16.141
X76.969 Y16.182
X77.118 Y16.239
X77.284 Y16.318
X77.454 Y16.417
X77.65 Y16.552
X77.841 Y16.709
X78.07 Y16.928
X78.285 Y17.171
X78.546 Y17.519
X78.784 Y17.896
X79.051 Y18.404
X79.327 Y19.052
X79.55 Y19.72
X79.734 Y20.401
X79.885 Y21.089
X80.011 Y21.782
X80.115 Y22.479
X80.201 Y23.178
X80.27 Y23.879
X80.324 Y24.582
X80.365 Y25.285
X80.393 Y25.989
X80.409 Y26.694
X80.413 Y27.398
X80.407 Y28.103
X80.391 Y28.807
X80.364 Y29.511
X80.327 Y30.215
X80.281 Y30.918
X80.223 Y31.62
X80.155 Y32.322
X80.075 Y33.022
X79.98 Y33.72
X79.868 Y34.415
X79.733 Y35.107
X79.584 Y35.7
X79.457 Y36.074
X79.348 Y36.327
X79.284 Y36.447
X79.181 Y36.591
X79.043 Y36.702
X78.88 Y36.772
X78.704 Y36.796
X77.58
G3 X77.503 Y36.247 I0.01 J-0.281 F1000
G1 X77.563 Y36.228 Z-3.993
X77.62 Y36.21 Z-3.972
X77.67 Y36.193 Z-3.939
X77.713 Y36.179 Z-3.894
X77.744 Y36.169 Z-3.841
X77.764 Y36.163 Z-3.781
X77.771 Y36.16 Z-3.719
G0 Z5
X75.532 Y16.472
Z-3.438
G1 Z-3.719 F1000
X75.538 Y16.469 Z-3.781
X75.556 Y16.458 Z-3.841
X75.585 Y16.441 Z-3.894
X75.623 Y16.418 Z-3.939
X75.669 Y16.391 Z-3.972
X75.72 Y16.361 Z-3.993
X75.774 Y16.329 Z-4
G3 X76.527 Y16.107 I0.809 J1.36
G1 X77.648 F1400
X77.797 Y16.115
X77.945 Y16.142
X78.089 Y16.183
X78.238 Y16.241
X78.406 Y16.321
X78.576 Y16.42
X78.773 Y16.558
X78.964 Y16.715
X79.193 Y16.937
X79.408 Y17.182
X79.67 Y17.532
X79.908 Y17.912
X80.175 Y18.425
X80.449 Y19.074
X80.671 Y19.742
X80.853 Y20.423
X81.003 Y21.111
X81.128 Y21.805
X81.231 Y22.502
X81.316 Y23.201
X81.385 Y23.902
X81.439 Y24.605
X81.479 Y25.308
X81.507 Y26.012
X81.523 Y26.717
X81.527 Y27.421
X81.522 Y28.126
X81.505 Y28.83
X81.479 Y29.534
X81.443 Y30.238
X81.397 Y30.941
X81.34 Y31.643
X81.272 Y32.345
X81.193 Y33.045
X81.098 Y33.743
X80.987 Y34.439
X80.851 Y35.13
X80.703 Y35.713
X80.578 Y36.081
X80.469 Y36.331
X80.407 Y36.448
X80.304 Y36.591
X80.166 Y36.702
X80.003 Y36.772
X79.828 Y36.796
X78.704
G3 X78.628 Y36.247 I0.01 J-0.281 F1000
G1 X78.687 Y36.228 Z-3.993
X78.744 Y36.21 Z-3.972
X78.794 Y36.193 Z-3.939
X78.837 Y36.179 Z-3.894
X78.869 Y36.169 Z-3.841
X78.888 Y36.163 Z-3.781
X78.895 Y36.16 Z-3.719
G0 Z5
X76.652 Y16.472
Z-3.438
G1 Z-3.719 F1000
X76.658 Y16.469 Z-3.781
X76.676 Y16.458 Z-3.841
X76.705 Y16.441 Z-3.894
X76.743 Y16.418 Z-3.939
X76.789 Y16.391 Z-3.972
X76.84 Y16.361 Z-3.993
X76.894 Y16.329 Z-4
G3 X77.648 Y16.107 I0.809 J1.36
G1 X78.768 F1400
X78.918 Y16.115
X79.065 Y16.143
X79.209 Y16.184
X79.358 Y16.242
X79.527 Y16.324
X79.697 Y16.424
X79.895 Y16.563
X80.086 Y16.721
X80.315 Y16.945
X80.531 Y17.193
X80.793 Y17.545
X81.031 Y17.928
X81.299 Y18.446
X81.571 Y19.096
X81.791 Y19.765
X81.822 Y19.882
X81.834 Y19.938
X81.842 Y19.994
X81.844 Y20.05
G3 X81.34 Y20.211 I-0.281 J-0.01 F1000
G1 X81.282 Y20.136
X78.658 Y16.694 F1400
X78.554 Y16.559 F1000
G3 X78.768 Y16.107 I0.224 J-0.171
G1 X79.889 F1400
X80.038 Y16.115
X80.186 Y16.143
X80.329 Y16.186
X80.478 Y16.244
X80.649 Y16.327
X80.818 Y16.428
X81.017 Y16.568
X81.208 Y16.728
X81.437 Y16.952
X81.655 Y17.204
X81.717 Y17.287
X81.786 Y17.407
X81.83 Y17.539
X81.844 Y17.676
G3 X81.392 Y17.889 I-0.281 J-0.01 F1000
G1 X81.257 Y17.786
X79.803 Y16.67 F1400
X79.727 Y16.611 F1000
G3 X79.889 Y16.107 I0.171 J-0.223
G1 X81.009 F1400
X81.159 Y16.115
X81.306 Y16.144
X81.376 Y16.165
X81.564 Y16.256
X81.714 Y16.402
X81.811 Y16.587
X81.844 Y16.794
G3 X81.398 Y17.011 I-0.281 J-0.01 F1000
G1 X81.255 Y16.907
X80.925 Y16.668 F1400
X80.854 Y16.616 F1000
G3 X81.009 Y16.107 I0.165 J-0.227
G1 X81.569 Y16.108 F1400
X81.609 Y16.113
X81.649 Y16.125
X81.689 Y16.143
X81.729 Y16.17
X81.755 Y16.194
X81.776 Y16.219
X81.794 Y16.243
X81.809 Y16.267
X81.824 Y16.299
X81.835 Y16.33
X81.842 Y16.37
X81.844 Y16.41
Y34.57
X81.817 Y35.107
X81.766 Y35.5
X81.692 Y35.843
X81.609 Y36.121
X81.528 Y36.329
X81.481 Y36.426
X81.379 Y36.578
X81.239 Y36.696
X81.072 Y36.77
X80.891 Y36.796
G3 X80.635 Y36.424 I0.01 J-0.281 F1000
G1 X80.719 Y36.177
X81.296 Y34.493 F1400
X81.297 Y34.489 F1000
G3 X81.844 Y34.57 I0.266 J0.091
G1 Y36.418 F1400
Y36.49
X81.843 Y36.527
X81.837 Y36.563
X81.826 Y36.6
X81.809 Y36.637
X81.802 Y36.65
X81.769 Y36.693
X81.748 Y36.716
X81.726 Y36.735
X81.687 Y36.761
X81.649 Y36.778
X81.609 Y36.79
X81.569 Y36.795
X80.689 Y36.796
X79.828
G3 X79.566 Y36.443 I0.01 J-0.281 F1000
G1 X79.592 Y36.399 Z-3.995
X79.616 Y36.356 Z-3.981
X79.639 Y36.316 Z-3.957
X79.677 Y36.292 Z-3.923
X79.709 Y36.273 Z-3.879
X79.732 Y36.259 Z-3.83
X79.746 Y36.25 Z-3.776
X79.751 Y36.247 Z-3.719
G0 Z5
X99.063 Y17.622
Z2.5
G3 X97.936 Y20.044 Z2.353 I-0.563 J1.211 F333.3
X99.063 Y17.622 Z2.207 I0.563 J-1.211
X97.936 Y20.044 Z2.06 I-0.563 J1.211
X99.063 Y17.622 Z1.914 I0.563 J-1.211
X97.936 Y20.044 Z1.767 I-0.563 J1.211
X99.063 Y17.622 Z1.621 I0.563 J-1.211
X97.936 Y20.044 Z1.474 I-0.563 J1.211
X99.063 Y17.622 Z1.328 I0.563 J-1.211
X97.936 Y20.044 Z1.181 I-0.563 J1.211
X99.063 Y17.622 Z1.035 I0.563 J-1.211
X97.936 Y20.044 Z0.888 I-0.563 J1.211
X99.063 Y17.622 Z0.742 I0.563 J-1.211
X97.936 Y20.044 Z0.595 I-0.563 J1.211
X99.063 Y17.622 Z0.449 I0.563 J-1.211
X97.936 Y20.044 Z0.302 I-0.563 J1.211
X99.063 Y17.622 Z0.156 I0.563 J-1.211
X97.936 Y20.044 Z0.009 I-0.563 J1.211
X99.063 Y17.622 Z-0.137 I0.563 J-1.211
X97.936 Y20.044 Z-0.284 I-0.563 J1.211
X99.063 Y17.622 Z-0.43 I0.563 J-1.211
X97.936 Y20.044 Z-0.577 I-0.563 J1.211
X99.063 Y17.622 Z-0.724 I0.563 J-1.211
X97.936 Y20.044 Z-0.87 I-0.563 J1.211
X99.063 Y17.622 Z-1.017 I0.563 J-1.211
X97.936 Y20.044 Z-1.163 I-0.563 J1.211
X99.063 Y17.622 Z-1.31 I0.563 J-1.211
X97.936 Y20.044 Z-1.456 I-0.563 J1.211
X99.063 Y17.622 Z-1.603 I0.563 J-1.211
X97.936 Y20.044 Z-1.749 I-0.563 J1.211
X99.063 Y17.622 Z-1.896 I0.563 J-1.211
X97.936 Y20.044 Z-2.042 I-0.563 J1.211
X99.063 Y17.622 Z-2.189 I0.563 J-1.211
X97.936 Y20.044 Z-2.335 I-0.563 J1.211
X99.063 Y17.622 Z-2.482 I0.563 J-1.211
X97.936 Y20.044 Z-2.628 I-0.563 J1.211
X99.063 Y17.622 Z-2.775 I0.563 J-1.211
X97.936 Y20.044 Z-2.921 I-0.563 J1.211
X99.063 Y17.622 Z-3.068 I0.563 J-1.211
X97.936 Y20.044 Z-3.214 I-0.563 J1.211
X99.063 Y17.622 Z-3.361 I0.563 J-1.211
X97.936 Y20.044 Z-3.507 I-0.563 J1.211
X99.063 Y17.622 Z-3.654 I0.563 J-1.211
X97.936 Y20.044 Z-3.801 I-0.563 J1.211
X99.063 Y17.622 Z-3.947 I0.563 J-1.211
X99.835 Y18.833 Z-4 I-0.563 J1.211
X97.164 I-1.336
X99.835 I1.336
G1 X99.866 Y19.537 F1400
X99.879 Y19.624
X99.882 Y19.774
X99.855 Y19.922
X99.806 Y20.063
X99.737 Y20.197
X99.651 Y20.32
X99.552 Y20.432
X99.441 Y20.533
X99.32 Y20.622
X99.191 Y20.698
X99.055 Y20.762
X98.914 Y20.813
X98.769 Y20.852
X98.621 Y20.879
X98.472 Y20.892
X98.322 Y20.894
X98.17 Y20.884
X98.017 Y20.861
X97.864 Y20.825
X97.713 Y20.777
X97.566 Y20.716
X97.422 Y20.642
X97.283 Y20.557
X97.151 Y20.461
X97.027 Y20.353
X96.911 Y20.235
X96.804 Y20.108
X96.707 Y19.972
X96.621 Y19.828
X96.547 Y19.677
X96.485 Y19.521
X96.436 Y19.359
X96.399 Y19.194
X96.376 Y19.026
X96.367 Y18.856
X96.371 Y18.686
X96.389 Y18.517
X96.421 Y18.349
X96.465 Y18.184
X96.523 Y18.024
X96.594 Y17.868
X96.677 Y17.718
X96.772 Y17.576
X96.878 Y17.442
X96.995 Y17.316
X97.121 Y17.2
X97.256 Y17.095
X97.399 Y17.001
X97.55 Y16.918
X97.706 Y16.848
X97.868 Y16.791
X98.034 Y16.746
X98.203 Y16.716
X98.373 Y16.699
X98.545 Y16.695
X98.716 Y16.706
X98.886 Y16.73
X99.054 Y16.768
X99.218 Y16.819
X99.377 Y16.883
X99.531 Y16.959
X99.678 Y17.048
X99.817 Y17.148
X99.948 Y17.26
X100.07 Y17.381
X100.181 Y17.511
X100.282 Y17.651
X100.377 Y17.807
X100.48 Y18.012
X100.601 Y18.311
X100.7 Y18.628
X100.757 Y18.877
X100.79 Y19.099
X100.803 Y19.313
X100.8 Y19.514
X100.782 Y19.702
X100.749 Y19.887
X100.701 Y20.069
X100.639 Y20.243
X100.566 Y20.409
X100.478 Y20.57
X100.376 Y20.725
X100.261 Y20.875
X100.133 Y21.015
X99.993 Y21.145
X99.842 Y21.265
X99.68 Y21.374
X99.506 Y21.47
X99.323 Y21.554
X99.131 Y21.625
X98.93 Y21.68
X98.723 Y21.719
X98.511 Y21.742
X98.294 Y21.748
X98.076 Y21.737
X97.857 Y21.707
X97.639 Y21.66
X97.424 Y21.595
X97.213 Y21.512
X97.008 Y21.412
X96.81 Y21.295
X96.621 Y21.162
X96.443 Y21.013
X96.276 Y20.849
X96.122 Y20.672
X95.982 Y20.482
X95.858 Y20.281
X95.75 Y20.069
X95.658 Y19.849
X95.585 Y19.622
X95.53 Y19.389
X95.493 Y19.152
X95.476 Y18.912
X95.478 Y18.671
X95.499 Y18.431
X95.54 Y18.193
X95.6 Y17.958
X95.678 Y17.729
X95.775 Y17.507
X95.889 Y17.293
X96.02 Y17.089
X96.167 Y16.896
X96.329 Y16.715
X96.506 Y16.548
X96.695 Y16.395
X96.896 Y16.258
X97.107 Y16.138
X97.328 Y16.035
X97.556 Y15.95
X97.79 Y15.883
X98.029 Y15.836
X98.271 Y15.807
X98.514 Y15.799
X98.757 Y15.809
X98.999 Y15.84
X99.238 Y15.889
X99.471 Y15.958
X99.699 Y16.045
X99.919 Y16.15
X100.13 Y16.273
X100.33 Y16.412
X100.52 Y16.568
X100.705 Y16.746
X100.893 Y16.959
X101.072 Y17.199
X101.238 Y17.462
X101.384 Y17.741
X101.506 Y18.028
X101.602 Y18.318
X101.673 Y18.605
X101.719 Y18.889
X101.741 Y19.17
Y19.448
X101.719 Y19.721
X101.676 Y19.987
X101.612 Y20.248
X101.528 Y20.501
X101.424 Y20.746
X101.3 Y20.982
X101.158 Y21.207
X100.999 Y21.42
X100.821 Y21.621
X100.628 Y21.808
X100.418 Y21.979
X100.194 Y22.135
X99.955 Y22.274
X99.705 Y22.393
X99.443 Y22.494
X99.171 Y22.573
X98.892 Y22.631
X98.606 Y22.667
X98.316 Y22.68
X98.024 Y22.669
X97.732 Y22.635
X97.441 Y22.577
X97.154 Y22.496
X96.873 Y22.39
X96.599 Y22.262
X96.336 Y22.112
X96.083 Y21.94
X95.845 Y21.747
X95.621 Y21.535
X95.414 Y21.305
X95.226 Y21.058
X95.058 Y20.796
X94.911 Y20.52
X94.786 Y20.232
X94.684 Y19.935
X94.606 Y19.629
X94.553 Y19.318
X94.525 Y19.003
X94.523 Y18.686
X94.546 Y18.369
X94.594 Y18.055
X94.667 Y17.746
X94.766 Y17.443
X94.888 Y17.149
X95.033 Y16.865
X95.201 Y16.594
X95.39 Y16.337
X95.6 Y16.095
X95.828 Y15.872
X96.074 Y15.667
X96.335 Y15.482
X96.61 Y15.32
X96.898 Y15.179
X97.196 Y15.062
X97.502 Y14.97
X97.815 Y14.902
X98.133 Y14.86
X98.453 Y14.843
X98.773 Y14.852
X99.091 Y14.886
X99.406 Y14.946
X99.715 Y15.032
X100.016 Y15.141
X100.308 Y15.275
X100.591 Y15.433
X100.867 Y15.619
X101.137 Y15.832
X101.396 Y16.074
X101.641 Y16.343
X101.868 Y16.636
X102.072 Y16.949
X102.251 Y17.277
X102.402 Y17.617
X102.525 Y17.966
X102.559 Y18.098
X102.566 Y18.127
X102.572 Y18.156
X102.576 Y18.185
X102.652 Y18.81
Y18.85
X102.648 Y18.89
X102.541 Y19.77
X102.535 Y19.81
X102.525 Y19.85
X102.404 Y20.17
X102.192 Y20.73
X102.172 Y20.77
X102.147 Y20.81
X101.626 Y21.565
X101.585 Y21.61
X101.177 Y21.972
X101.017 Y22.114
X100.857 Y22.252
X100.697 Y22.339
X100.057 Y22.675
X99.991 Y22.708
X99.958 Y22.721
X99.897 Y22.737
X99.096 Y22.935
X99.016 Y22.953
X98.936 Y22.958
X98.056
X98.016 Y22.957
X97.976 Y22.952
X97.074 Y22.73
X97.016 Y22.711
X96.855 Y22.629
X96.215 Y22.293
X96.141 Y22.25
X96.055 Y22.178
X95.414 Y21.61
X95.395 Y21.59
X95.378 Y21.57
X95.35 Y21.53
X94.853 Y20.81
X94.827 Y20.77
X94.808 Y20.73
X94.475 Y19.85
X94.462 Y19.793
X94.352 Y18.89
X94.348 Y18.85
Y18.81
X94.455 Y17.93
X94.466 Y17.85
X94.492 Y17.77
X94.81 Y16.93
X94.831 Y16.89
X94.884 Y16.81
X95.366 Y16.113
X95.387 Y16.084
X95.415 Y16.056
X96.055 Y15.489
X96.135 Y15.421
X96.222 Y15.37
X96.855 Y15.038
X97.016 Y14.956
X97.176 Y14.911
X97.91 Y14.73
X97.976 Y14.715
X98.136 Y14.708
X98.936
X99.013 Y14.713
X99.096 Y14.732
X99.897 Y14.929
X99.977 Y14.952
X100.057 Y14.992
X100.778 Y15.37
X100.857 Y15.414
X101.017 Y15.553
X101.534 Y16.01
X101.607 Y16.079
X101.657 Y16.147
X102.138 Y16.842
X102.178 Y16.906
X102.205 Y16.97
X102.508 Y17.77
X102.534 Y17.85
X102.545 Y17.93
X102.576 Y18.185
G3 X102.258 Y18.488 I-0.28 J0.024 F1000
G1 X102.211 Y18.468 Z-3.995
X102.165 Y18.449 Z-3.981
X102.123 Y18.431 Z-3.957
X102.095 Y18.396 Z-3.923
X102.072 Y18.367 Z-3.879
X102.055 Y18.346 Z-3.83
X102.045 Y18.332 Z-3.776
X102.041 Y18.328 Z-3.719
G0 Z5
X99.063 Y36.457
Z2.5
G3 X97.936 Y38.878 Z2.353 I-0.563 J1.211 F333.3
X99.063 Y36.457 Z2.207 I0.563 J-1.211
X97.936 Y38.878 Z2.06 I-0.563 J1.211
X99.063 Y36.457 Z1.914 I0.563 J-1.211
X97.936 Y38.878 Z1.767 I-0.563 J1.211
X99.063 Y36.457 Z1.621 I0.563 J-1.211
X97.936 Y38.878 Z1.474 I-0.563 J1.211
X99.063 Y36.457 Z1.328 I0.563 J-1.211
X97.936 Y38.878 Z1.181 I-0.563 J1.211
X99.063 Y36.457 Z1.035 I0.563 J-1.211
X97.936 Y38.878 Z0.888 I-0.563 J1.211
X99.063 Y36.457 Z0.742 I0.563 J-1.211
X97.936 Y38.878 Z0.595 I-0.563 J1.211
X99.063 Y36.457 Z0.449 I0.563 J-1.211
X97.936 Y38.878 Z0.302 I-0.563 J1.211
X99.063 Y36.457 Z0.156 I0.563 J-1.211
X97.936 Y38.878 Z0.009 I-0.563 J1.211
X99.063 Y36.457 Z-0.137 I0.563 J-1.211
X97.936 Y38.878 Z-0.284 I-0.563 J1.211
X99.063 Y36.457 Z-0.43 I0.563 J-1.211
X97.936 Y38.878 Z-0.577 I-0.563 J1.211
X99.063 Y36.457 Z-0.724 I0.563 J-1.211
X97.936 Y38.878 Z-0.87 I-0.563 J1.211
X99.063 Y36.457 Z-1.017 I0.563 J-1.211
X97.936 Y38.878 Z-1.163 I-0.563 J1.211
X99.063 Y36.457 Z-1.31 I0.563 J-1.211
X97.936 Y38.878 Z-1.456 I-0.563 J1.211
X99.063 Y36.457 Z-1.603 I0.563 J-1.211
X97.936 Y38.878 Z-1.749 I-0.563 J1.211
X99.063 Y36.457 Z-1.896 I0.563 J-1.211
X97.936 Y38.878 Z-2.042 I-0.563 J1.211
X99.063 Y36.457 Z-2.189 I0.563 J-1.211
X97.936 Y38.878 Z-2.335 I-0.563 J1.211
X99.063 Y36.457 Z-2.482 I0.563 J-1.211
X97.936 Y38.878 Z-2.628 I-0.563 J1.211
X99.063 Y36.457 Z-2.775 I0.563 J-1.211
X97.936 Y38.878 Z-2.921 I-0.563 J1.211
X99.063 Y36.457 Z-3.068 I0.563 J-1.211
X97.936 Y38.878 Z-3.214 I-0.563 J1.211
X99.063 Y36.457 Z-3.361 I0.563 J-1.211
X97.936 Y38.878 Z-3.507 I-0.563 J1.211
X99.063 Y36.457 Z-3.654 I0.563 J-1.211
X97.936 Y38.878 Z-3.801 I-0.563 J1.211
X99.063 Y36.457 Z-3.947 I0.563 J-1.211
X99.835 Y37.667 Z-4 I-0.563 J1.211
X97.164 I-1.336
X99.835 I1.336
G1 X99.866 Y38.371 F1400
X99.879 Y38.458
X99.882 Y38.608
X99.855 Y38.756
X99.806 Y38.898
X99.737 Y39.031
X99.651 Y39.154
X99.552 Y39.266
X99.44 Y39.367
X99.32 Y39.456
X99.191 Y39.532
X99.055 Y39.596
X98.914 Y39.648
X98.769 Y39.687
X98.621 Y39.713
X98.472 Y39.727
X98.322 Y39.728
X98.17 Y39.718
X98.017 Y39.695
X97.864 Y39.659
X97.713 Y39.611
X97.566 Y39.55
X97.422 Y39.477
X97.283 Y39.392
X97.151 Y39.295
X97.027 Y39.187
X96.91 Y39.07
X96.804 Y38.942
X96.707 Y38.806
X96.621 Y38.662
X96.547 Y38.512
X96.485 Y38.355
X96.436 Y38.193
X96.399 Y38.028
X96.376 Y37.86
X96.367 Y37.69
X96.371 Y37.52
X96.389 Y37.351
X96.421 Y37.183
X96.465 Y37.019
X96.523 Y36.858
X96.594 Y36.702
X96.677 Y36.553
X96.772 Y36.41
X96.878 Y36.276
X96.994 Y36.15
X97.121 Y36.034
X97.256 Y35.929
X97.399 Y35.835
X97.55 Y35.752
X97.706 Y35.682
X97.868 Y35.625
X98.034 Y35.581
X98.202 Y35.55
X98.373 Y35.533
X98.545 Y35.53
X98.716 Y35.54
X98.886 Y35.564
X99.054 Y35.602
X99.218 Y35.653
X99.377 Y35.717
X99.531 Y35.794
X99.678 Y35.882
X99.817 Y35.983
X99.948 Y36.094
X100.07 Y36.215
X100.181 Y36.346
X100.282 Y36.485
X100.377 Y36.641
X100.48 Y36.847
X100.601 Y37.145
X100.7 Y37.462
X100.757 Y37.711
X100.79 Y37.933
X100.803 Y38.148
X100.8 Y38.349
X100.782 Y38.537
X100.749 Y38.721
X100.701 Y38.903
X100.639 Y39.077
X100.565 Y39.243
X100.478 Y39.404
X100.376 Y39.56
X100.261 Y39.709
X100.132 Y39.849
X99.993 Y39.98
X99.842 Y40.099
X99.68 Y40.208
X99.506 Y40.305
X99.323 Y40.389
X99.13 Y40.459
X98.93 Y40.514
X98.723 Y40.553
X98.51 Y40.576
X98.294 Y40.582
X98.076 Y40.571
X97.857 Y40.542
X97.639 Y40.494
X97.424 Y40.429
X97.213 Y40.347
X97.008 Y40.246
X96.81 Y40.129
X96.621 Y39.996
X96.443 Y39.847
X96.276 Y39.683
X96.122 Y39.506
X95.982 Y39.316
X95.858 Y39.115
X95.75 Y38.903
X95.658 Y38.683
X95.585 Y38.456
X95.529 Y38.223
X95.493 Y37.986
X95.476 Y37.746
X95.478 Y37.505
X95.499 Y37.265
X95.54 Y37.027
X95.6 Y36.793
X95.678 Y36.564
X95.774 Y36.341
X95.889 Y36.128
X96.02 Y35.923
X96.167 Y35.73
X96.329 Y35.549
X96.506 Y35.382
X96.695 Y35.23
X96.896 Y35.093
X97.107 Y34.972
X97.328 Y34.869
X97.556 Y34.784
X97.79 Y34.717
X98.029 Y34.67
X98.27 Y34.642
X98.514 Y34.633
X98.757 Y34.644
X98.999 Y34.674
X99.238 Y34.724
X99.471 Y34.792
X99.699 Y34.879
X99.919 Y34.985
X100.129 Y35.107
X100.33 Y35.246
X100.52 Y35.402
X100.705 Y35.58
X100.893 Y35.794
X101.072 Y36.033
X101.238 Y36.296
X101.384 Y36.576
X101.506 Y36.863
X101.602 Y37.152
X101.673 Y37.44
X101.719 Y37.724
X101.741 Y38.005
Y38.282
X101.719 Y38.555
X101.676 Y38.821
X101.612 Y39.082
X101.528 Y39.335
X101.424 Y39.58
X101.3 Y39.816
X101.158 Y40.041
X100.998 Y40.254
X100.821 Y40.455
X100.628 Y40.642
X100.418 Y40.814
X100.194 Y40.969
X99.955 Y41.108
X99.704 Y41.228
X99.443 Y41.328
X99.171 Y41.408
X98.891 Y41.466
X98.606 Y41.501
X98.316 Y41.514
X98.024 Y41.504
X97.732 Y41.469
X97.441 Y41.411
X97.154 Y41.33
X96.873 Y41.225
X96.599 Y41.097
X96.335 Y40.946
X96.083 Y40.774
X95.845 Y40.582
X95.621 Y40.37
X95.414 Y40.139
X95.226 Y39.892
X95.058 Y39.63
X94.911 Y39.354
X94.786 Y39.066
X94.684 Y38.769
X94.606 Y38.463
X94.553 Y38.152
X94.525 Y37.837
X94.523 Y37.52
X94.546 Y37.204
X94.594 Y36.89
X94.667 Y36.58
X94.765 Y36.277
X94.888 Y35.983
X95.033 Y35.699
X95.201 Y35.428
X95.39 Y35.171
X95.6 Y34.93
X95.828 Y34.706
X96.074 Y34.501
X96.335 Y34.317
X96.61 Y34.154
X96.898 Y34.013
X97.196 Y33.897
X97.502 Y33.804
X97.815 Y33.736
X98.133 Y33.694
X98.452 Y33.677
X98.773 Y33.686
X99.091 Y33.721
X99.406 Y33.781
X99.715 Y33.866
X100.016 Y33.975
X100.308 Y34.109
X100.591 Y34.267
X100.867 Y34.453
X101.136 Y34.666
X101.396 Y34.908
X101.641 Y35.177
X101.868 Y35.47
X102.072 Y35.783
X102.251 Y36.111
X102.402 Y36.452
X102.525 Y36.8
X102.56 Y36.933
X102.567 Y36.962
X102.572 Y36.991
X102.576 Y37.021
X102.648 Y37.61
X102.652 Y37.65
Y37.69
X102.545 Y38.57
X102.534 Y38.65
X102.508 Y38.73
X102.205 Y39.53
X102.178 Y39.594
X102.138 Y39.658
X101.657 Y40.353
X101.607 Y40.421
X101.534 Y40.49
X100.992 Y40.97
X100.857 Y41.086
X100.778 Y41.13
X100.057 Y41.508
X99.977 Y41.548
X99.897 Y41.571
X99.09 Y41.77
X99.013 Y41.787
X98.936 Y41.792
X98.136
X97.976 Y41.785
X97.91 Y41.77
X97.176 Y41.589
X97.016 Y41.544
X96.832 Y41.45
X96.215 Y41.126
X96.135 Y41.079
X96.055 Y41.011
X95.415 Y40.444
X95.387 Y40.416
X95.366 Y40.387
X94.884 Y39.69
X94.831 Y39.61
X94.81 Y39.57
X94.492 Y38.73
X94.466 Y38.65
X94.454 Y38.569
X94.348 Y37.69
Y37.65
X94.352 Y37.61
X94.462 Y36.707
X94.475 Y36.65
X94.808 Y35.77
X94.827 Y35.73
X94.853 Y35.69
X95.35 Y34.97
X95.378 Y34.93
X95.395 Y34.91
X95.415 Y34.889
X96.055 Y34.322
X96.141 Y34.25
X96.215 Y34.207
X96.855 Y33.871
X97.016 Y33.789
X97.074 Y33.77
X97.976 Y33.548
X98.016 Y33.543
X98.056 Y33.542
X98.936
X99.016 Y33.547
X99.096 Y33.565
X99.926 Y33.77
X99.958 Y33.779
X99.991 Y33.792
X100.057 Y33.825
X100.697 Y34.161
X100.86 Y34.25
X101.044 Y34.41
X101.497 Y34.812
X101.585 Y34.89
X101.626 Y34.935
X102.147 Y35.69
X102.172 Y35.73
X102.192 Y35.77
X102.465 Y36.49
X102.525 Y36.65
X102.535 Y36.69
X102.541 Y36.73
X102.576 Y37.021
G3 X102.258 Y37.324 I-0.28 J0.024 F1000
G1 X102.211 Y37.304 Z-3.995
X102.165 Y37.284 Z-3.981
X102.123 Y37.266 Z-3.957
X102.095 Y37.231 Z-3.923
X102.072 Y37.203 Z-3.879
X102.055 Y37.181 Z-3.83
X102.045 Y37.168 Z-3.776
X102.041 Y37.164 Z-3.719
G0 Z5
X23.187 Y26.238
Z-1.5
G3 X25.824 Y26.665 Z-1.647 I1.318 J0.213 F333.3
X23.187 Y26.238 Z-1.793 I-1.318 J-0.213
X25.824 Y26.665 Z-1.94 I1.318 J0.213
X23.187 Y26.238 Z-2.086 I-1.318 J-0.213
X25.824 Y26.665 Z-2.233 I1.318 J0.213
X23.187 Y26.238 Z-2.379 I-1.318 J-0.213
X25.824 Y26.665 Z-2.526 I1.318 J0.213
X23.187 Y26.238 Z-2.672 I-1.318 J-0.213
X25.824 Y26.665 Z-2.819 I1.318 J0.213
X23.187 Y26.238 Z-2.965 I-1.318 J-0.213
X25.824 Y26.665 Z-3.112 I1.318 J0.213
X23.187 Y26.238 Z-3.258 I-1.318 J-0.213
X25.824 Y26.665 Z-3.405 I1.318 J0.213
X23.187 Y26.238 Z-3.551 I-1.318 J-0.213
X25.824 Y26.665 Z-3.698 I1.318 J0.213
X23.187 Y26.238 Z-3.844 I-1.318 J-0.213
X25.824 Y26.665 Z-3.991 I1.318 J0.213
X23.187 Y26.238 Z-4.137 I-1.318 J-0.213
X25.824 Y26.665 Z-4.284 I1.318 J0.213
X23.187 Y26.238 Z-4.43 I-1.318 J-0.213
X25.824 Y26.665 Z-4.577 I1.318 J0.213
X23.187 Y26.238 Z-4.724 I-1.318 J-0.213
X25.824 Y26.665 Z-4.87 I1.318 J0.213
X23.187 Y26.238 Z-5.017 I-1.318 J-0.213
X25.824 Y26.665 Z-5.163 I1.318 J0.213
X23.187 Y26.238 Z-5.31 I-1.318 J-0.213
X25.824 Y26.665 Z-5.456 I1.318 J0.213
X23.187 Y26.238 Z-5.603 I-1.318 J-0.213
X25.824 Y26.665 Z-5.749 I1.318 J0.213
X23.187 Y26.238 Z-5.896 I-1.318 J-0.213
X25.824 Y26.665 Z-6.042 I1.318 J0.213
X23.187 Y26.238 Z-6.189 I-1.318 J-0.213
X25.824 Y26.665 Z-6.335 I1.318 J0.213
X23.187 Y26.238 Z-6.482 I-1.318 J-0.213
X25.824 Y26.665 Z-6.628 I1.318 J0.213
X23.187 Y26.238 Z-6.775 I-1.318 J-0.213
X25.824 Y26.665 Z-6.921 I1.318 J0.213
X23.187 Y26.238 Z-7.068 I-1.318 J-0.213
X25.824 Y26.665 Z-7.214 I1.318 J0.213
X23.187 Y26.238 Z-7.361 I-1.318 J-0.213
X25.842 Y26.451 Z-7.5 I1.318 J0.213
X23.17 I-1.336
X25.842 I1.336
G1 X25.872 Y27.155 F1400
X25.885 Y27.243
X25.888 Y27.392
X25.861 Y27.54
X25.812 Y27.682
X25.743 Y27.815
X25.657 Y27.938
X25.558 Y28.05
X25.447 Y28.151
X25.326 Y28.24
X25.197 Y28.316
X25.061 Y28.38
X24.92 Y28.432
X24.775 Y28.471
X24.627 Y28.497
X24.478 Y28.511
X24.328 Y28.513
X24.176 Y28.502
X24.023 Y28.479
X23.87 Y28.443
X23.719 Y28.395
X23.572 Y28.334
X23.428 Y28.261
X23.289 Y28.176
X23.157 Y28.079
X23.033 Y27.972
X22.917 Y27.854
X22.81 Y27.726
X22.713 Y27.59
X22.627 Y27.446
X22.553 Y27.296
X22.491 Y27.139
X22.442 Y26.977
X22.405 Y26.812
X22.382 Y26.644
X22.373 Y26.474
X22.377 Y26.304
X22.395 Y26.135
X22.427 Y25.967
X22.471 Y25.803
X22.529 Y25.642
X22.6 Y25.486
X22.683 Y25.337
X22.778 Y25.194
X22.884 Y25.06
X23.001 Y24.934
X23.127 Y24.818
X23.262 Y24.713
X23.405 Y24.619
X23.556 Y24.536
X23.712 Y24.466
X23.874 Y24.409
X24.04 Y24.365
X24.209 Y24.334
X24.379 Y24.317
X24.551 Y24.314
X24.722 Y24.324
X24.892 Y24.348
X25.06 Y24.386
X25.224 Y24.437
X25.383 Y24.501
X25.537 Y24.578
X25.684 Y24.667
X25.823 Y24.767
X25.954 Y24.878
X26.076 Y24.999
X26.187 Y25.13
X26.288 Y25.269
X26.383 Y25.425
X26.486 Y25.631
X26.607 Y25.929
X26.707 Y26.246
X26.764 Y26.496
X26.796 Y26.717
X26.809 Y26.932
X26.806 Y27.133
X26.788 Y27.321
X26.755 Y27.505
X26.707 Y27.687
X26.645 Y27.862
X26.572 Y28.028
X26.484 Y28.188
X26.382 Y28.344
X26.267 Y28.493
X26.139 Y28.633
X25.999 Y28.764
X25.848 Y28.883
X25.686 Y28.992
X25.512 Y29.089
X25.329 Y29.173
X25.137 Y29.243
X24.936 Y29.298
X24.729 Y29.338
X24.517 Y29.361
X24.3 Y29.367
X24.082 Y29.355
X23.863 Y29.326
X23.645 Y29.278
X23.43 Y29.213
X23.219 Y29.131
X23.014 Y29.03
X22.816 Y28.913
X22.627 Y28.78
X22.449 Y28.631
X22.282 Y28.467
X22.128 Y28.29
X21.988 Y28.1
X21.864 Y27.899
X21.756 Y27.688
X21.664 Y27.468
X21.591 Y27.24
X21.536 Y27.007
X21.499 Y26.77
X21.482 Y26.53
X21.484 Y26.289
X21.505 Y26.049
X21.546 Y25.811
X21.606 Y25.577
X21.684 Y25.348
X21.781 Y25.126
X21.895 Y24.912
X22.026 Y24.707
X22.173 Y24.514
X22.335 Y24.334
X22.512 Y24.166
X22.701 Y24.014
X22.902 Y23.877
X23.113 Y23.756
X23.334 Y23.653
X23.562 Y23.568
X23.796 Y23.501
X24.035 Y23.454
X24.277 Y23.426
X24.52 Y23.417
X24.763 Y23.428
X25.005 Y23.458
X25.244 Y23.508
X25.477 Y23.576
X25.705 Y23.663
X25.925 Y23.769
X26.136 Y23.891
X26.336 Y24.03
X26.526 Y24.186
X26.711 Y24.364
X26.899 Y24.578
X27.078 Y24.817
X27.244 Y25.08
X27.39 Y25.36
X27.512 Y25.647
X27.608 Y25.936
X27.679 Y26.224
X27.725 Y26.508
X27.747 Y26.789
Y27.066
X27.725 Y27.339
X27.682 Y27.606
X27.618 Y27.866
X27.534 Y28.119
X27.43 Y28.364
X27.306 Y28.6
X27.164 Y28.825
X27.005 Y29.038
X26.827 Y29.239
X26.634 Y29.426
X26.424 Y29.598
X26.2 Y29.754
X25.961 Y29.892
X25.711 Y30.012
X25.449 Y30.112
X25.177 Y30.192
X24.898 Y30.25
X24.612 Y30.285
X24.322 Y30.298
X24.03 Y30.288
X23.738 Y30.254
X23.447 Y30.196
X23.16 Y30.114
X22.879 Y30.009
X22.605 Y29.881
X22.342 Y29.73
X22.089 Y29.558
X21.851 Y29.366
X21.627 Y29.154
X21.421 Y28.923
X21.232 Y28.676
X21.064 Y28.414
X20.917 Y28.138
X20.792 Y27.85
X20.69 Y27.553
X20.612 Y27.248
X20.559 Y26.936
X20.531 Y26.621
X20.529 Y26.304
X20.552 Y25.988
X20.6 Y25.674
X20.673 Y25.364
X20.772 Y25.061
X20.894 Y24.767
X21.039 Y24.483
X21.207 Y24.212
X21.397 Y23.955
X21.606 Y23.714
X21.834 Y23.49
X22.08 Y23.285
X22.341 Y23.101
X22.616 Y22.938
X22.904 Y22.797
X23.202 Y22.681
X23.508 Y22.588
X23.821 Y22.52
X24.139 Y22.478
X24.459 Y22.461
X24.779 Y22.47
X25.097 Y22.505
X25.412 Y22.565
X25.721 Y22.65
X26.022 Y22.76
X26.314 Y22.893
X26.597 Y23.051
X26.873 Y23.237
X27.143 Y23.45
X27.402 Y23.692
X27.647 Y23.961
X27.874 Y24.254
X28.078 Y24.567
X28.257 Y24.895
X28.408 Y25.236
X28.531 Y25.584
X28.624 Y25.939
X28.688 Y26.296
X28.723 Y26.654
X28.729 Y27.01
X28.706 Y27.363
X28.655 Y27.711
X28.577 Y28.052
X28.473 Y28.384
X28.342 Y28.706
X28.186 Y29.016
X28.006 Y29.313
X27.803 Y29.595
X27.576 Y29.86
X27.329 Y30.106
X27.061 Y30.334
X26.774 Y30.54
X26.47 Y30.723
X26.151 Y30.882
X25.817 Y31.016
X25.472 Y31.124
X25.117 Y31.203
X24.755 Y31.255
X24.387 Y31.277
X24.017 Y31.27
X23.646 Y31.233
X23.278 Y31.166
X22.914 Y31.068
X22.557 Y30.942
X22.21 Y30.786
X21.875 Y30.603
X21.554 Y30.392
X21.251 Y30.155
X20.966 Y29.893
X20.702 Y29.609
X20.461 Y29.303
X20.245 Y28.978
X20.055 Y28.635
X19.892 Y28.278
X19.759 Y27.908
X19.655 Y27.528
X19.583 Y27.139
X19.541 Y26.746
X19.531 Y26.35
X19.553 Y25.954
X19.607 Y25.56
X19.693 Y25.172
X19.809 Y24.791
X19.956 Y24.421
X20.132 Y24.063
X20.336 Y23.72
X20.568 Y23.395
X20.824 Y23.089
X21.105 Y22.805
X21.408 Y22.544
X21.73 Y22.308
X22.071 Y22.098
X22.428 Y21.917
X22.798 Y21.765
X23.179 Y21.643
X23.569 Y21.551
X23.965 Y21.492
X24.364 Y21.464
X24.765 Y21.469
X25.164 Y21.506
X25.558 Y21.574
X25.947 Y21.674
X26.328 Y21.806
X26.701 Y21.97
X27.064 Y22.165
X27.415 Y22.392
X27.753 Y22.651
X28.075 Y22.942
X28.377 Y23.262
X28.656 Y23.609
X28.907 Y23.98
X29.128 Y24.371
X29.317 Y24.778
X29.472 Y25.197
X29.592 Y25.626
X29.677 Y26.061
X29.727 Y26.498
X29.742 Y26.936
X29.721 Y27.371
X29.666 Y27.802
X29.576 Y28.224
X29.454 Y28.637
X29.299 Y29.039
X29.112 Y29.426
X28.895 Y29.796
X28.649 Y30.149
X28.375 Y30.481
X28.074 Y30.79
X27.749 Y31.076
X27.4 Y31.335
X27.03 Y31.567
X26.641 Y31.769
X26.235 Y31.94
X25.814 Y32.078
X25.382 Y32.183
X24.941 Y32.253
X24.493 Y32.288
X24.041 Y32.287
X23.589 Y32.249
X23.14 Y32.174
X22.696 Y32.064
X22.261 Y31.917
X21.836 Y31.736
X21.427 Y31.52
X21.034 Y31.271
X20.662 Y30.99
X20.312 Y30.679
X19.987 Y30.34
X19.69 Y29.975
X19.422 Y29.587
X19.186 Y29.177
X18.983 Y28.749
X18.814 Y28.305
X18.682 Y27.848
X18.586 Y27.381
X18.528 Y26.907
X18.509 Y26.43
X18.527 Y25.952
X18.585 Y25.476
X18.68 Y25.006
X18.812 Y24.545
X18.982 Y24.095
X19.187 Y23.661
X19.427 Y23.244
X19.699 Y22.847
X20.002 Y22.473
X20.335 Y22.125
X20.694 Y21.804
X21.079 Y21.514
X21.485 Y21.254
X21.911 Y21.029
X22.354 Y20.838
X22.811 Y20.683
X23.279 Y20.566
X23.755 Y20.486
X24.236 Y20.445
X24.719 Y20.442
X25.2 Y20.479
X25.678 Y20.554
X26.15 Y20.667
X26.614 Y20.819
X27.068 Y21.009
X27.51 Y21.237
X27.937 Y21.503
X28.347 Y21.807
X28.735 Y22.146
X29.098 Y22.518
X29.432 Y22.922
X29.735 Y23.353
X30.002 Y23.808
X30.232 Y24.283
X30.423 Y24.774
X30.574 Y25.278
X30.683 Y25.791
X30.751 Y26.31
X30.777 Y26.83
X30.761 Y27.349
X30.703 Y27.864
X30.605 Y28.37
X30.467 Y28.866
X30.289 Y29.349
X30.074 Y29.815
X29.822 Y30.263
X29.534 Y30.689
X29.213 Y31.091
X28.86 Y31.467
X28.477 Y31.814
X28.067 Y32.13
X27.631 Y32.413
X27.172 Y32.661
X26.692 Y32.873
X26.196 Y33.045
X25.685 Y33.178
X25.163 Y33.27
X24.633 Y33.32
X24.099 Y33.327
X23.564 Y33.291
X23.031 Y33.212
X22.505 Y33.09
X21.988 Y32.925
X21.484 Y32.719
X20.997 Y32.473
X20.529 Y32.187
X20.085 Y31.863
X19.667 Y31.504
X19.278 Y31.112
X18.921 Y30.688
X18.599 Y30.237
X18.313 Y29.759
X18.066 Y29.26
X17.859 Y28.741
X17.695 Y28.207
X17.573 Y27.66
X17.496 Y27.104
X17.464 Y26.544
X17.477 Y25.982
X17.535 Y25.422
X17.637 Y24.868
X17.784 Y24.324
X17.974 Y23.793
X18.207 Y23.279
X18.48 Y22.784
X18.792 Y22.313
X19.141 Y21.868
X19.525 Y21.453
X19.941 Y21.07
X20.386 Y20.721
X20.859 Y20.409
X21.355 Y20.135
X21.871 Y19.903
X22.404 Y19.712
X22.951 Y19.565
X23.509 Y19.462
X24.073 Y19.405
X24.64 Y19.392
X25.207 Y19.426
X25.77 Y19.505
X26.328 Y19.629
X26.877 Y19.799
X27.415 Y20.013
X27.937 Y20.273
X28.442 Y20.575
X28.924 Y20.92
X29.38 Y21.306
X29.808 Y21.73
X30.202 Y22.19
X30.559 Y22.682
X30.877 Y23.202
X31.152 Y23.747
X31.382 Y24.313
X31.567 Y24.894
X31.703 Y25.487
X31.792 Y26.088
X31.832 Y26.693
X31.823 Y27.297
X31.766 Y27.897
X31.661 Y28.489
X31.51 Y29.07
X31.312 Y29.637
X31.07 Y30.185
X30.784 Y30.712
X30.457 Y31.214
X30.091 Y31.69
X29.687 Y32.134
X29.247 Y32.546
X28.775 Y32.922
X28.273 Y33.26
X27.745 Y33.557
X27.192 Y33.811
X26.619 Y34.021
X26.029 Y34.185
X25.425 Y34.302
X24.812 Y34.369
X24.194 Y34.388
X23.574 Y34.357
X22.956 Y34.275
X22.345 Y34.144
X21.745 Y33.964
X21.159 Y33.736
X20.592 Y33.46
X20.047 Y33.139
X19.528 Y32.774
X19.039 Y32.368
X18.583 Y31.923
X18.163 Y31.441
X17.783 Y30.927
X17.444 Y30.382
X17.15 Y29.811
X16.902 Y29.218
X16.702 Y28.605
X16.552 Y27.978
X16.453 Y27.339
X16.405 Y26.694
X16.409 Y26.047
X16.465 Y25.402
X16.573 Y24.762
X16.731 Y24.133
X16.94 Y23.518
X17.198 Y22.922
X17.503 Y22.348
X17.853 Y21.8
X18.246 Y21.281
X18.68 Y20.796
X19.151 Y20.347
X19.657 Y19.937
X20.195 Y19.569
X20.76 Y19.245
X21.35 Y18.968
X21.96 Y18.738
X22.587 Y18.559
X23.226 Y18.43
X23.873 Y18.353
X24.526 Y18.328
X25.179 Y18.355
X25.829 Y18.435
X26.473 Y18.568
X27.107 Y18.753
X27.728 Y18.989
X28.332 Y19.276
X28.915 Y19.613
X29.472 Y19.998
X30 Y20.43
X30.495 Y20.905
X30.953 Y21.421
X31.369 Y21.974
X31.74 Y22.561
X32.064 Y23.176
X32.337 Y23.815
X32.558 Y24.474
X32.725 Y25.148
X32.837 Y25.832
X32.894 Y26.521
X32.896 Y27.212
X32.842 Y27.898
X32.733 Y28.577
X32.571 Y29.245
X32.355 Y29.896
X32.089 Y30.527
X31.772 Y31.135
X31.408 Y31.716
X30.998 Y32.266
X30.544 Y32.782
X30.05 Y33.261
X29.518 Y33.699
X28.952 Y34.094
X28.354 Y34.443
X27.729 Y34.743
X27.079 Y34.994
X26.41 Y35.192
X25.725 Y35.335
X25.029 Y35.424
X24.325 Y35.457
X23.621 Y35.433
X22.921 Y35.353
X22.23 Y35.217
X21.551 Y35.027
X20.89 Y34.783
X20.25 Y34.488
X19.636 Y34.143
X19.05 Y33.751
X18.497 Y33.315
X17.98 Y32.836
X17.502 Y32.319
X17.066 Y31.765
X16.674 Y31.18
X16.329 Y30.565
X16.032 Y29.926
X15.786 Y29.266
X15.592 Y28.589
X15.45 Y27.899
X15.363 Y27.2
X15.329 Y26.496
X15.35 Y25.791
X15.424 Y25.091
X15.553 Y24.398
X15.734 Y23.717
X15.968 Y23.052
X16.252 Y22.408
X16.586 Y21.787
X16.966 Y21.194
X17.391 Y20.632
X17.857 Y20.104
X18.363 Y19.614
X18.905 Y19.163
X19.48 Y18.756
X20.084 Y18.393
X20.714 Y18.078
X21.367 Y17.812
X22.037 Y17.597
X22.723 Y17.433
X23.419 Y17.323
X24.121 Y17.266
X24.825 Y17.262
X25.528 Y17.313
X26.225 Y17.416
X26.912 Y17.573
X27.586 Y17.78
X28.241 Y18.038
X28.875 Y18.346
X29.484 Y18.701
X30.064 Y19.1
X30.614 Y19.541
X31.13 Y20.021
X31.609 Y20.537
X32.051 Y21.086
X32.451 Y21.666
X32.809 Y22.273
X33.123 Y22.904
X33.39 Y23.556
X33.607 Y24.226
X33.774 Y24.911
X33.891 Y25.605
X33.958 Y26.307
X33.973 Y27.011
X33.938 Y27.715
X33.852 Y28.414
X33.716 Y29.105
X33.529 Y29.785
X33.295 Y30.449
X33.011 Y31.094
X32.68 Y31.716
X32.303 Y32.312
X31.884 Y32.878
X31.425 Y33.412
X30.927 Y33.911
X30.395 Y34.373
X29.832 Y34.796
X29.239 Y35.176
X28.62 Y35.514
X27.979 Y35.806
X27.318 Y36.05
X26.64 Y36.244
X25.951 Y36.388
X25.252 Y36.482
X24.549 Y36.526
X23.845 Y36.52
X23.142 Y36.465
X22.445 Y36.361
X21.758 Y36.208
X21.082 Y36.007
X20.424 Y35.756
X19.785 Y35.459
X19.169 Y35.118
X18.578 Y34.734
X18.015 Y34.31
X17.483 Y33.848
X16.984 Y33.351
X16.52 Y32.821
X16.094 Y32.259
X15.709 Y31.669
X15.367 Y31.053
X15.07 Y30.414
X14.817 Y29.757
X14.61 Y29.083
X14.449 Y28.397
X14.336 Y27.702
X14.27 Y27
X14.251 Y26.296
X14.282 Y25.592
X14.363 Y24.892
X14.493 Y24.2
X14.67 Y23.518
X14.894 Y22.85
X15.163 Y22.199
X15.476 Y21.567
X15.831 Y20.959
X16.227 Y20.376
X16.662 Y19.821
X17.134 Y19.299
X17.643 Y18.811
X18.184 Y18.36
X18.754 Y17.946
X19.352 Y17.572
X19.973 Y17.24
X20.615 Y16.95
X21.275 Y16.704
X21.951 Y16.504
X22.638 Y16.35
X23.335 Y16.246
X24.038 Y16.19
X24.742 Y16.183
X25.446 Y16.224
X26.145 Y16.311
X26.836 Y16.446
X27.517 Y16.626
X28.185 Y16.852
X28.836 Y17.123
X29.466 Y17.438
X30.072 Y17.796
X30.653 Y18.194
X31.207 Y18.63
X31.731 Y19.102
X32.223 Y19.606
X32.681 Y20.141
X33.105 Y20.704
X33.491 Y21.293
X33.839 Y21.906
X34.145 Y22.54
X34.408 Y23.194
X34.626 Y23.865
X34.799 Y24.547
X34.927 Y25.24
X35.011 Y25.94
X35.049 Y26.643
X35.042 Y27.348
X34.99 Y28.051
X34.892 Y28.748
X34.748 Y29.438
X34.558 Y30.117
X34.324 Y30.781
X34.045 Y31.428
X33.725 Y32.056
X33.363 Y32.661
X32.963 Y33.241
X32.526 Y33.793
X32.055 Y34.317
X31.55 Y34.808
X31.013 Y35.265
X30.447 Y35.684
X29.855 Y36.066
X29.239 Y36.409
X28.603 Y36.711
X28.507 Y36.749
X28.428 Y36.775
X28.347 Y36.79
X28.265 Y36.796
X21.305
X20.898 Y36.775
X20.566 Y36.732
X20.221 Y36.658
X19.771 Y36.523
X19.288 Y36.335
X18.733 Y36.066
X18.126 Y35.708
X17.549 Y35.304
X17.001 Y34.861
X16.484 Y34.382
X15.998 Y33.872
X15.545 Y33.332
X15.127 Y32.765
X14.748 Y32.171
X14.409 Y31.554
X14.218 Y31.148
X14.184 Y31.059
X14.163 Y30.965
X14.156 Y30.869
Y22.89
X14.168 Y22.644
X14.208 Y22.339
X14.277 Y22.017
X14.403 Y21.597
X14.575 Y21.156
X14.834 Y20.622
X15.184 Y20.027
X15.589 Y19.45
X16.035 Y18.905
X16.517 Y18.39
X17.031 Y17.909
X17.575 Y17.461
X18.147 Y17.05
X18.743 Y16.675
X19.362 Y16.337
X19.718 Y16.17
X19.807 Y16.135
X19.901 Y16.114
X19.997 Y16.107
X28.027
X28.383 Y16.125
X28.684 Y16.165
X29.004 Y16.233
X29.417 Y16.357
X29.853 Y16.527
X30.387 Y16.786
X30.986 Y17.138
X31.563 Y17.544
X32.11 Y17.988
X32.627 Y18.466
X33.114 Y18.975
X33.569 Y19.513
X33.991 Y20.078
X34.378 Y20.666
X34.73 Y21.276
X35.045 Y21.907
X35.321 Y22.555
X35.558 Y23.219
X35.755 Y23.895
X35.912 Y24.582
X36.028 Y25.277
X36.103 Y25.978
X36.136 Y26.681
X36.127 Y27.386
X36.076 Y28.089
X35.983 Y28.787
X35.849 Y29.479
X35.674 Y30.161
X35.458 Y30.832
X35.203 Y31.489
X34.909 Y32.129
X34.577 Y32.751
X34.209 Y33.351
X33.804 Y33.928
X33.366 Y34.48
X32.896 Y35.005
X32.395 Y35.5
X31.865 Y35.965
X31.309 Y36.397
X30.897 Y36.68
X30.782 Y36.744
X30.656 Y36.782
X30.526 Y36.796
X28.265
G3 X28.188 Y36.247 I0.01 J-0.281 F1000
G1 X28.247 Y36.228 Z-7.493
X28.304 Y36.21 Z-7.472
X28.354 Y36.193 Z-7.439
X28.397 Y36.179 Z-7.394
X28.429 Y36.169 Z-7.341
X28.448 Y36.163 Z-7.281
X28.455 Y36.16 Z-7.219
G0 Z5
X14.521 Y23.885
Z-6.938
G1 Z-7.219 F1000
X14.517 Y23.879 Z-7.281
X14.507 Y23.861 Z-7.341
X14.49 Y23.833 Z-7.394
X14.467 Y23.794 Z-7.439
X14.44 Y23.749 Z-7.472
X14.409 Y23.698 Z-7.493
X14.377 Y23.644 Z-7.5
G3 X14.156 Y22.89 I1.36 J-0.809
G1 Y20.81 F1400
X14.168 Y20.572
X14.193 Y20.379
X14.244 Y20.14
X14.325 Y19.87
X14.443 Y19.566
X14.621 Y19.2
X14.864 Y18.787
X15.187 Y18.327
X15.621 Y17.804
X16.113 Y17.3
X16.64 Y16.832
X17.195 Y16.398
X17.45 Y16.223
X17.565 Y16.16
X17.691 Y16.121
X17.822 Y16.107
G3 X18.036 Y16.559 I-0.01 J0.281 F1000
G1 X17.932 Y16.694
X14.718 Y20.895 F1400
X14.66 Y20.971 F1000
G3 X14.156 Y20.81 I-0.223 J-0.171
G1 Y19.05 F1400
X14.164 Y18.883
X14.185 Y18.723
X14.226 Y18.533
X14.296 Y18.299
X14.39 Y18.059
X14.528 Y17.774
X14.72 Y17.447
X14.981 Y17.075
X15.32 Y16.668
X15.673 Y16.305
X15.81 Y16.198
X15.97 Y16.13
X16.143 Y16.107
G3 X16.37 Y16.54 I-0.01 J0.281 F1000
G1 X16.265 Y16.703
X14.712 Y19.131 F1400
X14.674 Y19.192 F1000
G3 X14.156 Y19.05 I-0.237 J-0.151
G1 Y17.522 F1400
X14.163 Y17.373
X14.185 Y17.213
X14.223 Y17.04
X14.281 Y16.851
X14.37 Y16.626
X14.445 Y16.474
X14.548 Y16.323
X14.687 Y16.206
X14.854 Y16.133
X15.034 Y16.107
G3 X15.273 Y16.519 I-0.01 J0.281 F1000
G1 X15.172 Y16.712
X14.708 Y17.601 F1400
X14.686 Y17.643 F1000
G3 X14.156 Y17.522 I-0.249 J-0.13
G1 Y16.41 F1400
X14.158 Y16.37
X14.165 Y16.33
X14.178 Y16.292
X14.198 Y16.254
X14.226 Y16.216
X14.242 Y16.196
X14.262 Y16.177
X14.27 Y16.17
X14.308 Y16.144
X14.346 Y16.126
X14.384 Y16.115
X14.422 Y16.109
X14.582 Y16.107
X19.997
G3 X20.074 Y16.656 I-0.01 J0.281 F1000
G1 X20.014 Y16.675 Z-7.493
X19.958 Y16.693 Z-7.472
X19.907 Y16.71 Z-7.439
X19.865 Y16.724 Z-7.394
X19.833 Y16.734 Z-7.341
X19.813 Y16.74 Z-7.281
X19.806 Y16.743 Z-7.219
G0 Z5
X22.3 Y36.431
Z-6.938
G1 Z-7.219 F1000
X22.294 Y36.434 Z-7.281
X22.276 Y36.445 Z-7.341
X22.247 Y36.462 Z-7.394
X22.209 Y36.485 Z-7.439
X22.163 Y36.512 Z-7.472
X22.112 Y36.542 Z-7.493
X22.058 Y36.574 Z-7.5
G3 X21.305 Y36.796 I-0.809 J-1.36
G1 X18.904 F1400
