%
(top3-v-engrave)
(T1  D=6.35 CR=0 TAPER=30deg - ZMIN=-1.618 - chamfer mill)
G90 G94
G17
G21

(Engrave4)
M9
T1 M6
S5000 M3
G54
G0 X6.765 Y43.931
Z13
Z3
G1 Z-0.001 F762
X7.07 Y43.626 Z-0.53 F1000
X6.765 Y43.322 Z-0.001
X7.07 Y43.626 Z-0.53
X20.368 Y43.608 Z-0.561
X20.582 Y43.931 Z-0.001
X20.368 Y43.608 Z-0.561
X20.856 Y43.284 Z-0.001
G0 Z3
X12.464 Y45.055
G1 Z-0.783 F762
X12.475 Y45.088 Z-0.841 F1000
X12.5 Y45.149 Z-0.947
X12.514 Y45.177 Z-0.995
X12.515 Y45.178 Z-0.997
X12.517 Y45.182 Z-1.003
X12.787 Y45.452 Z-1.471
X12.88 Y45.402 Z-1.384
X12.972 Y45.358 Z-1.308
X13.064 Y45.321 Z-1.244
X13.157 Y45.291 Z-1.192
X13.249 Y45.267 Z-1.151
X13.341 Y45.25 Z-1.122
X13.434 Y45.24 Z-1.105
X13.526 Y45.237 Z-1.099
X15.044
X15.467 Y44.603 Z-0.001
X15.044 Y45.237 Z-1.099
X15.996 Y45.871 Z-0.001
X15.044 Y45.237 Z-1.099
X13.526
X13.434 Y45.24 Z-1.105
X13.341 Y45.25 Z-1.122
X13.249 Y45.267 Z-1.151
X13.157 Y45.291 Z-1.192
X13.064 Y45.321 Z-1.244
X12.972 Y45.358 Z-1.308
X12.88 Y45.402 Z-1.384
X12.787 Y45.452 Z-1.471
X12.763 Y45.557 Z-1.429
X12.746 Y45.662 Z-1.399
X12.735 Y45.767 Z-1.381
X12.732 Y45.871 Z-1.375
Y46.266
X12.735 Y46.364 Z-1.381
X12.744 Y46.461 Z-1.396
X12.759 Y46.559 Z-1.422
X12.78 Y46.656 Z-1.458
X12.807 Y46.754 Z-1.505
X12.926 Z-1.338
X13.034 Z-1.2
X13.083 Z-1.14
X13.176 Z-1.039
X13.219 Z-0.998
X13.261 Z-0.961
X13.301 Z-0.93
X13.34 Z-0.903
X13.379 Z-0.882
X13.416 Z-0.865
X13.453 Z-0.853
X13.49 Z-0.846
X14.408 Z-0.844
X14.495 Y46.758 Z-0.851
X14.583 Y46.769 Z-0.871
X14.67 Y46.789 Z-0.905
X14.757 Y46.816 Z-0.952
X14.844 Y46.851 Z-1.013
X14.931 Y46.894 Z-1.087
X15.019 Y46.945 Z-1.175
X15.106 Y47.003 Z-1.277
X15.193 Y47.07 Z-1.391
X15.417 Y46.845 Z-1.003
X15.42 Y46.842 Z-0.997
X15.435 Y46.811 Z-0.943
X15.459 Y46.754 Z-0.845
X15.468 Y46.726 Z-0.796
X15.459 Y46.754 Z-0.845
X15.435 Y46.811 Z-0.943
X15.42 Y46.842 Z-0.997
X15.417 Y46.845 Z-1.003
X15.193 Y47.07 Z-1.391
X15.2 Y47.155 Z-1.379
X15.202 Y47.241 Z-1.375
Y47.737
X15.199 Y47.843 Z-1.382
X15.188 Y47.95 Z-1.4
X15.17 Y48.056 Z-1.431
X15.145 Y48.163 Z-1.474
X15.417 Y48.435 Z-1.003
X15.42 Y48.439 Z-0.997
X15.434 Y48.467 Z-0.947
X15.459 Y48.526 Z-0.845
X15.468 Y48.557 Z-0.791
X15.459 Y48.526 Z-0.845
X15.434 Y48.467 Z-0.947
X15.42 Y48.439 Z-0.997
X15.417 Y48.435 Z-1.003
X15.145 Y48.163 Z-1.474
X15.053 Y48.213 Z-1.388
X14.961 Y48.256 Z-1.313
X14.869 Y48.292 Z-1.25
X14.777 Y48.322 Z-1.198
X14.685 Y48.346 Z-1.158
X14.592 Y48.362 Z-1.129
X14.5 Y48.372 Z-1.112
X14.408 Y48.375 Z-1.106
X13.526
X13.434 Y48.372 Z-1.112
X13.342 Y48.362 Z-1.129
X13.25 Y48.346 Z-1.158
X13.157 Y48.322 Z-1.198
X13.065 Y48.292 Z-1.25
X12.973 Y48.256 Z-1.313
X12.881 Y48.213 Z-1.388
X12.789 Y48.163 Z-1.474
X12.531 Y48.421 Z-1.027
X12.517 Y48.435 Z-1.003
X12.515 Y48.438 Z-0.997
X12.514 Y48.439 Z-0.995
X12.5 Y48.467 Z-0.947
X12.475 Y48.529 Z-0.841
X12.466 Y48.557 Z-0.791
X12.475 Y48.529 Z-0.841
X12.5 Y48.467 Z-0.947
X12.514 Y48.439 Z-0.995
X12.515 Y48.438 Z-0.997
X12.517 Y48.435 Z-1.003
X12.531 Y48.421 Z-1.027
X12.789 Y48.163 Z-1.474
X12.764 Y48.056 Z-1.431
X12.746 Y47.95 Z-1.4
X12.735 Y47.843 Z-1.382
X12.732 Y47.737 Z-1.375
Y47.241
X12.735 Y47.144 Z-1.381
X12.744 Y47.046 Z-1.396
X12.759 Y46.949 Z-1.422
X12.78 Y46.851 Z-1.458
X12.807 Y46.754 Z-1.505
G0 Z3
X17.142 Y45.053
G1 Z-0.78 F762
X17.149 Y45.078 Z-0.823 F1000
X17.174 Y45.141 Z-0.932
X17.191 Y45.176 Z-0.993
X17.193 Y45.178 Z-0.997
X17.196 Y45.182 Z-1.003
X17.209 Y45.195 Z-1.027
X17.467 Y45.454 Z-1.474
X17.559 Y45.404 Z-1.388
X17.651 Y45.361 Z-1.313
X17.744 Y45.324 Z-1.25
X17.836 Y45.294 Z-1.198
X17.928 Y45.271 Z-1.158
X18.02 Y45.255 Z-1.129
X18.112 Y45.245 Z-1.112
X18.204 Y45.241 Z-1.106
X19.078
X19.17 Y45.245 Z-1.112
X19.262 Y45.255 Z-1.129
X19.354 Y45.271 Z-1.158
X19.446 Y45.294 Z-1.198
X19.539 Y45.324 Z-1.25
X19.631 Y45.361 Z-1.313
X19.723 Y45.404 Z-1.388
X19.815 Y45.454 Z-1.474
X20.666 Y44.603 Z-0.001
X19.815 Y45.454 Z-1.474
X19.84 Y45.56 Z-1.431
X19.858 Y45.667 Z-1.4
X19.868 Y45.773 Z-1.382
X19.872 Y45.88 Z-1.375
Y47.737
X19.868 Y47.843 Z-1.382
X19.858 Y47.95 Z-1.4
X19.84 Y48.056 Z-1.431
X19.815 Y48.163 Z-1.474
X19.783 Y48.269 Z-1.53
X19.744 Y48.375 Z-1.598
X19.783 Y48.482 Z-1.53
X19.815 Y48.588 Z-1.474
X19.84 Y48.695 Z-1.431
X19.858 Y48.801 Z-1.4
X19.868 Y48.908 Z-1.382
X19.872 Y49.014 Z-1.375
Y49.691
X20.666 Y50.484 Z-0.001
X19.872 Y49.691 Z-1.375
X19.079 Y50.484 Z-0.001
X19.872 Y49.691 Z-1.375
Y49.014
X19.868 Y48.908 Z-1.382
X19.858 Y48.801 Z-1.4
X19.84 Y48.695 Z-1.431
X19.815 Y48.588 Z-1.474
X19.783 Y48.482 Z-1.53
X19.744 Y48.375 Z-1.598
X19.637 Z-1.47
X19.541 Z-1.366
X19.452 Z-1.282
X19.37 Z-1.216
X19.331 Z-1.19
X19.293 Z-1.167
X19.255 Z-1.148
X19.219 Z-1.133
X19.183 Z-1.121
X19.148 Z-1.113
X19.113 Z-1.108
X18.204 Z-1.106
X18.112 Y48.372 Z-1.112
X18.02 Y48.362 Z-1.129
X17.928 Y48.346 Z-1.158
X17.836 Y48.322 Z-1.198
X17.744 Y48.292 Z-1.25
X17.651 Y48.256 Z-1.313
X17.559 Y48.213 Z-1.388
X17.467 Y48.163 Z-1.474
X17.194 Y48.437 Z-1
X17.193 Y48.438 Z-0.997
X17.192 Y48.44 Z-0.994
X17.174 Y48.476 Z-0.932
X17.149 Y48.539 Z-0.823
X17.144 Y48.557 Z-0.791
X17.149 Y48.539 Z-0.823
X17.174 Y48.476 Z-0.932
X17.192 Y48.44 Z-0.994
X17.193 Y48.438 Z-0.997
X17.194 Y48.437 Z-1
X17.467 Y48.163 Z-1.474
X17.442 Y48.056 Z-1.431
X17.424 Y47.95 Z-1.4
X17.414 Y47.843 Z-1.382
X17.41 Y47.737 Z-1.375
Y45.88
X17.414 Y45.773 Z-1.382
X17.424 Y45.667 Z-1.4
X17.442 Y45.56 Z-1.431
X17.467 Y45.454 Z-1.474
G0 Z3
X21.415 Y43.93
G1 Z-0.001 F762
X22.37 Y43.292 Z-1.106 F1000
X21.944 Y42.654 Z-0.001
X22.37 Y43.292 Z-1.106
X23.876
X23.968 Y43.295 Z-1.112
X24.061 Y43.305 Z-1.129
X24.153 Y43.322 Z-1.158
X24.245 Y43.345 Z-1.198
X24.337 Y43.375 Z-1.25
X24.429 Y43.411 Z-1.313
X24.521 Y43.455 Z-1.388
X24.613 Y43.504 Z-1.474
X24.887 Y43.23 Z-0.999
Y43.229 Z-0.997
X24.898 Y43.208 Z-0.962
X24.924 Y43.149 Z-0.858
X24.936 Y43.11 Z-0.792
X24.924 Y43.149 Z-0.858
X24.898 Y43.208 Z-0.962
X24.887 Y43.229 Z-0.997
Y43.23 Z-0.999
X24.613 Y43.504 Z-1.474
X24.638 Y43.611 Z-1.431
X24.656 Y43.717 Z-1.4
X24.667 Y43.824 Z-1.382
X24.67 Y43.93 Z-1.375
Y44.603
X24.667 Y44.709 Z-1.382
X24.656 Y44.816 Z-1.4
X24.638 Y44.922 Z-1.431
X24.613 Y45.028 Z-1.474
X24.581 Y45.135 Z-1.53
X24.542 Y45.241 Z-1.598
X24.581 Y45.348 Z-1.53
X24.613 Y45.454 Z-1.474
X24.638 Y45.561 Z-1.431
X24.656 Y45.667 Z-1.4
X24.667 Y45.773 Z-1.382
X24.67 Y45.88 Z-1.375
Y47.737
X24.667 Y47.843 Z-1.382
X24.656 Y47.95 Z-1.4
X24.638 Y48.056 Z-1.431
X24.613 Y48.163 Z-1.474
X25.464 Y49.014 Z-0.001
X24.613 Y48.163 Z-1.474
X24.521 Y48.213 Z-1.388
X24.429 Y48.256 Z-1.313
X24.337 Y48.292 Z-1.25
X24.245 Y48.322 Z-1.198
X24.153 Y48.346 Z-1.158
X24.06 Y48.362 Z-1.129
X23.968 Y48.372 Z-1.112
X23.876 Y48.375 Z-1.106
X23.002
X22.91 Y48.372 Z-1.112
X22.818 Y48.362 Z-1.129
X22.726 Y48.346 Z-1.158
X22.634 Y48.322 Z-1.198
X22.542 Y48.292 Z-1.25
X22.45 Y48.256 Z-1.313
X22.358 Y48.213 Z-1.388
X22.265 Y48.163 Z-1.474
X21.98 Y48.451 Z-0.975
X21.965 Y48.476 Z-0.932
X21.957 Y48.492 Z-0.904
X21.939 Y48.54 Z-0.821
X21.936 Y48.55 Z-0.804
X21.939 Y48.54 Z-0.821
X21.957 Y48.492 Z-0.904
X21.965 Y48.476 Z-0.932
X21.98 Y48.451 Z-0.975
X22.265 Y48.163 Z-1.474
X22.24 Y48.056 Z-1.431
X22.223 Y47.95 Z-1.4
X22.212 Y47.843 Z-1.382
X22.208 Y47.737 Z-1.375
Y45.88
X22.212 Y45.773 Z-1.382
X22.223 Y45.667 Z-1.4
X22.24 Y45.56 Z-1.431
X22.265 Y45.454 Z-1.474
X21.981 Y45.166 Z-0.976
X21.965 Y45.141 Z-0.932
X21.957 Y45.125 Z-0.904
X21.938 Y45.073 Z-0.815
Z-0.814
Z-0.815
X21.957 Y45.125 Z-0.904
X21.965 Y45.141 Z-0.932
X21.981 Y45.166 Z-0.976
X22.265 Y45.454 Z-1.474
X22.358 Y45.404 Z-1.388
X22.45 Y45.361 Z-1.313
X22.542 Y45.324 Z-1.25
X22.634 Y45.294 Z-1.198
X22.726 Y45.271 Z-1.158
X22.818 Y45.255 Z-1.129
X22.91 Y45.245 Z-1.112
X23.002 Y45.241 Z-1.106
X23.876
X23.911 Z-1.108
X23.946 Z-1.113
X23.982 Z-1.121
X24.017 Z-1.133
X24.054 Z-1.148
X24.091 Z-1.167
X24.168 Z-1.216
X24.25 Z-1.282
X24.339 Z-1.366
X24.436 Z-1.471
X24.542 Z-1.598
G0 Z3
X26.753 Y45.054
G1 Z-0.781 F762
X26.763 Y45.084 Z-0.834 F1000
X26.784 Y45.139 Z-0.928
X26.802 Y45.176 Z-0.993
X26.804 Y45.179 Z-0.998
X26.807 Y45.182 Z-1.003
X27.076 Y45.452 Z-1.471
X27.169 Y45.402 Z-1.384
X27.261 Y45.358 Z-1.308
X27.353 Y45.321 Z-1.244
X27.446 Y45.291 Z-1.192
X27.538 Y45.267 Z-1.151
X27.63 Y45.25 Z-1.122
X27.723 Y45.24 Z-1.105
X27.815 Y45.237 Z-1.099
X29.333
X29.756 Y44.603 Z-0.001
X29.333 Y45.237 Z-1.099
X30.285 Y45.871 Z-0.001
X29.333 Y45.237 Z-1.099
X27.815
X27.723 Y45.24 Z-1.105
X27.63 Y45.25 Z-1.122
X27.538 Y45.267 Z-1.151
X27.446 Y45.291 Z-1.192
X27.353 Y45.321 Z-1.244
X27.261 Y45.358 Z-1.308
X27.169 Y45.402 Z-1.384
X27.076 Y45.452 Z-1.471
X27.052 Y45.557 Z-1.429
X27.035 Y45.662 Z-1.399
X27.024 Y45.767 Z-1.381
X27.021 Y45.871 Z-1.375
Y46.266
X27.024 Y46.364 Z-1.381
X27.033 Y46.461 Z-1.396
X27.048 Y46.559 Z-1.422
X27.069 Y46.656 Z-1.458
X27.096 Y46.754 Z-1.505
X27.069 Y46.851 Z-1.458
X27.048 Y46.949 Z-1.422
X27.033 Y47.046 Z-1.396
X27.024 Y47.144 Z-1.381
X27.021 Y47.241 Z-1.375
Y47.737
X27.025 Y47.843 Z-1.382
X27.035 Y47.95 Z-1.4
X27.053 Y48.056 Z-1.431
X27.078 Y48.163 Z-1.474
X26.806 Y48.435 Z-1.003
X26.804 Y48.438 Z-0.998
Z-0.997
X26.803 Y48.44 Z-0.994
X26.785 Y48.476 Z-0.932
X26.76 Y48.539 Z-0.823
X26.755 Y48.558 Z-0.79
X26.76 Y48.539 Z-0.823
X26.785 Y48.476 Z-0.932
X26.803 Y48.44 Z-0.994
X26.804 Y48.438 Z-0.997
Z-0.998
X26.806 Y48.435 Z-1.003
X27.078 Y48.163 Z-1.474
X27.17 Y48.213 Z-1.388
X27.262 Y48.256 Z-1.313
X27.354 Y48.292 Z-1.25
X27.447 Y48.322 Z-1.198
X27.539 Y48.346 Z-1.158
X27.631 Y48.362 Z-1.129
X27.723 Y48.372 Z-1.112
X27.815 Y48.375 Z-1.106
X28.697
X28.789 Y48.372 Z-1.112
X28.882 Y48.362 Z-1.129
X28.974 Y48.346 Z-1.158
X29.066 Y48.322 Z-1.198
X29.158 Y48.292 Z-1.25
X29.25 Y48.256 Z-1.313
X29.342 Y48.213 Z-1.388
X29.434 Y48.163 Z-1.474
X29.708 Y48.437 Z-0.999
Y48.438 Z-0.998
X29.709 Y48.439 Z-0.997
X29.723 Y48.467 Z-0.947
X29.748 Y48.526 Z-0.845
X29.758 Y48.557 Z-0.791
X29.748 Y48.526 Z-0.845
X29.723 Y48.467 Z-0.947
X29.709 Y48.439 Z-0.997
X29.708 Y48.438 Z-0.998
Y48.437 Z-0.999
X29.434 Y48.163 Z-1.474
X29.459 Y48.056 Z-1.431
X29.477 Y47.95 Z-1.4
X29.488 Y47.843 Z-1.382
X29.491 Y47.737 Z-1.375
Y47.241
X29.489 Y47.155 Z-1.379
X29.482 Y47.07 Z-1.391
X29.708 Y46.843 Z-0.999
X29.709 Y46.842 Z-0.997
X29.724 Y46.811 Z-0.943
X29.748 Y46.754 Z-0.845
X29.756 Y46.728 Z-0.799
X29.748 Y46.754 Z-0.845
X29.724 Y46.811 Z-0.943
X29.709 Y46.842 Z-0.997
X29.708 Y46.843 Z-0.999
X29.482 Y47.07 Z-1.391
X29.395 Y47.003 Z-1.277
X29.308 Y46.945 Z-1.175
X29.221 Y46.894 Z-1.087
X29.133 Y46.851 Z-1.013
X29.046 Y46.816 Z-0.952
X28.959 Y46.789 Z-0.905
X28.872 Y46.769 Z-0.871
X28.785 Y46.758 Z-0.851
X28.697 Y46.754 Z-0.844
X27.779 Z-0.846
X27.742 Z-0.853
X27.705 Z-0.865
X27.668 Z-0.882
X27.63 Z-0.903
X27.59 Z-0.93
X27.55 Z-0.961
X27.508 Z-0.998
X27.465 Z-1.039
X27.372 Z-1.14
X27.323 Z-1.2
X27.215 Z-1.338
X27.096 Z-1.505
G0 Z3
X31.551 Y50.043
G1 Z-0.764 F762
X31.564 Y49.997 Z-0.845 F1000
X31.587 Y49.933 Z-0.956
X31.599 Y49.909 Z-0.997
X31.6
X31.601 Y49.907 Z-1.001
X31.614 Y49.893 Z-1.024
X31.874 Y49.633 Z-1.474
X31.966 Y49.683 Z-1.388
X32.058 Y49.726 Z-1.313
X32.15 Y49.763 Z-1.25
X32.242 Y49.793 Z-1.198
X32.335 Y49.816 Z-1.158
X32.427 Y49.833 Z-1.129
X32.519 Y49.843 Z-1.112
X32.611 Y49.846 Z-1.106
X34.487
X34.913 Y49.208 Z-0.001
X34.487 Y49.846 Z-1.106
X35.442 Y50.484 Z-0.001
X34.487 Y49.846 Z-1.106
X32.611
X32.519 Y49.843 Z-1.112
X32.427 Y49.833 Z-1.129
X32.335 Y49.816 Z-1.158
X32.242 Y49.793 Z-1.198
X32.15 Y49.763 Z-1.25
X32.058 Y49.726 Z-1.313
X31.966 Y49.683 Z-1.388
X31.874 Y49.633 Z-1.474
X31.849 Y49.527 Z-1.431
X31.831 Y49.42 Z-1.4
X31.82 Y49.314 Z-1.382
X31.817 Y49.207 Z-1.375
Y45.88
X31.82 Y45.773 Z-1.382
X31.831 Y45.667 Z-1.4
X31.849 Y45.56 Z-1.431
X31.874 Y45.454 Z-1.474
X31.588 Y45.165 Z-0.974
X31.584 Y45.159 Z-0.964
X31.575 Y45.142 Z-0.935
X31.559 Y45.094 Z-0.852
X31.555 Y45.079 Z-0.826
X31.559 Y45.094 Z-0.852
X31.575 Y45.142 Z-0.935
X31.584 Y45.159 Z-0.964
X31.588 Y45.165 Z-0.974
X31.874 Y45.454 Z-1.474
X31.966 Y45.404 Z-1.388
X32.058 Y45.361 Z-1.313
X32.15 Y45.324 Z-1.25
X32.242 Y45.294 Z-1.198
X32.335 Y45.271 Z-1.158
X32.427 Y45.255 Z-1.129
X32.519 Y45.245 Z-1.112
X32.611 Y45.241 Z-1.106
X34.487
X34.913 Y44.603 Z-0.001
X34.487 Y45.241 Z-1.106
X35.442 Y45.879 Z-0.001
G0 Z3
X36.673 Y45.054
G1 Z-0.781 F762
X36.685 Y45.091 Z-0.845 F1000
X36.709 Y45.149 Z-0.947
X36.723 Y45.178 Z-0.997
X36.724 Y45.179 Z-0.998
Z-0.999
X36.996 Y45.452 Z-1.471
X37.089 Y45.402 Z-1.384
X37.181 Y45.358 Z-1.308
X37.273 Y45.321 Z-1.244
X37.366 Y45.291 Z-1.192
X37.458 Y45.267 Z-1.151
X37.55 Y45.25 Z-1.122
X37.643 Y45.24 Z-1.105
X37.735 Y45.237 Z-1.099
X38.617
X38.71 Y45.24 Z-1.105
X38.802 Y45.25 Z-1.122
X38.894 Y45.267 Z-1.151
X38.987 Y45.291 Z-1.192
X39.079 Y45.321 Z-1.244
X39.171 Y45.358 Z-1.308
X39.264 Y45.402 Z-1.384
X39.356 Y45.452 Z-1.471
X39.626 Y45.182 Z-1.003
X39.628 Y45.179 Z-0.998
X39.63 Y45.176 Z-0.993
X39.648 Y45.139 Z-0.928
X39.67 Y45.084 Z-0.834
X39.679 Y45.055 Z-0.783
X39.67 Y45.084 Z-0.834
X39.648 Y45.139 Z-0.928
X39.63 Y45.176 Z-0.993
X39.628 Y45.179 Z-0.998
X39.626 Y45.182 Z-1.003
X39.356 Y45.452 Z-1.471
X39.38 Y45.557 Z-1.429
X39.398 Y45.662 Z-1.399
X39.408 Y45.767 Z-1.381
X39.411 Y45.871 Z-1.375
Y47.737
X39.408 Y47.843 Z-1.382
X39.397 Y47.95 Z-1.4
X39.379 Y48.056 Z-1.431
X39.354 Y48.163 Z-1.474
X39.613 Y48.421 Z-1.027
X39.626 Y48.435 Z-1.003
X39.628 Y48.438 Z-0.998
Z-0.997
X39.63 Y48.44 Z-0.994
X39.648 Y48.478 Z-0.928
X39.672 Y48.539 Z-0.823
X39.678 Y48.557 Z-0.791
X39.672 Y48.539 Z-0.823
X39.648 Y48.478 Z-0.928
X39.63 Y48.44 Z-0.994
X39.628 Y48.438 Z-0.997
Z-0.998
X39.626 Y48.435 Z-1.003
X39.613 Y48.421 Z-1.027
X39.354 Y48.163 Z-1.474
X39.262 Y48.213 Z-1.388
X39.17 Y48.256 Z-1.313
X39.078 Y48.292 Z-1.25
X38.986 Y48.322 Z-1.198
X38.894 Y48.346 Z-1.158
X38.802 Y48.362 Z-1.129
X38.709 Y48.372 Z-1.112
X38.617 Y48.375 Z-1.106
X37.735
X37.643 Y48.372 Z-1.112
X37.551 Y48.362 Z-1.129
X37.459 Y48.346 Z-1.158
X37.367 Y48.322 Z-1.198
X37.274 Y48.292 Z-1.25
X37.182 Y48.256 Z-1.313
X37.09 Y48.213 Z-1.388
X36.998 Y48.163 Z-1.474
X36.724 Y48.437 Z-0.999
Y48.438 Z-0.998
Y48.439 Z-0.997
X36.709 Y48.467 Z-0.947
X36.685 Y48.526 Z-0.845
X36.675 Y48.557 Z-0.791
X36.685 Y48.526 Z-0.845
X36.709 Y48.467 Z-0.947
X36.724 Y48.439 Z-0.997
Y48.438 Z-0.998
Y48.437 Z-0.999
X36.998 Y48.163 Z-1.474
X36.973 Y48.056 Z-1.431
X36.955 Y47.95 Z-1.4
X36.945 Y47.843 Z-1.382
X36.941 Y47.737 Z-1.375
Y45.871
X36.944 Y45.767 Z-1.381
X36.955 Y45.662 Z-1.399
X36.972 Y45.557 Z-1.429
X36.996 Y45.452 Z-1.471
G0 Z3
X40.96 Y49.014
G1 Z-0.001 F762
X41.753 Y48.22 Z-1.375 F1000
X42.547 Y49.014 Z-0.001
X41.753 Y48.22 Z-1.375
Y45.871
X41.757 Y45.767 Z-1.381
X41.767 Y45.662 Z-1.399
X41.784 Y45.557 Z-1.429
X41.809 Y45.452 Z-1.471
X41.537 Y45.179 Z-0.998
X41.536
X41.534 Y45.176 Z-0.993
X41.516 Y45.139 Z-0.928
X41.493 Y45.078 Z-0.823
X41.485 Y45.054 Z-0.781
X41.493 Y45.078 Z-0.823
X41.516 Y45.139 Z-0.928
X41.534 Y45.176 Z-0.993
X41.536 Y45.179 Z-0.998
X41.537
X41.809 Y45.452 Z-1.471
X41.901 Y45.402 Z-1.384
X41.993 Y45.358 Z-1.308
X42.086 Y45.321 Z-1.244
X42.178 Y45.291 Z-1.192
X42.27 Y45.267 Z-1.151
X42.363 Y45.25 Z-1.122
X42.455 Y45.24 Z-1.105
X42.547 Y45.237 Z-1.099
X43.43
X43.522 Y45.24 Z-1.105
X43.614 Y45.25 Z-1.122
X43.707 Y45.267 Z-1.151
X43.799 Y45.291 Z-1.192
X43.891 Y45.321 Z-1.244
X43.984 Y45.358 Z-1.308
X44.076 Y45.402 Z-1.384
X44.168 Y45.452 Z-1.471
X45.017 Y44.603 Z-0.001
X44.168 Y45.452 Z-1.471
X44.192 Y45.557 Z-1.429
X44.21 Y45.662 Z-1.399
X44.22 Y45.767 Z-1.381
X44.224 Y45.871 Z-1.375
Y48.22
X45.017 Y49.014 Z-0.001
X44.224 Y48.22 Z-1.375
X43.43 Y49.014 Z-0.001
G0 Z3
X45.772 Y44.603
G1 Z-0.001 F762
X46.565 Y45.397 Z-1.375 F1000
X47.359 Y44.603 Z-0.001
X46.565 Y45.397 Z-1.375
Y47.737
X46.569 Y47.843 Z-1.382
X46.58 Y47.95 Z-1.4
X46.598 Y48.056 Z-1.431
X46.623 Y48.163 Z-1.474
X46.364 Y48.421 Z-1.027
X46.351 Y48.435 Z-1.003
X46.348 Y48.438 Z-0.997
X46.347 Y48.44 Z-0.994
X46.33 Y48.476 Z-0.932
X46.305 Y48.539 Z-0.823
X46.299 Y48.557 Z-0.791
X46.305 Y48.539 Z-0.823
X46.33 Y48.476 Z-0.932
X46.347 Y48.44 Z-0.994
X46.348 Y48.438 Z-0.997
X46.351 Y48.435 Z-1.003
X46.364 Y48.421 Z-1.027
X46.623 Y48.163 Z-1.474
X46.715 Y48.213 Z-1.388
X46.807 Y48.256 Z-1.313
X46.899 Y48.292 Z-1.25
X46.991 Y48.322 Z-1.198
X47.083 Y48.346 Z-1.158
X47.175 Y48.362 Z-1.129
X47.267 Y48.372 Z-1.112
X47.36 Y48.375 Z-1.106
X48.437
X48.863 Y47.737 Z-0.001
X48.437 Y48.375 Z-1.106
X49.392 Y49.014 Z-0.001
G0 Z3
X49.852 Y48.032
G1 Z-0.001 F762
X50.288 Y48.468 Z-0.757 F1000
X50.346 Y48.523 Z-0.857
X50.288 Y48.577 Z-0.757
X49.852 Y49.013 Z-0.001
X50.288 Y48.577 Z-0.757
X50.346 Y48.523 Z-0.857
X50.383 Z-0.867
X50.421 Z-0.882
X50.459 Z-0.901
X50.497 Z-0.925
X50.536 Z-0.954
X50.577 Z-0.987
X50.661 Z-1.068
X50.751 Z-1.17
X50.85 Z-1.294
X50.96 Z-1.442
X51.082 Z-1.618
X51.214 Z-1.428
X51.332 Z-1.27
X51.387 Z-1.201
X51.489 Z-1.084
X51.537 Z-1.034
X51.583 Z-0.991
X51.628 Z-0.954
X51.671 Z-0.922
X51.714 Z-0.897
X51.755 Z-0.877
X51.796 Z-0.863
X51.836 Z-0.854
X51.876 Z-0.851
X52.259
X52.75 Y48.032 Z-0.001
X52.259 Y48.523 Z-0.851
X52.75 Y49.014 Z-0.001
X52.259 Y48.523 Z-0.851
X51.876
X51.836 Z-0.854
X51.796 Z-0.863
X51.755 Z-0.877
X51.714 Z-0.897
X51.671 Z-0.922
X51.628 Z-0.954
X51.583 Z-0.991
X51.537 Z-1.034
X51.489 Z-1.084
X51.387 Z-1.201
X51.332 Z-1.27
X51.214 Z-1.428
X51.082 Z-1.618
Y48.599 Z-1.552
Y48.669 Z-1.5
Y48.734 Z-1.459
Y48.794 Z-1.427
Y48.852 Z-1.404
Y48.907 Z-1.388
Y48.961 Z-1.378
Y49.014 Z-1.375
Y49.69
X51.876 Y50.484 Z-0.001
X51.082 Y49.69 Z-1.375
X50.289 Y50.484 Z-0.001
X51.082 Y49.69 Z-1.375
Y49.014
Y48.961 Z-1.378
Y48.907 Z-1.388
Y48.852 Z-1.404
Y48.794 Z-1.427
Y48.734 Z-1.459
Y48.669 Z-1.5
Y48.599 Z-1.552
Y48.523 Z-1.618
Y48.447 Z-1.552
Y48.377 Z-1.5
Y48.312 Z-1.459
Y48.251 Z-1.427
Y48.193 Z-1.404
Y48.138 Z-1.388
Y48.084 Z-1.378
Y48.031 Z-1.375
Y45.88
X51.086 Y45.773 Z-1.382
X51.096 Y45.667 Z-1.4
X51.114 Y45.56 Z-1.431
X51.139 Y45.454 Z-1.474
X50.869 Y45.183 Z-1.006
X50.866 Y45.179 Z-0.998
X50.865
X50.863 Y45.176 Z-0.993
X50.845 Y45.139 Z-0.928
X50.822 Y45.078 Z-0.823
X50.814 Y45.054 Z-0.781
X50.822 Y45.078 Z-0.823
X50.845 Y45.139 Z-0.928
X50.863 Y45.176 Z-0.993
X50.865 Y45.179 Z-0.998
X50.866
X50.869 Y45.183 Z-1.006
X51.139 Y45.454 Z-1.474
X51.231 Y45.404 Z-1.388
X51.324 Y45.361 Z-1.313
X51.416 Y45.324 Z-1.25
X51.508 Y45.294 Z-1.198
X51.6 Y45.271 Z-1.158
X51.692 Y45.255 Z-1.129
X51.784 Y45.245 Z-1.112
X51.876 Y45.241 Z-1.106
X52.324
X52.75 Y45.879 Z-0.001
X52.324 Y45.241 Z-1.106
X53.279 Y44.603 Z-0.001
G0 Z3
X54.971 Y50.209
G1 Z-0.361 F762
X54.984 Y50.195 Z-0.394 F1000
X55.017 Y50.161 Z-0.464
X55.159 Y50.018 Z-0.713
X55.137 Y49.96 Z-0.674
X55.12 Y49.912 Z-0.646
X55.106 Y49.863 Z-0.621
X55.091 Y49.803 Z-0.596
X55.079 Y49.736 Z-0.574
X55.071 Y49.677 Z-0.561
X55.066 Y49.62 Z-0.552
X55.063 Y49.559 Z-0.547
Y47.245 Z-0.546
X55.064 Y47.19 Z-0.548
X55.068 Y47.138 Z-0.556
X55.074 Y47.092 Z-0.566
X55.086 Y47.029 Z-0.586
X55.101 Y46.964 Z-0.612
X55.118 Y46.904 Z-0.641
X55.141 Y46.832 Z-0.682
X55.171 Y46.752 Z-0.734
X55.21 Y46.659 Z-0.802
X55.254 Y46.563 Z-0.878
X55.296 Y46.478 Z-0.95
X55.298 Y46.469 Z-0.953
X55.301 Y46.423 Z-0.959
X55.302 Y45.079 Z-0.961
X55.419 Y44.966 Z-0.754
X55.485 Y44.898 Z-0.626
X55.527 Y44.85 Z-0.532
X55.554 Y44.815 Z-0.464
X55.568 Y44.791 Z-0.417
X55.609 Y44.703 Z-0.249
X55.568 Y44.791 Z-0.417
X55.554 Y44.815 Z-0.464
X55.527 Y44.85 Z-0.532
X55.485 Y44.898 Z-0.626
X55.419 Y44.966 Z-0.754
X55.302 Y45.079 Z-0.961
X55.17 Y44.945 Z-0.732
X55.105 Y44.883 Z-0.619
X55.053 Y44.839 Z-0.529
X55.005 Y44.804 Z-0.444
X54.98 Y44.787 Z-0.396
X55.005 Y44.804 Z-0.444
X55.053 Y44.839 Z-0.529
X55.105 Y44.883 Z-0.619
X55.17 Y44.945 Z-0.732
X55.302 Y45.079 Z-0.961
X55.301 Y46.423 Z-0.959
X55.298 Y46.469 Z-0.953
X55.296 Y46.478 Z-0.95
X55.254 Y46.563 Z-0.878
X55.21 Y46.659 Z-0.802
X55.171 Y46.752 Z-0.734
X55.141 Y46.832 Z-0.682
X55.118 Y46.904 Z-0.641
X55.101 Y46.964 Z-0.612
X55.086 Y47.029 Z-0.586
X55.074 Y47.092 Z-0.566
X55.068 Y47.138 Z-0.556
X55.064 Y47.19 Z-0.548
X55.063 Y47.245 Z-0.546
Y49.559 Z-0.547
X55.066 Y49.62 Z-0.552
X55.071 Y49.677 Z-0.561
X55.079 Y49.736 Z-0.574
X55.091 Y49.803 Z-0.596
X55.106 Y49.863 Z-0.621
X55.12 Y49.912 Z-0.646
X55.137 Y49.96 Z-0.674
X55.159 Y50.018 Z-0.713
X55.231 Y50.046 Z-0.666
X55.298 Y50.067 Z-0.63
X55.367 Y50.084 Z-0.599
X55.431 Y50.096 Z-0.578
X55.492 Y50.105 Z-0.563
X55.55 Y50.111 Z-0.553
X55.604 Y50.114 Z-0.548
X55.672 Y50.115 Z-0.546
X58.952 Y50.112
X59.005 Y50.104 Z-0.547
X59.051 Y50.09 Z-0.546
X59.096 Y50.07 Z-0.545
X59.129 Y50.051 Z-0.543
X59.162 Y50.026 Z-0.541
X59.203 Y49.987 Z-0.539
X59.237 Y49.949 Z-0.54
X59.264 Y49.909 Z-0.542
X59.288 Y49.862 Z-0.544
X59.306 Y49.814 Z-0.546
X59.317 Y49.762
X59.322 Y49.712
X59.323 Y49.682
X59.322 Y48.856 Z-0.544
X59.317 Y48.814 Z-0.543
X59.306 Y48.771 Z-0.542
X59.294 Y48.74 Z-0.543
X59.272 Y48.697 Z-0.544
X59.246 Y48.658
X59.216 Y48.62 Z-0.543
X59.178 Y48.582 Z-0.542
X59.144 Y48.555
X59.101 Y48.527
X59.056 Y48.507 Z-0.541
X59.007 Y48.491 Z-0.539
X58.968 Y48.484
X58.915 Y48.481 Z-0.538
X58.794
X58.341 Y48.486 Z-0.529
X58.056 Y48.489 Z-0.524
X57.851 Y48.488 Z-0.525
X57.68 Y48.486 Z-0.53
X57.541 Y48.48 Z-0.539
X57.45 Y48.474 Z-0.55
X57.376 Y48.466 Z-0.563
X57.326 Y48.459 Z-0.576
X57.288 Y48.452 Z-0.588
X57.244 Y48.442 Z-0.606
X57.188 Y48.425 Z-0.635
X57.107 Y48.394 Z-0.689
X57.07 Y48.376 Z-0.719
X57.002 Y48.338 Z-0.782
X56.979 Y48.323 Z-0.805
X56.935 Y48.343 Z-0.76
X56.892 Y48.364 Z-0.709
X56.873 Y48.374 Z-0.682
X56.825 Y48.408 Z-0.592
X56.81 Y48.418 Z-0.563
X56.825 Y48.408 Z-0.592
X56.873 Y48.374 Z-0.682
X56.892 Y48.364 Z-0.709
X56.935 Y48.343 Z-0.76
X56.979 Y48.323 Z-0.805
X56.981 Y48.298 Z-0.783
X56.988 Y48.242 Z-0.737
X57 Y48.181 Z-0.693
X57.011 Y48.138 Z-0.665
X57.035 Y48.067 Z-0.626
X57.052 Y48.024 Z-0.608
X57.079 Y47.967 Z-0.588
X57.108 Y47.913 Z-0.575
X57.144 Y47.852 Z-0.565
X57.183 Y47.791 Z-0.559
X57.225 Y47.731 Z-0.557
X59.289 Y44.835 Z-0.553
X59.28 Y44.789 Z-0.495
X59.271 Y44.753 Z-0.441
X59.27 Y44.747 Z-0.432
X59.267 Y44.738 Z-0.417
X59.27 Y44.747 Z-0.432
X59.271 Y44.753 Z-0.441
X59.28 Y44.789 Z-0.495
X59.289 Y44.835 Z-0.553
X59.367 Y44.825 Z-0.45
X59.4 Y44.819 Z-0.396
X59.409 Y44.818 Z-0.382
G0 Z3
X26.269 Y43.283
G1 Z-0.001 F762
X26.593 Y43.607 Z-0.562 F1000
X26.269 Y43.931 Z-0.001
X26.593 Y43.607 Z-0.562
X89.058
X89.382 Y43.283 Z-0.001
X89.058 Y43.607 Z-0.562
X89.382 Y43.931 Z-0.001
G0 Z3
X66.018 Y46.291
G1 Z-0.546 F762
X66.025 Y46.386 Z-0.544 F1000
X66.031 Y46.585 Z-0.537
X66.033 Y46.828 Z-0.532
X66.034 Y47.143 Z-0.531
X66.031 Y47.608 Z-0.536
X66.026 Y48.325 Z-0.545
X66.025 Y48.555 Z-0.546
X66.019 Y48.662
X66.007 Y48.766 Z-0.547
X65.987 Y48.87
X65.961 Y48.971
X65.929 Y49.069
X65.889 Y49.165 Z-0.546
X65.844 Y49.255
X65.793 Y49.343 Z-0.545
X65.734 Y49.429
X65.668 Y49.513
X65.595 Y49.596
X65.52 Y49.67
X65.44 Y49.741 Z-0.546
X65.358 Y49.806
X65.271 Y49.866 Z-0.547
X65.181 Y49.919
X65.088 Y49.966 Z-0.548
X64.992 Y50.006
X64.895 Y50.039
X64.796 Y50.065
X64.695 Y50.085 Z-0.547
X64.59 Y50.099
X64.481 Y50.106 Z-0.546
X62.375 Y50.107
X62.37
X62.27 Y50.103
X62.18 Y50.096 Z-0.548
X62.097 Y50.084 Z-0.549
X61.996 Y50.064 Z-0.551
X61.899 Y50.037 Z-0.553
X61.805 Y50.004 Z-0.554
X61.714 Y49.965 Z-0.555
X61.625 Y49.921
X61.538 Y49.87 Z-0.554
X61.453 Y49.812 Z-0.552
X61.369 Y49.748 Z-0.55
X61.286 Y49.676 Z-0.546
X61.205 Y49.597 Z-0.543
X61.132 Y49.518 Z-0.54
X61.068 Y49.439 Z-0.537
X61.01 Y49.355 Z-0.535
X60.958 Y49.269 Z-0.533
X60.912 Y49.179 Z-0.532
X60.873 Y49.087 Z-0.531
X60.841 Y48.993
X60.816 Y48.896
X60.797 Y48.797 Z-0.532
X60.785 Y48.697 Z-0.534
X60.779 Y48.598 Z-0.537
X60.773 Y48.071 Z-0.53
X60.77 Y47.712 Z-0.525
Y47.484 Z-0.524
X60.772 Y47.335 Z-0.527
X60.775 Y47.23 Z-0.533
X60.78 Y47.154 Z-0.541
X60.786 Y47.087 Z-0.552
X60.795 Y47.025 Z-0.567
X60.802 Y46.984 Z-0.58
X60.818 Y46.922 Z-0.607
X60.832 Y46.879 Z-0.631
X60.855 Y46.818 Z-0.671
X60.88 Y46.76 Z-0.715
X60.915 Y46.687 Z-0.776
X60.965 Y46.595 Z-0.862
X60.988 Y46.547 Z-0.903
X61.01 Y46.499 Z-0.94
X61.014 Y46.465 Z-0.948
X61.018 Y46.413 Z-0.952
X61.021 Y46.308 Z-0.948
X61.026 Y46.215 Z-0.938
X61.035 Y46.123 Z-0.924
X61.046 Y46.035 Z-0.904
X61.06 Y45.946 Z-0.88
X61.077 Y45.858 Z-0.851
X61.097 Y45.768 Z-0.815
X61.117 Y45.695 Z-0.782
X61.149 Y45.591 Z-0.732
X61.178 Y45.514 Z-0.692
X61.21 Y45.441 Z-0.655
X61.242 Y45.377 Z-0.624
X61.275 Y45.322 Z-0.599
X61.309 Y45.275 Z-0.579
X61.354 Y45.222 Z-0.562
X61.393 Y45.185 Z-0.554
X61.435 Y45.149 Z-0.55
X61.488 Y45.111 Z-0.549
X61.566 Y45.063 Z-0.55
X61.652 Y45.017 Z-0.551
X61.728 Y44.982 Z-0.55
X61.79 Y44.957
X61.884 Y44.925
X61.983 Y44.898 Z-0.549
X62.086 Y44.878 Z-0.548
X62.189 Y44.864 Z-0.547
X62.294 Y44.857 Z-0.546
X64.417 Y44.855
X64.464
X64.537 Y44.859
X64.627 Y44.867 Z-0.547
X64.718 Y44.88
X64.8 Y44.896 Z-0.548
X64.866 Y44.913 Z-0.547
X64.947 Y44.937 Z-0.548
X65.009 Y44.96 Z-0.547
X65.087 Y44.992
X65.177 Y45.037 Z-0.546
X65.264 Y45.088 Z-0.545
X65.35 Y45.145 Z-0.543
X65.434 Y45.21 Z-0.542
X65.516 Y45.282 Z-0.54
X65.592 Y45.359
X65.659 Y45.434 Z-0.541
X65.722 Y45.514 Z-0.542
X65.765 Y45.575 Z-0.543
X65.811 Y45.648 Z-0.544
X65.855 Y45.727 Z-0.545
X65.889 Y45.798 Z-0.547
X65.921 Y45.874
X65.951 Y45.961
X65.972 Y46.035 Z-0.548
X65.992 Y46.118 Z-0.547
X66.008 Y46.209 Z-0.546
X66.018 Y46.291
G0 Z3
X67.537 Y44.746
G1 Z-0.373 F762
X67.553 Y44.761 Z-0.409 F1000
X67.588 Y44.795 Z-0.481
X67.898 Y45.103 Z-1.019
X67.886 Y45.173 Z-0.999
X67.875 Y45.261 Z-0.98
X67.869 Y45.335 Z-0.969
X67.865 Y45.411 Z-0.963
X67.864 Y45.498 Z-0.961
X67.863 Y46.421 Z-0.958
X67.859 Y46.456 Z-0.952
X67.854 Y46.483 Z-0.943
X67.845 Y46.508 Z-0.929
X67.829 Y46.546 Z-0.901
X67.782 Y46.656 Z-0.818
X67.742 Y46.759 Z-0.749
X67.711 Y46.846 Z-0.696
X67.688 Y46.921 Z-0.655
X67.67 Y46.986 Z-0.625
X67.655 Y47.052 Z-0.598
X67.643 Y47.114 Z-0.578
X67.634 Y47.179 Z-0.562
X67.628 Y47.242 Z-0.551
X67.625 Y47.306 Z-0.546
X67.624 Y47.329
Y48.896
X67.597 Y48.924 Z-0.496
X67.562 Y48.959 Z-0.427
X67.543 Y48.978 Z-0.383
X67.562 Y48.959 Z-0.427
X67.597 Y48.924 Z-0.496
X67.624 Y48.896 Z-0.546
X67.663 Y48.934 Z-0.475
X67.694 Y48.964 Z-0.411
X67.707 Y48.976 Z-0.38
X67.694 Y48.964 Z-0.411
X67.663 Y48.934 Z-0.475
X67.624 Y48.896 Z-0.546
Y47.329
X67.625 Y47.306
X67.628 Y47.242 Z-0.551
X67.634 Y47.179 Z-0.562
X67.643 Y47.114 Z-0.578
X67.655 Y47.052 Z-0.598
X67.67 Y46.986 Z-0.625
X67.688 Y46.921 Z-0.655
X67.711 Y46.846 Z-0.696
X67.742 Y46.759 Z-0.749
X67.782 Y46.656 Z-0.818
X67.829 Y46.546 Z-0.901
X67.845 Y46.508 Z-0.929
X67.854 Y46.483 Z-0.943
X67.859 Y46.456 Z-0.952
X67.863 Y46.421 Z-0.958
X67.864 Y45.498 Z-0.961
X67.865 Y45.411 Z-0.963
X67.869 Y45.335 Z-0.969
X67.875 Y45.261 Z-0.98
X67.886 Y45.173 Z-0.999
X67.898 Y45.103 Z-1.019
X67.964 Y45.058 Z-0.942
X68.024 Y45.022 Z-0.879
X68.084 Y44.989 Z-0.821
X68.136 Y44.962 Z-0.775
X68.193 Y44.936 Z-0.73
X68.247 Y44.913 Z-0.691
X68.297 Y44.895 Z-0.66
X68.349 Y44.879 Z-0.632
X68.397 Y44.866 Z-0.609
X68.47 Y44.851 Z-0.582
X68.536 Y44.84 Z-0.564
X68.6 Y44.834 Z-0.553
X68.663 Y44.83 Z-0.547
X68.713 Z-0.546
X71.368 Y44.832 Z-0.544
X71.419 Y44.839
X71.47 Y44.849
X71.523 Y44.866
X71.573 Y44.888 Z-0.542
X71.622 Y44.915 Z-0.541
X71.669 Y44.948 Z-0.539
X71.715 Y44.989 Z-0.537
X71.751 Y45.026 Z-0.536
X71.789 Y45.074 Z-0.537
X71.823 Y45.128 Z-0.539
X71.852 Y45.184 Z-0.541
X71.874 Y45.239 Z-0.543
X71.891 Y45.298 Z-0.544
X71.903 Y45.36
X71.908 Y45.403
X71.91 Y45.474 Z-0.546
X71.909 Y46.876 Z-0.544
X71.904 Y46.932 Z-0.54
X71.895 Y46.987 Z-0.537
X71.879 Y47.047 Z-0.533
X71.858 Y47.101 Z-0.53
X71.829 Y47.156 Z-0.527
X71.794 Y47.211 Z-0.526
X71.766 Y47.246
X71.724 Y47.291 Z-0.528
X71.684 Y47.326 Z-0.531
X71.632 Y47.365 Z-0.535
X71.576 Y47.397 Z-0.539
X71.531 Y47.418 Z-0.541
X71.472 Y47.438 Z-0.542
X71.425 Y47.45
X71.386 Y47.456
X71.323 Y47.46 Z-0.545
X71.302 Z-0.546
X70.635 Y47.454 Z-0.535
X70.512 Y47.455 Z-0.538
X70.433 Y47.459 Z-0.545
X70.358 Y47.465 Z-0.555
X70.292 Y47.473 Z-0.569
X70.233 Y47.483 Z-0.586
X70.182 Y47.495 Z-0.607
X70.144 Y47.506 Z-0.625
X70.105 Y47.518 Z-0.647
X70.068 Y47.532 Z-0.672
X70.011 Y47.558 Z-0.715
X69.956 Y47.586 Z-0.764
X69.915 Y47.609 Z-0.805
X69.871 Y47.638 Z-0.855
X69.791 Y47.696 Z-0.955
X68.924 Y47.471 Z-0.563
X68.864 Y47.46 Z-0.531
X68.823 Y47.455 Z-0.504
X68.816 Y47.454 Z-0.499
X68.784 Y47.431 Z-0.436
X68.781 Y47.429 Z-0.431
X68.784 Y47.431 Z-0.436
X68.816 Y47.454 Z-0.499
X68.777 Y47.474 Z-0.431
X68.772 Y47.476 Z-0.421
X68.777 Y47.474 Z-0.431
X68.816 Y47.454 Z-0.499
X68.823 Y47.455 Z-0.504
X68.864 Y47.46 Z-0.531
X68.924 Y47.471 Z-0.563
X69.791 Y47.696 Z-0.955
X69.834 Y47.787 Z-0.855
X69.879 Y47.864 Z-0.776
X69.93 Y47.937 Z-0.709
X69.968 Y47.983 Z-0.671
X70.013 Y48.03 Z-0.638
X70.06 Y48.072 Z-0.614
X70.111 Y48.112 Z-0.597
X70.164 Y48.148 Z-0.586
X70.235 Y48.193 Z-0.578
X70.34 Y48.257 Z-0.571
X70.507 Y48.354 Z-0.564
X70.703 Y48.467 Z-0.562
X70.811 Y48.533 Z-0.564
X70.904 Y48.598 Z-0.569
X70.971 Y48.648 Z-0.575
X71.027 Y48.696 Z-0.581
X71.089 Y48.758 Z-0.591
X71.137 Y48.813 Z-0.599
X71.165 Y48.852 Z-0.603
X71.184 Y48.885 Z-0.602
X71.204 Y48.937 Z-0.591
X71.225 Y49.003 Z-0.58
X71.244 Y49.079 Z-0.569
X71.257 Y49.147 Z-0.562
X71.268 Y49.227 Z-0.557
X71.274 Y49.306 Z-0.554
X71.275 Y49.382 Z-0.553
X71.272 Y49.455 Z-0.554
X71.265 Y49.524 Z-0.556
X71.251 Y49.594 Z-0.56
X71.237 Y49.645 Z-0.564
X71.218 Y49.701 Z-0.567
X71.189 Y49.763 Z-0.571
X71.157 Y49.817 Z-0.572
X71.121 Y49.865 Z-0.569
X71.08 Y49.91 Z-0.564
X71.037 Y49.947 Z-0.557
X70.992 Y49.98 Z-0.552
X70.944 Y50.01 Z-0.549
X70.889 Y50.039
X70.842 Y50.059 Z-0.55
X70.785 Y50.077 Z-0.552
X70.734 Y50.088 Z-0.554
X70.683 Y50.093
X70.645 Y50.094 Z-0.553
X67.645
X67.62 Y50.067 Z-0.506
X67.585 Y50.029 Z-0.437
X67.559 Y49.999 Z-0.374
X67.585 Y50.029 Z-0.437
X67.62 Y50.067 Z-0.506
X67.645 Y50.094 Z-0.553
X67.609 Y50.133 Z-0.485
X67.576 Y50.17 Z-0.415
X67.552 Y50.197 Z-0.357
G0 Z3
X73.407 Y48.874
G1 Z-0.531 F762
X73.4 Y48.847 F1000
X73.385 Y48.747 Z-0.533
X73.379 Y48.686 Z-0.534
X73.374 Y48.591 Z-0.537
X73.37 Y48.263 Z-0.533
X73.365 Y47.713 Z-0.525
Y47.484 Z-0.524
X73.367 Y47.335 Z-0.527
X73.37 Y47.23 Z-0.533
X73.375 Y47.154 Z-0.541
X73.381 Y47.087 Z-0.552
X73.39 Y47.025 Z-0.567
X73.397 Y46.984 Z-0.58
X73.411 Y46.928 Z-0.604
X73.427 Y46.879 Z-0.631
X73.45 Y46.817 Z-0.671
X73.475 Y46.76 Z-0.715
X73.512 Y46.685 Z-0.779
X73.56 Y46.595 Z-0.862
X73.587 Y46.54 Z-0.908
X73.605 Y46.499 Z-0.94
X73.609 Y46.471 Z-0.947
X73.612 Y46.424 Z-0.952
X73.614 Y46.356 Z-0.951
X73.618 Y46.261 Z-0.943
X73.625 Y46.169 Z-0.931
X73.635 Y46.079 Z-0.915
X73.648 Y45.99 Z-0.893
X73.663 Y45.903 Z-0.866
X73.682 Y45.813 Z-0.834
X73.704 Y45.722 Z-0.795
X73.73 Y45.632 Z-0.752
X73.765 Y45.533 Z-0.702
X73.797 Y45.457 Z-0.663
X73.831 Y45.388 Z-0.63
X73.862 Y45.335 Z-0.605
X73.9 Y45.28 Z-0.582
X73.946 Y45.225 Z-0.563
X73.985 Y45.188 Z-0.555
X74.03 Y45.149 Z-0.55
X74.085 Y45.11 Z-0.549
X74.161 Y45.063 Z-0.55
X74.246 Y45.018 Z-0.551
X74.324 Y44.981
X74.385 Y44.957 Z-0.55
X74.479 Y44.925
X74.579 Y44.898 Z-0.549
X74.681 Y44.878 Z-0.548
X74.784 Y44.864 Z-0.547
X74.889 Y44.857 Z-0.546
X77.012 Y44.855
X77.059
X77.132 Y44.859
X77.222 Y44.867 Z-0.547
X77.313 Y44.88
X77.395 Y44.896 Z-0.548
X77.461 Y44.913 Z-0.547
X77.542 Y44.937 Z-0.548
X77.604 Y44.96 Z-0.547
X77.682 Y44.992
X77.741 Y45.021 Z-0.546
X77.816 Y45.061
X77.903 Y45.116 Z-0.544
X77.987 Y45.177 Z-0.543
X78.07 Y45.245 Z-0.541
X78.151 Y45.322 Z-0.54
X78.221 Y45.396
X78.287 Y45.474 Z-0.541
X78.346 Y45.555 Z-0.543
X78.388 Y45.619 Z-0.544
X78.431 Y45.692 Z-0.545
X78.472 Y45.773 Z-0.546
X78.503 Y45.844 Z-0.547
X78.533 Y45.922
X78.562 Y46.013
X78.585 Y46.108
X78.6 Y46.185
X78.611 Y46.269 Z-0.546
X78.62 Y46.386 Z-0.544
X78.626 Y46.585 Z-0.537
X78.629 Y46.86 Z-0.532
Y47.141 Z-0.531
X78.626 Y47.644 Z-0.536
X78.621 Y48.299 Z-0.545
X78.62 Y48.555 Z-0.546
X78.614 Y48.662
X78.602 Y48.766 Z-0.547
X78.582 Y48.87
X78.556 Y48.971
X78.524 Y49.07
X78.484 Y49.165 Z-0.546
X78.439 Y49.255
X78.388 Y49.343 Z-0.545
X78.329 Y49.429
X78.263 Y49.513
X78.19 Y49.596
X78.115 Y49.67
X78.036 Y49.741 Z-0.546
X77.953 Y49.806
X77.866 Y49.866 Z-0.547
X77.776 Y49.92
X77.683 Y49.966 Z-0.548
X77.587 Y50.006
X77.49 Y50.039
X77.391 Y50.065
X77.29 Y50.085 Z-0.547
X77.185 Y50.099
X77.076 Y50.106 Z-0.546
X74.97 Y50.107
X74.914 Y50.106
X74.814 Y50.1 Z-0.547
X74.726 Y50.089 Z-0.548
X74.641 Y50.074 Z-0.55
X74.542 Y50.051 Z-0.552
X74.447 Y50.021 Z-0.554
X74.354 Y49.986 Z-0.555
X74.264 Y49.944
X74.176 Y49.896
X74.09 Y49.842 Z-0.553
X74.006 Y49.781 Z-0.551
X73.923 Y49.713 Z-0.548
X73.84 Y49.637 Z-0.544
X73.762 Y49.557 Z-0.541
X73.694 Y49.478 Z-0.539
X73.633 Y49.397 Z-0.536
X73.578 Y49.312 Z-0.534
X73.529 Y49.224 Z-0.533
X73.487 Y49.134 Z-0.531
X73.451 Y49.04
X73.423 Y48.945
X73.407 Y48.874
G0 Z3
X80.002 Y49.412
G1 Z-0.393 F762
X80.015 Y49.43 Z-0.429 F1000
X80.04 Y49.462 Z-0.491
X80.067 Y49.424 Z-0.424
X80.077 Y49.409 Z-0.394
X80.067 Y49.424 Z-0.424
X80.04 Y49.462 Z-0.491
Y49.487 Z-0.501
X80.041 Y49.533 Z-0.511
X80.046 Y49.603 Z-0.523
X80.055 Y49.673 Z-0.537
X80.066 Y49.741 Z-0.556
X80.075 Y49.79 Z-0.575
X80.088 Y49.854 Z-0.605
X80.106 Y49.918 Z-0.64
X80.123 Y49.967 Z-0.667
X80.145 Y50.012 Z-0.693
X80.116 Y50.046 Z-0.629
X80.088 Y50.079 Z-0.558
X80.116 Y50.046 Z-0.629
X80.145 Y50.012 Z-0.693
X80.211 Y50.039 Z-0.649
X80.255 Y50.053 Z-0.623
X80.314 Y50.071 Z-0.594
X80.383 Y50.086 Z-0.567
X80.438 Y50.095 Z-0.551
X80.5 Y50.102 Z-0.539
X80.556 Y50.106 Z-0.533
X81.257 Y50.107 Z-0.531
X81.284 Y50.106 Z-0.532
X81.352 Y50.104 Z-0.537
X81.408 Y50.099 Z-0.545
X81.461 Y50.092 Z-0.557
X81.524 Y50.08 Z-0.578
X81.583 Y50.065 Z-0.603
X81.656 Y50.043 Z-0.641
X81.701 Y50.026 Z-0.67
X81.767 Y49.998 Z-0.719
X81.83 Y49.968 Z-0.772
X81.883 Y49.994 Z-0.726
X81.932 Y50.016 Z-0.688
X81.98 Y50.035 Z-0.655
X82.026 Y50.051 Z-0.628
X82.098 Y50.072 Z-0.591
X82.158 Y50.085 Z-0.568
X82.22 Y50.095 Z-0.551
X82.275 Y50.102 Z-0.54
X82.328 Y50.105 Z-0.534
X82.392 Y50.107 Z-0.531
X83.616 Z-0.529
X83.648 Z-0.523
X83.664 Z-0.517
X83.698 Y50.079 Z-0.453
X83.72 Y50.062 Z-0.407
X83.698 Y50.079 Z-0.453
X83.664 Y50.107 Z-0.517
X83.702 Y50.136 Z-0.449
X83.729 Y50.157 Z-0.392
X83.702 Y50.136 Z-0.449
X83.664 Y50.107 Z-0.517
X83.648 Z-0.523
X83.616 Z-0.529
X82.392 Z-0.531
X82.328 Y50.105 Z-0.534
X82.275 Y50.102 Z-0.54
X82.22 Y50.095 Z-0.551
X82.158 Y50.085 Z-0.568
X82.098 Y50.072 Z-0.591
X82.026 Y50.051 Z-0.628
X81.98 Y50.035 Z-0.655
X81.932 Y50.016 Z-0.688
X81.883 Y49.994 Z-0.726
X81.83 Y49.968 Z-0.772
Y49.924 Z-0.73
Y49.871 Z-0.685
Y49.82 Z-0.647
Y49.772 Z-0.618
Y49.73 Z-0.596
Y49.674 Z-0.575
X81.829 Y49.62 Z-0.561
Y49.567 Z-0.554
Y47.094 Z-0.553
X81.832 Y47.024 Z-0.56
X81.844 Y46.953 Z-0.58
X81.864 Y46.883 Z-0.614
X81.891 Y46.812 Z-0.661
X81.926 Y46.741 Z-0.722
X81.975 Y46.652 Z-0.806
X82.029 Y46.548 Z-0.9
X82.058 Y46.487 Z-0.951
X82.059 Y46.484 Z-0.952
X82.063 Y46.437 Z-0.958
X82.064 Y45.078 Z-0.961
X82.002 Y45.02 Z-0.854
X81.941 Y44.969 Z-0.748
X81.899 Y44.935 Z-0.668
X81.868 Y44.91 Z-0.603
X81.899 Y44.935 Z-0.668
X81.941 Y44.969 Z-0.748
X82.002 Y45.02 Z-0.854
X82.064 Y45.078 Z-0.961
X82.151 Y44.992 Z-0.81
X82.219 Y44.926 Z-0.684
X82.274 Y44.872 Z-0.574
X82.323 Y44.823 Z-0.469
X82.372 Y44.771 Z-0.349
X82.399 Y44.739 Z-0.277
G0 Z3
X84.866 Y45.362
G1 Z-0.372 F762
X84.887 Y45.344 Z-0.419 F1000
X84.931 Y45.303 Z-0.518
X84.985 Y45.251 Z-0.631
X85.036 Y45.2 Z-0.729
X85.103 Y45.134 Z-0.848
X85.171 Y45.069 Z-0.96
X85.109 Y44.998 Z-0.838
X85.06 Y44.935 Z-0.729
X85.023 Y44.882 Z-0.63
X85.01 Y44.865 Z-0.594
X85.023 Y44.882 Z-0.63
X85.06 Y44.935 Z-0.729
X85.109 Y44.998 Z-0.838
X85.171 Y45.069 Z-0.96
X86.515 Y45.07 Z-0.956
X86.57 Y45.067 Z-0.95
X86.581 Y45.066 Z-0.948
X86.589 Y45.062 Z-0.941
X86.674 Y45.02 Z-0.868
X86.788 Y44.957 Z-0.759
X86.873 Y44.912 Z-0.681
X86.934 Y44.886 Z-0.636
X86.994 Y44.866 Z-0.601
X87.055 Y44.852 Z-0.576
X87.116 Y44.844 Z-0.561
X87.177 Y44.841 Z-0.556
X88.311 Y44.842 Z-0.553
X88.342 Y44.843 Z-0.554
X88.391 Y44.845 Z-0.555
X88.455 Y44.855 Z-0.557
X88.506 Y44.868
X88.553 Y44.884
X88.605 Y44.908 Z-0.556
X88.655 Y44.937 Z-0.555
X88.701 Y44.971
X88.755 Y45.018 Z-0.557
X88.792 Y45.057 Z-0.559
X88.826 Y45.101 Z-0.563
X88.858 Y45.149 Z-0.567
X88.883 Y45.195 Z-0.569
X88.902 Y45.239 Z-0.571
X88.916 Y45.283 Z-0.57
X88.927 Y45.328 Z-0.567
X88.936 Y45.387 Z-0.561
X88.942 Y45.466 Z-0.553
X88.947 Y45.551 Z-0.551
X88.95 Y45.627 Z-0.554
Y45.719 Z-0.562
X88.946 Y45.802 Z-0.574
X88.938 Y45.872 Z-0.585
X88.926 Y45.928 Z-0.593
X88.909 Y45.987 Z-0.601
X88.894 Y46.024 Z-0.604
X88.875 Y46.061 Z-0.603
X88.854 Y46.09 Z-0.599
X88.818 Y46.129 Z-0.586
X88.771 Y46.172 Z-0.573
X88.723 Y46.212 Z-0.565
X85.209 Y48.742 Z-0.553
X85.177 Y48.766 Z-0.555
X85.147 Y48.791 Z-0.559
X85.106 Y48.827 Z-0.569
X85.066 Y48.868 Z-0.585
X85.028 Y48.91 Z-0.606
X85.02 Y48.926
X85.009 Y48.957 Z-0.603
X84.996 Y49.005 Z-0.596
X84.987 Y49.055 Z-0.587
X84.98 Y49.128 Z-0.575
X84.978 Y49.2 Z-0.567
X84.979 Y49.281 Z-0.561
X84.983 Y49.387 Z-0.56
X84.989 Y49.473 Z-0.564
X84.997 Y49.563 Z-0.575
X85.005 Y49.61 Z-0.58
X85.017 Y49.656 Z-0.583
X85.032 Y49.701 Z-0.584
X85.051 Y49.746 Z-0.582
X85.073 Y49.787 Z-0.579
X85.101 Y49.831 Z-0.574
X85.135 Y49.874 Z-0.569
X85.165 Y49.907 Z-0.565
X85.216 Y49.955 Z-0.56
X85.259 Y49.988 Z-0.558
X85.305 Y50.017 Z-0.557
X85.352 Y50.042
X85.402 Y50.062
X85.454 Y50.078 Z-0.556
X85.506 Y50.088
X85.57 Y50.093 Z-0.554
X85.605 Y50.094 Z-0.553
X88.941
X88.983 Y50.051 Z-0.476
X89.013 Y50.021 Z-0.411
X89.024 Y50.01 Z-0.385
X89.013 Y50.021 Z-0.411
X88.983 Y50.051 Z-0.476
X88.941 Y50.094 Z-0.553
X88.976 Y50.13 Z-0.489
X89.008 Y50.162 Z-0.422
X89.024 Y50.178 Z-0.385
G0 Z3
X6.765 Y44.603
G1 Z-0.001 F762
X7.559 Y45.397 Z-1.375 F1000
X8.352 Y44.603 Z-0.001
X7.559 Y45.397 Z-1.375
Y47.056
X7.562 Y47.154 Z-1.381
X7.57 Y47.251 Z-1.396
X7.585 Y47.349 Z-1.422
X7.606 Y47.446 Z-1.458
X7.633 Y47.544 Z-1.505
X7.606 Y47.641 Z-1.458
X7.585 Y47.739 Z-1.422
X7.57 Y47.836 Z-1.396
X7.562 Y47.934 Z-1.381
X7.559 Y48.031 Z-1.375
Y49.691
X6.765 Y50.484 Z-0.001
X7.559 Y49.691 Z-1.375
X8.352 Y50.484 Z-0.001
X7.559 Y49.691 Z-1.375
Y48.031
X7.562 Y47.934 Z-1.381
X7.57 Y47.836 Z-1.396
X7.585 Y47.739 Z-1.422
X7.606 Y47.641 Z-1.458
X7.633 Y47.544 Z-1.505
X7.753 Z-1.338
X7.86 Z-1.2
X7.91 Z-1.141
X8.002 Z-1.04
X8.046 Z-0.998
X8.087 Z-0.961
X8.128 Z-0.93
X8.167 Z-0.903
X8.205 Z-0.882
X8.243 Z-0.865
X8.28 Z-0.854
X8.316 Z-0.847
X9.596 Z-0.844
X9.633 Z-0.847
X9.669 Z-0.854
X9.706 Z-0.865
X9.743 Z-0.882
X9.782 Z-0.903
X9.821 Z-0.93
X9.861 Z-0.961
X9.903 Z-0.998
X9.992 Z-1.087
X10.089 Z-1.2
X10.196 Z-1.338
X10.315 Z-1.505
X10.342 Y47.446 Z-1.458
X10.363 Y47.349 Z-1.422
X10.378 Y47.251 Z-1.396
X10.387 Y47.154 Z-1.381
X10.39 Y47.056 Z-1.375
Y45.397
X9.597 Y44.603 Z-0.001
X10.39 Y45.397 Z-1.375
X11.184 Y44.603 Z-0.001
X10.39 Y45.397 Z-1.375
Y47.056
X10.387 Y47.154 Z-1.381
X10.378 Y47.251 Z-1.396
X10.363 Y47.349 Z-1.422
X10.342 Y47.446 Z-1.458
X10.315 Y47.544 Z-1.505
X10.342 Y47.641 Z-1.458
X10.363 Y47.739 Z-1.422
X10.378 Y47.836 Z-1.396
X10.387 Y47.934 Z-1.381
X10.39 Y48.031 Z-1.375
Y49.691
X11.184 Y50.484 Z-0.001
X10.39 Y49.691 Z-1.375
X9.597 Y50.484 Z-0.001
G0 Z13
M30
%
