%
(top4-3_4)
(T1  D=18.745 CR=0 - ZMIN=-12.2 - flat end mill)
G90 G94
G17
G21

(Rough-3_4)
M9
T1 M6
S16000 M3
G54
G0 X36.336 Y35.125
Z15
Z5
Z2.5
G3 X26.892 Y20.028 Z1.523 I-4.722 J-7.549 F333.3
X36.336 Y35.125 Z0.546 I4.722 J7.549
X26.892 Y20.028 Z-0.43 I-4.722 J-7.549
X36.336 Y35.125 Z-1.407 I4.722 J7.549
X26.892 Y20.028 Z-2.384 I-4.722 J-7.549
X36.336 Y35.125 Z-3.361 I4.722 J7.549
X26.892 Y20.028 Z-4.338 I-4.722 J-7.549
X40.518 Y27.577 Z-5 I4.722 J7.549
X22.71 I-8.904
X40.518 I8.904
G1 X40.52 Y27.969 F1400
X40.557 Y28.36
X40.629 Y28.746
X41.054 Y30.258
X41.118 Y30.383
X41.242 Y30.652
X41.356 Y30.962
X41.454 Y31.312
X41.53 Y31.701
X41.578 Y32.13
X41.593 Y32.595
X41.568 Y33.095
X41.5 Y33.625
X41.381 Y34.181
X41.209 Y34.76
X40.978 Y35.354
X40.686 Y35.958
X40.33 Y36.564
X39.908 Y37.167
X39.419 Y37.758
X38.863 Y38.329
X38.51 Y38.638
X38.131 Y38.923
X37.716 Y39.152
X37.273 Y39.319
X36.81 Y39.42
X36.337 Y39.454
X28.248
X27.64 Y39.423
X26.916 Y39.328
X26.17 Y39.169
X25.411 Y38.942
X24.645 Y38.643
X23.881 Y38.273
X23.127 Y37.828
X22.39 Y37.311
X21.679 Y36.721
X21.002 Y36.06
X20.367 Y35.332
X20.02 Y34.863
X19.792 Y34.51
X19.611 Y34.131
X19.479 Y33.732
X19.399 Y33.32
X19.373 Y32.9
Y25.057
X19.429 Y23.929
X19.53 Y23.16
X19.698 Y22.374
X19.937 Y21.575
X20.249 Y20.774
X20.636 Y19.977
X21.098 Y19.192
X21.634 Y18.429
X22.244 Y17.695
X22.924 Y16.998
X23.48 Y16.512
X23.858 Y16.228
X24.272 Y16
X24.715 Y15.834
X25.177 Y15.733
X25.649 Y15.699
X34.979
X35.587 Y15.73
X36.312 Y15.825
X37.057 Y15.984
X37.817 Y16.211
X38.582 Y16.51
X39.346 Y16.88
X40.101 Y17.325
X40.838 Y17.842
X41.549 Y18.432
X42.226 Y19.093
X42.861 Y19.821
X43.743 Y21.013
X44.573 Y22.347
X45.331 Y23.722
X45.995 Y25.146
X46.493 Y26.488
X46.86 Y27.783
X47.108 Y29.038
X47.25 Y30.269
X47.292 Y31.484
X47.237 Y32.688
X47.086 Y33.879
X46.84 Y35.054
X46.499 Y36.21
X46.08 Y37.3
X45.945 Y37.582
X45.716 Y37.984
X45.433 Y38.35
X45.101 Y38.673
X44.727 Y38.947
X44.319 Y39.165
X43.884 Y39.325
X43.432 Y39.421
X42.97 Y39.454
X36.337
G3 X35.581 Y39.265 I0.065 J-1.873 F1000
X35.205 Y39.023 I0.822 J-1.685 F1400
G1 X20.048 Y26.434
G3 X19.561 Y25.813 I1.198 J-1.442
X19.373 Y25.057 I1.685 J-0.822 F1000
G1 Y18.338 F1400
X19.403 Y17.726
X19.495 Y17.317
X19.658 Y16.931
X19.888 Y16.581
X20.177 Y16.278
X20.515 Y16.031
X20.892 Y15.849
X21.296 Y15.737
X21.713 Y15.699
G3 X22.484 Y15.835 I-0.098 J2.807 F1000
X23.478 Y16.405 I-0.869 J2.671 F1400
X20.202 Y20.099 I-1.638 J1.847
X19.523 Y19.106 I1.638 J-1.847
X19.373 Y18.338 I2.317 J-0.854 F1000
G1 Y17.778 F1400
X19.375 Y17.498
X19.41 Y17.218
X19.49 Y16.938
X19.621 Y16.658
X19.717 Y16.508
X19.835 Y16.358
X19.971 Y16.216
X20.107 Y16.099
X20.251 Y15.996
X20.396 Y15.912
X20.676 Y15.793
X20.957 Y15.724
X21.518 Y15.699
X25.649
G3 X26.406 Y15.888 I-0.065 J1.873 F1000
X27.443 Y17.331 I-0.822 J1.685 F1400
G1 X30.042 Y37.339
G3 X29.005 Y39.265 I-1.859 J0.241
X28.248 Y39.454 I-0.822 J-1.685 F1000
G1 X22.079 F1400
X21.592 Y39.43
X21.193 Y39.344
X20.813 Y39.197
X20.461 Y38.99
X20.147 Y38.731
X19.878 Y38.424
X19.661 Y38.079
X19.502 Y37.703
X19.405 Y37.307
X19.373 Y36.9
G3 X19.511 Y36.13 I2.736 J0.096 F1000
X20.118 Y35.117 I2.597 J0.866 F1400
X23.86 Y38.648 I1.871 J1.766
X22.847 Y39.308 I-1.871 J-1.766
X22.079 Y39.454 I-0.858 J-2.425 F1000
G1 X21.518 F1400
X20.957 Y39.429
X20.676 Y39.36
X20.396 Y39.241
X20.251 Y39.157
X20.107 Y39.054
X19.971 Y38.937
X19.835 Y38.795
X19.717 Y38.645
X19.621 Y38.495
X19.49 Y38.215
X19.41 Y37.935
X19.375 Y37.655
X19.373 Y37.375
Y32.9
G3 X19.561 Y32.144 I1.873 J0.065 F1000
X19.85 Y31.715 I1.685 J0.822 F1400
G1 X33.649 Y16.321
G3 X34.223 Y15.888 I1.396 J1.251
X34.979 Y15.699 I0.822 J1.685 F1000
G1 X41.149 F1400
X41.648 Y15.724
X42.217 Y15.799
X42.803 Y15.924
X43.483 Y16.128
X44.201 Y16.407
X44.996 Y16.793
X45.823 Y17.28
X46.672 Y17.877
X47.554 Y18.608
X48.397 Y19.431
X49.219 Y20.374
X50.008 Y21.44
X50.74 Y22.616
X51.392 Y23.88
X51.952 Y25.22
X52.412 Y26.629
X52.764 Y28.097
X53.002 Y29.618
X53.118 Y31.179
X53.11 Y32.733
X52.992 Y34.098
X52.791 Y35.295
X52.521 Y36.364
X52.195 Y37.326
X52.136 Y37.462
X51.915 Y37.887
X51.634 Y38.276
X51.3 Y38.619
X50.92 Y38.911
X50.501 Y39.145
X50.053 Y39.315
X49.585 Y39.419
X49.106 Y39.454
X42.97
G3 X42.213 Y39.265 I0.065 J-1.873 F1000
X41.168 Y37.75 I0.822 J-1.685 F1400
G1 X39.348 Y17.742
G3 X40.393 Y15.888 I1.867 J-0.17
X41.149 Y15.699 I0.822 J1.685 F1000
G1 X47.067 F1400
X47.599 Y15.726
X48.189 Y15.803
X48.81 Y15.936
X49.5 Y16.143
X50.206 Y16.418
X50.984 Y16.795
X51.752 Y17.247
X52.579 Y17.828
X53.393 Y18.504
X54.207 Y19.298
X55.033 Y20.245
X55.807 Y21.291
X56.535 Y22.461
X57.218 Y23.784
X57.824 Y25.233
X58.312 Y26.726
X58.682 Y28.253
X58.934 Y29.803
X59.066 Y31.368
X59.075 Y32.845
X58.979 Y34.14
X58.799 Y35.301
X58.549 Y36.348
X58.241 Y37.292
X58.174 Y37.453
X57.958 Y37.879
X57.682 Y38.269
X57.352 Y38.615
X56.975 Y38.908
X56.56 Y39.143
X56.114 Y39.314
X55.648 Y39.419
X55.171 Y39.454
X49.106
G3 X48.35 Y39.265 I0.065 J-1.873 F1000
X47.307 Y37.771 I0.822 J-1.685 F1400
G1 X45.267 Y17.763
G3 X46.31 Y15.888 I1.865 J-0.19
X47.067 Y15.699 I0.822 J1.685 F1000
G1 X52.928 F1400
X53.509 Y15.728
X54.097 Y15.805
X54.7 Y15.934
X55.386 Y16.14
X56.077 Y16.409
X56.849 Y16.784
X57.611 Y17.232
X58.441 Y17.815
X59.257 Y18.492
X60.085 Y19.3
X60.926 Y20.265
X61.715 Y21.331
X62.466 Y22.538
X63.169 Y23.899
X63.775 Y25.349
X64.266 Y26.841
X64.641 Y28.366
X64.898 Y29.915
X65.035 Y31.48
X65.048 Y32.928
X64.958 Y34.193
X64.783 Y35.336
X64.538 Y36.374
X64.236 Y37.311
X64.192 Y37.416
X63.974 Y37.85
X63.694 Y38.247
X63.359 Y38.599
X62.977 Y38.898
X62.554 Y39.137
X62.101 Y39.312
X61.627 Y39.418
X61.143 Y39.454
X55.171
G3 X54.415 Y39.265 I0.065 J-1.873 F1000
X53.374 Y37.789 I0.822 J-1.685 F1400
G1 X51.13 Y17.781
G3 X52.171 Y15.888 I1.863 J-0.209
X52.928 Y15.699 I0.822 J1.685 F1000
G1 X58.845 F1400
X59.387 Y15.726
X59.975 Y15.803
X60.583 Y15.933
X61.272 Y16.14
X61.97 Y16.412
X62.749 Y16.789
X63.518 Y17.243
X64.359 Y17.833
X65.18 Y18.514
X66.021 Y19.335
X66.872 Y20.311
X67.67 Y21.389
X68.43 Y22.61
X69.139 Y23.985
X69.745 Y25.434
X70.236 Y26.926
X70.612 Y28.451
X70.87 Y30
X71.007 Y31.565
X71.02 Y32.988
X70.93 Y34.231
X70.758 Y35.356
X70.514 Y36.388
X70.213 Y37.321
X70.172 Y37.418
X69.954 Y37.851
X69.675 Y38.248
X69.34 Y38.599
X68.957 Y38.898
X68.535 Y39.137
X68.082 Y39.312
X67.608 Y39.418
X67.124 Y39.454
X61.143
G3 X60.387 Y39.265 I0.065 J-1.873 F1000
X59.346 Y37.794 I0.822 J-1.685 F1400
G1 X57.048 Y17.786
G3 X58.089 Y15.888 I1.862 J-0.214
X58.845 Y15.699 I0.822 J1.685 F1000
G1 X64.707 F1400
X65.3 Y15.729
X65.89 Y15.806
X66.504 Y15.937
X67.194 Y16.144
X67.9 Y16.419
X68.681 Y16.798
X69.458 Y17.256
X70.305 Y17.85
X71.129 Y18.534
X71.977 Y19.362
X72.833 Y20.343
X73.633 Y21.425
X74.398 Y22.653
X75.11 Y24.034
X75.716 Y25.484
X76.208 Y26.975
X76.584 Y28.5
X76.841 Y30.05
X76.977 Y31.615
X76.988 Y33.028
X76.898 Y34.264
X76.726 Y35.381
X76.481 Y36.409
X76.18 Y37.34
X76.138 Y37.441
X75.921 Y37.869
X75.644 Y38.262
X75.313 Y38.609
X74.934 Y38.904
X74.516 Y39.141
X74.068 Y39.314
X73.599 Y39.419
X73.12 Y39.454
X67.124
G3 X66.368 Y39.265 I0.065 J-1.873 F1000
X65.328 Y37.805 I0.822 J-1.685 F1400
G1 X62.911 Y17.797
G3 X63.95 Y15.888 I1.861 J-0.225
X64.707 Y15.699 I0.822 J1.685 F1000
G1 X70.877 F1400
X71.228 Y15.717
X71.819 Y15.794
X72.439 Y15.927
X73.129 Y16.134
X73.842 Y16.411
X74.625 Y16.791
X75.407 Y17.252
X76.258 Y17.849
X77.084 Y18.535
X77.938 Y19.369
X78.796 Y20.352
X79.598 Y21.435
X80.365 Y22.669
X81.08 Y24.053
X81.686 Y25.503
X82.177 Y26.994
X82.553 Y28.519
X82.81 Y30.069
X82.946 Y31.634
X82.957 Y33.047
X82.866 Y34.283
X82.694 Y35.399
X82.45 Y36.425
X82.148 Y37.354
X82.12 Y37.422
X81.902 Y37.854
X81.622 Y38.25
X81.287 Y38.601
X80.905 Y38.899
X80.483 Y39.138
X80.03 Y39.312
X79.557 Y39.418
X79.073 Y39.454
X73.12
G3 X72.364 Y39.265 I0.065 J-1.873 F1000
X71.323 Y37.789 I0.822 J-1.685 F1400
G1 X69.079 Y17.781
G3 X70.12 Y15.888 I1.863 J-0.209
X70.877 Y15.699 I0.822 J1.685 F1000
G1 X76.486 F1400
X77.198 Y15.735
X77.789 Y15.812
X78.408 Y15.945
X79.099 Y16.152
X79.81 Y16.429
X80.594 Y16.809
X81.376 Y17.27
X82.227 Y17.867
X83.053 Y18.553
X83.908 Y19.387
X84.766 Y20.37
X85.567 Y21.453
X86.335 Y22.687
X87.049 Y24.071
X87.655 Y25.52
X88.146 Y27.012
X88.522 Y28.537
X88.779 Y30.087
X88.915 Y31.652
X88.925 Y33.057
X88.835 Y34.286
X88.663 Y35.398
X88.419 Y36.423
X88.118 Y37.351
X88.088 Y37.422
X87.869 Y37.855
X87.59 Y38.251
X87.255 Y38.601
X86.872 Y38.899
X86.45 Y39.138
X85.998 Y39.312
X85.525 Y39.418
X85.041 Y39.454
X79.073
G3 X78.317 Y39.265 I0.065 J-1.873 F1000
X77.28 Y37.821 I0.822 J-1.685 F1400
G1 X74.692 Y17.813
G3 X75.729 Y15.888 I1.859 J-0.24
X76.486 Y15.699 I0.822 J1.685 F1000
G1 X82.655 F1400
X83.146 Y15.724
X83.737 Y15.801
X84.359 Y15.934
X85.05 Y16.141
X85.766 Y16.42
X86.549 Y16.8
X87.335 Y17.263
X88.187 Y17.861
X89.015 Y18.548
X89.872 Y19.384
X90.731 Y20.369
X91.533 Y21.453
X92.302 Y22.689
X93.017 Y24.075
X93.623 Y25.525
X94.115 Y27.016
X94.49 Y28.542
X94.747 Y30.091
X94.883 Y31.656
X94.893 Y33.061
X94.803 Y34.289
X94.631 Y35.401
X94.386 Y36.426
X94.085 Y37.354
X94.033 Y37.477
X93.82 Y37.898
X93.548 Y38.284
X93.222 Y38.625
X92.85 Y38.914
X92.44 Y39.147
X92 Y39.316
X91.539 Y39.419
X91.069 Y39.454
X85.041
G3 X84.285 Y39.265 I0.065 J-1.873 F1000
X83.246 Y37.802 I0.822 J-1.685 F1400
G1 X80.86 Y17.794
G3 X81.899 Y15.888 I1.861 J-0.222
X82.655 Y15.699 I0.822 J1.685 F1000
G1 X88.573 F1400
X89.114 Y15.726
X89.705 Y15.804
X90.327 Y15.937
X91.018 Y16.144
X91.733 Y16.422
X92.517 Y16.803
X93.303 Y17.265
X94.155 Y17.864
X94.983 Y18.551
X95.84 Y19.387
X96.699 Y20.372
X97.501 Y21.456
X98.27 Y22.692
X98.985 Y24.078
X99.591 Y25.528
X100.083 Y27.019
X100.458 Y28.545
X100.715 Y30.094
X100.851 Y31.659
X100.861 Y33.075
X100.77 Y34.311
X100.597 Y35.427
X100.353 Y36.451
X100.051 Y37.377
X100.032 Y37.423
X99.814 Y37.856
X99.534 Y38.251
X99.199 Y38.602
X98.817 Y38.9
X98.395 Y39.138
X97.943 Y39.312
X97.47 Y39.418
X96.986 Y39.454
X91.069
G3 X90.312 Y39.265 I0.065 J-1.873 F1000
X89.274 Y37.813 I0.822 J-1.685 F1400
G1 X86.778 Y17.805
G3 X87.816 Y15.888 I1.86 J-0.232
X88.573 Y15.699 I0.822 J1.685 F1000
G1 X94.434 F1400
X95.084 Y15.732
X95.675 Y15.809
X96.296 Y15.942
X96.987 Y16.149
X97.702 Y16.428
X98.486 Y16.808
X99.272 Y17.27
X100.124 Y17.869
X100.435 Y18.127
X100.783 Y18.462
X101.078 Y18.843
X101.314 Y19.264
X101.487 Y19.714
X101.592 Y20.185
X101.627 Y20.666
G3 X101.439 Y21.423 I-1.873 J-0.065 F1000
X98.818 Y22.225 I-1.685 J-0.822 F1400
G1 X93.564 Y19.197
G3 X93.678 Y15.888 I0.936 J-1.624
X94.434 Y15.699 I0.822 J1.685 F1000
G1 X99.482 F1400
X100.043 Y15.724
X100.324 Y15.793
X100.604 Y15.912
X100.749 Y15.996
X100.893 Y16.099
X101.029 Y16.216
X101.165 Y16.358
X101.283 Y16.508
X101.379 Y16.658
X101.51 Y16.938
X101.59 Y17.218
X101.625 Y17.498
X101.627 Y17.778
Y37.375
X101.625 Y37.655
X101.59 Y37.935
X101.51 Y38.215
X101.379 Y38.495
X101.283 Y38.645
X101.165 Y38.795
X101.029 Y38.937
X100.893 Y39.054
X100.749 Y39.157
X100.604 Y39.241
X100.324 Y39.36
X100.043 Y39.429
X99.482 Y39.454
X96.986
X96.887 Y39.44 Z-4.993 F1000
X96.788 Y39.426 Z-4.974
X96.694 Y39.413 Z-4.942
X96.604 Y39.401 Z-4.898
X96.526 Y39.373 Z-4.844
X96.455 Y39.347 Z-4.78
X96.393 Y39.325 Z-4.707
X96.339 Y39.306 Z-4.627
X96.295 Y39.29 Z-4.539
X96.262 Y39.278 Z-4.447
X96.24 Y39.27 Z-4.351
X96.232 Y39.267 Z-4.283
X96.23 Y39.265 Z-4.215
G0 Z5
X36.336 Y35.125
Z-2.5
G3 X26.892 Y20.028 Z-3.477 I-4.722 J-7.549 F333.3
X36.336 Y35.125 Z-4.454 I4.722 J7.549
X26.892 Y20.028 Z-5.43 I-4.722 J-7.549
X36.336 Y35.125 Z-6.407 I4.722 J7.549
X26.892 Y20.028 Z-7.384 I-4.722 J-7.549
X36.336 Y35.125 Z-8.361 I4.722 J7.549
X26.892 Y20.028 Z-9.338 I-4.722 J-7.549
X40.518 Y27.577 Z-10 I4.722 J7.549
X22.71 I-8.904
X40.518 I8.904
G1 X40.52 Y27.969 F1400
X40.557 Y28.36
X40.629 Y28.746
X41.054 Y30.258
X41.118 Y30.383
X41.242 Y30.652
X41.356 Y30.962
X41.454 Y31.312
X41.53 Y31.701
X41.578 Y32.13
X41.593 Y32.595
X41.568 Y33.095
X41.5 Y33.625
X41.381 Y34.181
X41.209 Y34.76
X40.978 Y35.354
X40.686 Y35.958
X40.33 Y36.564
X39.908 Y37.167
X39.419 Y37.758
X38.863 Y38.329
X38.51 Y38.638
X38.131 Y38.923
X37.716 Y39.152
X37.273 Y39.319
X36.81 Y39.42
X36.337 Y39.454
X28.248
X27.64 Y39.423
X26.916 Y39.328
X26.17 Y39.169
X25.411 Y38.942
X24.645 Y38.643
X23.881 Y38.273
X23.127 Y37.828
X22.39 Y37.311
X21.679 Y36.721
X21.002 Y36.06
X20.367 Y35.332
X20.02 Y34.863
X19.792 Y34.51
X19.611 Y34.131
X19.479 Y33.732
X19.399 Y33.32
X19.373 Y32.9
Y25.057
X19.429 Y23.929
X19.53 Y23.16
X19.698 Y22.374
X19.937 Y21.575
X20.249 Y20.774
X20.636 Y19.977
X21.098 Y19.192
X21.634 Y18.429
X22.244 Y17.695
X22.924 Y16.998
X23.48 Y16.512
X23.858 Y16.228
X24.272 Y16
X24.715 Y15.834
X25.177 Y15.733
X25.649 Y15.699
X34.979
X35.587 Y15.73
X36.312 Y15.825
X37.057 Y15.984
X37.817 Y16.211
X38.582 Y16.51
X39.346 Y16.88
X40.101 Y17.325
X40.838 Y17.842
X41.549 Y18.432
X42.226 Y19.093
X42.861 Y19.821
X43.743 Y21.013
X44.573 Y22.347
X45.331 Y23.722
X45.995 Y25.146
X46.493 Y26.488
X46.86 Y27.783
X47.108 Y29.038
X47.25 Y30.269
X47.292 Y31.484
X47.237 Y32.688
X47.086 Y33.879
X46.84 Y35.054
X46.499 Y36.21
X46.08 Y37.3
X45.945 Y37.582
X45.716 Y37.984
X45.433 Y38.35
X45.101 Y38.673
X44.727 Y38.947
X44.319 Y39.165
X43.884 Y39.325
X43.432 Y39.421
X42.97 Y39.454
X36.337
G3 X35.581 Y39.265 I0.065 J-1.873 F1000
X35.205 Y39.023 I0.822 J-1.685 F1400
G1 X20.048 Y26.434
G3 X19.561 Y25.813 I1.198 J-1.442
X19.373 Y25.057 I1.685 J-0.822 F1000
G1 Y18.338 F1400
X19.403 Y17.726
X19.495 Y17.317
X19.658 Y16.931
X19.888 Y16.581
X20.177 Y16.278
X20.515 Y16.031
X20.892 Y15.849
X21.296 Y15.737
X21.713 Y15.699
G3 X22.484 Y15.835 I-0.098 J2.807 F1000
X23.478 Y16.405 I-0.869 J2.671 F1400
X20.202 Y20.099 I-1.638 J1.847
X19.523 Y19.106 I1.638 J-1.847
X19.373 Y18.338 I2.317 J-0.854 F1000
G1 Y17.778 F1400
X19.375 Y17.498
X19.41 Y17.218
X19.49 Y16.938
X19.621 Y16.658
X19.717 Y16.508
X19.835 Y16.358
X19.971 Y16.216
X20.107 Y16.099
X20.251 Y15.996
X20.396 Y15.912
X20.676 Y15.793
X20.957 Y15.724
X21.518 Y15.699
X25.649
G3 X26.406 Y15.888 I-0.065 J1.873 F1000
X27.443 Y17.331 I-0.822 J1.685 F1400
G1 X30.042 Y37.339
G3 X29.005 Y39.265 I-1.859 J0.241
X28.248 Y39.454 I-0.822 J-1.685 F1000
G1 X22.079 F1400
X21.592 Y39.43
X21.193 Y39.344
X20.813 Y39.197
X20.461 Y38.99
X20.147 Y38.731
X19.878 Y38.424
X19.661 Y38.079
X19.502 Y37.703
X19.405 Y37.307
X19.373 Y36.9
G3 X19.511 Y36.13 I2.736 J0.096 F1000
X20.118 Y35.117 I2.597 J0.866 F1400
X23.86 Y38.648 I1.871 J1.766
X22.847 Y39.308 I-1.871 J-1.766
X22.079 Y39.454 I-0.858 J-2.425 F1000
G1 X21.518 F1400
X20.957 Y39.429
X20.676 Y39.36
X20.396 Y39.241
X20.251 Y39.157
X20.107 Y39.054
X19.971 Y38.937
X19.835 Y38.795
X19.717 Y38.645
X19.621 Y38.495
X19.49 Y38.215
X19.41 Y37.935
X19.375 Y37.655
X19.373 Y37.375
Y32.9
G3 X19.561 Y32.144 I1.873 J0.065 F1000
X19.85 Y31.715 I1.685 J0.822 F1400
G1 X33.649 Y16.321
G3 X34.223 Y15.888 I1.396 J1.251
X34.979 Y15.699 I0.822 J1.685 F1000
G1 X41.149 F1400
X41.648 Y15.724
X42.217 Y15.799
X42.803 Y15.924
X43.483 Y16.128
X44.201 Y16.407
X44.996 Y16.793
X45.823 Y17.28
X46.672 Y17.877
X47.554 Y18.608
X48.397 Y19.431
X49.219 Y20.374
X50.008 Y21.44
X50.74 Y22.616
X51.392 Y23.88
X51.952 Y25.22
X52.412 Y26.629
X52.764 Y28.097
X53.002 Y29.618
X53.118 Y31.179
X53.11 Y32.733
X52.992 Y34.098
X52.791 Y35.295
X52.521 Y36.364
X52.195 Y37.326
X52.136 Y37.462
X51.915 Y37.887
X51.634 Y38.276
X51.3 Y38.619
X50.92 Y38.911
X50.501 Y39.145
X50.053 Y39.315
X49.585 Y39.419
X49.106 Y39.454
X42.97
G3 X42.213 Y39.265 I0.065 J-1.873 F1000
X41.168 Y37.75 I0.822 J-1.685 F1400
G1 X39.348 Y17.742
G3 X40.393 Y15.888 I1.867 J-0.17
X41.149 Y15.699 I0.822 J1.685 F1000
G1 X47.067 F1400
X47.599 Y15.726
X48.189 Y15.803
X48.81 Y15.936
X49.5 Y16.143
X50.206 Y16.418
X50.984 Y16.795
X51.752 Y17.247
X52.579 Y17.828
X53.393 Y18.504
X54.207 Y19.298
X55.033 Y20.245
X55.807 Y21.291
X56.535 Y22.461
X57.218 Y23.784
X57.824 Y25.233
X58.312 Y26.726
X58.682 Y28.253
X58.934 Y29.803
X59.066 Y31.368
X59.075 Y32.845
X58.979 Y34.14
X58.799 Y35.301
X58.549 Y36.348
X58.241 Y37.292
X58.174 Y37.453
X57.958 Y37.879
X57.682 Y38.269
X57.352 Y38.615
X56.975 Y38.908
X56.56 Y39.143
X56.114 Y39.314
X55.648 Y39.419
X55.171 Y39.454
X49.106
G3 X48.35 Y39.265 I0.065 J-1.873 F1000
X47.307 Y37.771 I0.822 J-1.685 F1400
G1 X45.267 Y17.763
G3 X46.31 Y15.888 I1.865 J-0.19
X47.067 Y15.699 I0.822 J1.685 F1000
G1 X52.928 F1400
X53.509 Y15.728
X54.097 Y15.805
X54.7 Y15.934
X55.386 Y16.14
X56.077 Y16.409
X56.849 Y16.784
X57.611 Y17.232
X58.441 Y17.815
X59.257 Y18.492
X60.085 Y19.3
X60.926 Y20.265
X61.715 Y21.331
X62.466 Y22.538
X63.169 Y23.899
X63.775 Y25.349
X64.266 Y26.841
X64.641 Y28.366
X64.898 Y29.915
X65.035 Y31.48
X65.048 Y32.928
X64.958 Y34.193
X64.783 Y35.336
X64.538 Y36.374
X64.236 Y37.311
X64.192 Y37.416
X63.974 Y37.85
X63.694 Y38.247
X63.359 Y38.599
X62.977 Y38.898
X62.554 Y39.137
X62.101 Y39.312
X61.627 Y39.418
X61.143 Y39.454
X55.171
G3 X54.415 Y39.265 I0.065 J-1.873 F1000
X53.374 Y37.789 I0.822 J-1.685 F1400
G1 X51.13 Y17.781
G3 X52.171 Y15.888 I1.863 J-0.209
X52.928 Y15.699 I0.822 J1.685 F1000
G1 X58.845 F1400
X59.387 Y15.726
X59.975 Y15.803
X60.583 Y15.933
X61.272 Y16.14
X61.97 Y16.412
X62.749 Y16.789
X63.518 Y17.243
X64.359 Y17.833
X65.18 Y18.514
X66.021 Y19.335
X66.872 Y20.311
X67.67 Y21.389
X68.43 Y22.61
X69.139 Y23.985
X69.745 Y25.434
X70.236 Y26.926
X70.612 Y28.451
X70.87 Y30
X71.007 Y31.565
X71.02 Y32.988
X70.93 Y34.231
X70.758 Y35.356
X70.514 Y36.388
X70.213 Y37.321
X70.172 Y37.418
X69.954 Y37.851
X69.675 Y38.248
X69.34 Y38.599
X68.957 Y38.898
X68.535 Y39.137
X68.082 Y39.312
X67.608 Y39.418
X67.124 Y39.454
X61.143
G3 X60.387 Y39.265 I0.065 J-1.873 F1000
X59.346 Y37.794 I0.822 J-1.685 F1400
G1 X57.048 Y17.786
G3 X58.089 Y15.888 I1.862 J-0.214
X58.845 Y15.699 I0.822 J1.685 F1000
G1 X64.707 F1400
X65.3 Y15.729
X65.89 Y15.806
X66.504 Y15.937
X67.194 Y16.144
X67.9 Y16.419
X68.681 Y16.798
X69.458 Y17.256
X70.305 Y17.85
X71.129 Y18.534
X71.977 Y19.362
X72.833 Y20.343
X73.633 Y21.425
X74.398 Y22.653
X75.11 Y24.034
X75.716 Y25.484
X76.208 Y26.975
X76.584 Y28.5
X76.841 Y30.05
X76.977 Y31.615
X76.988 Y33.028
X76.898 Y34.264
X76.726 Y35.381
X76.481 Y36.409
X76.18 Y37.34
X76.138 Y37.441
X75.921 Y37.869
X75.644 Y38.262
X75.313 Y38.609
X74.934 Y38.904
X74.516 Y39.141
X74.068 Y39.314
X73.599 Y39.419
X73.12 Y39.454
X67.124
G3 X66.368 Y39.265 I0.065 J-1.873 F1000
X65.328 Y37.805 I0.822 J-1.685 F1400
G1 X62.911 Y17.797
G3 X63.95 Y15.888 I1.861 J-0.225
X64.707 Y15.699 I0.822 J1.685 F1000
G1 X70.877 F1400
X71.228 Y15.717
X71.819 Y15.794
X72.439 Y15.927
X73.129 Y16.134
X73.842 Y16.411
X74.625 Y16.791
X75.407 Y17.252
X76.258 Y17.849
X77.084 Y18.535
X77.938 Y19.369
X78.796 Y20.352
X79.598 Y21.435
X80.365 Y22.669
X81.08 Y24.053
X81.686 Y25.503
X82.177 Y26.994
X82.553 Y28.519
X82.81 Y30.069
X82.946 Y31.634
X82.957 Y33.047
X82.866 Y34.283
X82.694 Y35.399
X82.45 Y36.425
X82.148 Y37.354
X82.12 Y37.422
X81.902 Y37.854
X81.622 Y38.25
X81.287 Y38.601
X80.905 Y38.899
X80.483 Y39.138
X80.03 Y39.312
X79.557 Y39.418
X79.073 Y39.454
X73.12
G3 X72.364 Y39.265 I0.065 J-1.873 F1000
X71.323 Y37.789 I0.822 J-1.685 F1400
G1 X69.079 Y17.781
G3 X70.12 Y15.888 I1.863 J-0.209
X70.877 Y15.699 I0.822 J1.685 F1000
G1 X76.486 F1400
X77.198 Y15.735
X77.789 Y15.812
X78.408 Y15.945
X79.099 Y16.152
X79.81 Y16.429
X80.594 Y16.809
X81.376 Y17.27
X82.227 Y17.867
X83.053 Y18.553
X83.908 Y19.387
X84.766 Y20.37
X85.567 Y21.453
X86.335 Y22.687
X87.049 Y24.071
X87.655 Y25.52
X88.146 Y27.012
X88.522 Y28.537
X88.779 Y30.087
X88.915 Y31.652
X88.925 Y33.057
X88.835 Y34.286
X88.663 Y35.398
X88.419 Y36.423
X88.118 Y37.351
X88.088 Y37.422
X87.869 Y37.855
X87.59 Y38.251
X87.255 Y38.601
X86.872 Y38.899
X86.45 Y39.138
X85.998 Y39.312
X85.525 Y39.418
X85.041 Y39.454
X79.073
G3 X78.317 Y39.265 I0.065 J-1.873 F1000
X77.28 Y37.821 I0.822 J-1.685 F1400
G1 X74.692 Y17.813
G3 X75.729 Y15.888 I1.859 J-0.24
X76.486 Y15.699 I0.822 J1.685 F1000
G1 X82.655 F1400
X83.146 Y15.724
X83.737 Y15.801
X84.359 Y15.934
X85.05 Y16.141
X85.766 Y16.42
X86.549 Y16.8
X87.335 Y17.263
X88.187 Y17.861
X89.015 Y18.548
X89.872 Y19.384
X90.731 Y20.369
X91.533 Y21.453
X92.302 Y22.689
X93.017 Y24.075
X93.623 Y25.525
X94.115 Y27.016
X94.49 Y28.542
X94.747 Y30.091
X94.883 Y31.656
X94.893 Y33.061
X94.803 Y34.289
X94.631 Y35.401
X94.386 Y36.426
X94.085 Y37.354
X94.033 Y37.477
X93.82 Y37.898
X93.548 Y38.284
X93.222 Y38.625
X92.85 Y38.914
X92.44 Y39.147
X92 Y39.316
X91.539 Y39.419
X91.069 Y39.454
X85.041
G3 X84.285 Y39.265 I0.065 J-1.873 F1000
X83.246 Y37.802 I0.822 J-1.685 F1400
G1 X80.86 Y17.794
G3 X81.899 Y15.888 I1.861 J-0.222
X82.655 Y15.699 I0.822 J1.685 F1000
G1 X88.573 F1400
X89.114 Y15.726
X89.705 Y15.804
X90.327 Y15.937
X91.018 Y16.144
X91.733 Y16.422
X92.517 Y16.803
X93.303 Y17.265
X94.155 Y17.864
X94.983 Y18.551
X95.84 Y19.387
X96.699 Y20.372
X97.501 Y21.456
X98.27 Y22.692
X98.985 Y24.078
X99.591 Y25.528
X100.083 Y27.019
X100.458 Y28.545
X100.715 Y30.094
X100.851 Y31.659
X100.861 Y33.075
X100.77 Y34.311
X100.597 Y35.427
X100.353 Y36.451
X100.051 Y37.377
X100.032 Y37.423
X99.814 Y37.856
X99.534 Y38.251
X99.199 Y38.602
X98.817 Y38.9
X98.395 Y39.138
X97.943 Y39.312
X97.47 Y39.418
X96.986 Y39.454
X91.069
G3 X90.312 Y39.265 I0.065 J-1.873 F1000
X89.274 Y37.813 I0.822 J-1.685 F1400
G1 X86.778 Y17.805
G3 X87.816 Y15.888 I1.86 J-0.232
X88.573 Y15.699 I0.822 J1.685 F1000
G1 X94.434 F1400
X95.084 Y15.732
X95.675 Y15.809
X96.296 Y15.942
X96.987 Y16.149
X97.702 Y16.428
X98.486 Y16.808
X99.272 Y17.27
X100.124 Y17.869
X100.435 Y18.127
X100.783 Y18.462
X101.078 Y18.843
X101.314 Y19.264
X101.487 Y19.714
X101.592 Y20.185
X101.627 Y20.666
G3 X101.439 Y21.423 I-1.873 J-0.065 F1000
X98.818 Y22.225 I-1.685 J-0.822 F1400
G1 X93.564 Y19.197
G3 X93.678 Y15.888 I0.936 J-1.624
X94.434 Y15.699 I0.822 J1.685 F1000
G1 X99.482 F1400
X100.043 Y15.724
X100.324 Y15.793
X100.604 Y15.912
X100.749 Y15.996
X100.893 Y16.099
X101.029 Y16.216
X101.165 Y16.358
X101.283 Y16.508
X101.379 Y16.658
X101.51 Y16.938
X101.59 Y17.218
X101.625 Y17.498
X101.627 Y17.778
Y37.375
X101.625 Y37.655
X101.59 Y37.935
X101.51 Y38.215
X101.379 Y38.495
X101.283 Y38.645
X101.165 Y38.795
X101.029 Y38.937
X100.893 Y39.054
X100.749 Y39.157
X100.604 Y39.241
X100.324 Y39.36
X100.043 Y39.429
X99.482 Y39.454
X96.986
X96.887 Y39.44 Z-9.993 F1000
X96.788 Y39.426 Z-9.974
X96.694 Y39.413 Z-9.942
X96.604 Y39.401 Z-9.898
X96.526 Y39.373 Z-9.844
X96.455 Y39.347 Z-9.78
X96.393 Y39.325 Z-9.707
X96.339 Y39.306 Z-9.627
X96.295 Y39.29 Z-9.539
X96.262 Y39.278 Z-9.447
X96.24 Y39.27 Z-9.351
X96.232 Y39.267 Z-9.283
X96.23 Y39.265 Z-9.215
G0 Z5
X24.226 Y22.607
Z-7.5
G3 X39.002 Y32.546 Z-8.477 I7.388 J4.97 F333.3
X24.226 Y22.607 Z-9.454 I-7.388 J-4.97
X39.002 Y32.546 Z-10.43 I7.388 J4.97
X24.226 Y22.607 Z-11.407 I-7.388 J-4.97
X40.518 Y27.577 Z-12.2 I7.388 J4.97
X22.71 I-8.904
X40.518 I8.904
G1 X40.52 Y27.969 F1400
X40.557 Y28.36
X40.629 Y28.746
X41.054 Y30.258
X41.118 Y30.383
X41.242 Y30.652
X41.356 Y30.962
X41.454 Y31.312
X41.53 Y31.701
X41.578 Y32.13
X41.593 Y32.595
X41.568 Y33.095
X41.5 Y33.625
X41.381 Y34.181
X41.209 Y34.76
X40.978 Y35.354
X40.686 Y35.958
X40.33 Y36.564
X39.908 Y37.167
X39.419 Y37.758
X38.863 Y38.329
X38.51 Y38.638
X38.131 Y38.923
X37.716 Y39.152
X37.273 Y39.319
X36.81 Y39.42
X36.337 Y39.454
X28.248
X27.64 Y39.423
X26.916 Y39.328
X26.17 Y39.169
X25.411 Y38.942
X24.645 Y38.643
X23.881 Y38.273
X23.127 Y37.828
X22.39 Y37.311
X21.679 Y36.721
X21.002 Y36.06
X20.367 Y35.332
X20.02 Y34.863
X19.792 Y34.51
X19.611 Y34.131
X19.479 Y33.732
X19.399 Y33.32
X19.373 Y32.9
Y25.057
X19.429 Y23.929
X19.53 Y23.16
X19.698 Y22.374
X19.937 Y21.575
X20.249 Y20.774
X20.636 Y19.977
X21.098 Y19.192
X21.634 Y18.429
X22.244 Y17.695
X22.924 Y16.998
X23.48 Y16.512
X23.858 Y16.228
X24.272 Y16
X24.715 Y15.834
X25.177 Y15.733
X25.649 Y15.699
X34.979
X35.587 Y15.73
X36.312 Y15.825
X37.057 Y15.984
X37.817 Y16.211
X38.582 Y16.51
X39.346 Y16.88
X40.101 Y17.325
X40.838 Y17.842
X41.549 Y18.432
X42.226 Y19.093
X42.861 Y19.821
X43.743 Y21.013
X44.573 Y22.347
X45.331 Y23.722
X45.995 Y25.146
X46.493 Y26.488
X46.86 Y27.783
X47.108 Y29.038
X47.25 Y30.269
X47.292 Y31.484
X47.237 Y32.688
X47.086 Y33.879
X46.84 Y35.054
X46.499 Y36.21
X46.08 Y37.3
X45.945 Y37.582
X45.716 Y37.984
X45.433 Y38.35
X45.101 Y38.673
X44.727 Y38.947
X44.319 Y39.165
X43.884 Y39.325
X43.432 Y39.421
X42.97 Y39.454
X36.337
G3 X35.581 Y39.265 I0.065 J-1.873 F1000
X35.205 Y39.023 I0.822 J-1.685 F1400
G1 X20.048 Y26.434
G3 X19.561 Y25.813 I1.198 J-1.442
X19.373 Y25.057 I1.685 J-0.822 F1000
G1 Y18.338 F1400
X19.403 Y17.726
X19.495 Y17.317
X19.658 Y16.931
X19.888 Y16.581
X20.177 Y16.278
X20.515 Y16.031
X20.892 Y15.849
X21.296 Y15.737
X21.713 Y15.699
G3 X22.484 Y15.835 I-0.098 J2.807 F1000
X23.478 Y16.405 I-0.869 J2.671 F1400
X20.202 Y20.099 I-1.638 J1.847
X19.523 Y19.106 I1.638 J-1.847
X19.373 Y18.338 I2.317 J-0.854 F1000
G1 Y17.778 F1400
X19.375 Y17.498
X19.41 Y17.218
X19.49 Y16.938
X19.621 Y16.658
X19.717 Y16.508
X19.835 Y16.358
X19.971 Y16.216
X20.107 Y16.099
X20.251 Y15.996
X20.396 Y15.912
X20.676 Y15.793
X20.957 Y15.724
X21.518 Y15.699
X25.649
G3 X26.406 Y15.888 I-0.065 J1.873 F1000
X27.443 Y17.331 I-0.822 J1.685 F1400
G1 X30.042 Y37.339
G3 X29.005 Y39.265 I-1.859 J0.241
X28.248 Y39.454 I-0.822 J-1.685 F1000
G1 X22.079 F1400
X21.592 Y39.43
X21.193 Y39.344
X20.813 Y39.197
X20.461 Y38.99
X20.147 Y38.731
X19.878 Y38.424
X19.661 Y38.079
X19.502 Y37.703
X19.405 Y37.307
X19.373 Y36.9
G3 X19.511 Y36.13 I2.736 J0.096 F1000
X20.118 Y35.117 I2.597 J0.866 F1400
X23.86 Y38.648 I1.871 J1.766
X22.847 Y39.308 I-1.871 J-1.766
X22.079 Y39.454 I-0.858 J-2.425 F1000
G1 X21.518 F1400
X20.957 Y39.429
X20.676 Y39.36
X20.396 Y39.241
X20.251 Y39.157
X20.107 Y39.054
X19.971 Y38.937
X19.835 Y38.795
X19.717 Y38.645
X19.621 Y38.495
X19.49 Y38.215
X19.41 Y37.935
X19.375 Y37.655
X19.373 Y37.375
Y32.9
G3 X19.561 Y32.144 I1.873 J0.065 F1000
X19.85 Y31.715 I1.685 J0.822 F1400
G1 X33.649 Y16.321
G3 X34.223 Y15.888 I1.396 J1.251
X34.979 Y15.699 I0.822 J1.685 F1000
G1 X41.149 F1400
X41.648 Y15.724
X42.217 Y15.799
X42.803 Y15.924
X43.483 Y16.128
X44.201 Y16.407
X44.996 Y16.793
X45.823 Y17.28
X46.672 Y17.877
X47.554 Y18.608
X48.397 Y19.431
X49.219 Y20.374
X50.008 Y21.44
X50.74 Y22.616
X51.392 Y23.88
X51.952 Y25.22
X52.412 Y26.629
X52.764 Y28.097
X53.002 Y29.618
X53.118 Y31.179
X53.11 Y32.733
X52.992 Y34.098
X52.791 Y35.295
X52.521 Y36.364
X52.195 Y37.326
X52.136 Y37.462
X51.915 Y37.887
X51.634 Y38.276
X51.3 Y38.619
X50.92 Y38.911
X50.501 Y39.145
X50.053 Y39.315
X49.585 Y39.419
X49.106 Y39.454
X42.97
G3 X42.213 Y39.265 I0.065 J-1.873 F1000
X41.168 Y37.75 I0.822 J-1.685 F1400
G1 X39.348 Y17.742
G3 X40.393 Y15.888 I1.867 J-0.17
X41.149 Y15.699 I0.822 J1.685 F1000
G1 X47.067 F1400
X47.599 Y15.726
X48.189 Y15.803
X48.81 Y15.936
X49.5 Y16.143
X50.206 Y16.418
X50.984 Y16.795
X51.752 Y17.247
X52.579 Y17.828
X53.393 Y18.504
X54.207 Y19.298
X55.033 Y20.245
X55.807 Y21.291
X56.535 Y22.461
X57.218 Y23.784
X57.824 Y25.233
X58.312 Y26.726
X58.682 Y28.253
X58.934 Y29.803
X59.066 Y31.368
X59.075 Y32.845
X58.979 Y34.14
X58.799 Y35.301
X58.549 Y36.348
X58.241 Y37.292
X58.174 Y37.453
X57.958 Y37.879
X57.682 Y38.269
X57.352 Y38.615
X56.975 Y38.908
X56.56 Y39.143
X56.114 Y39.314
X55.648 Y39.419
X55.171 Y39.454
X49.106
G3 X48.35 Y39.265 I0.065 J-1.873 F1000
X47.307 Y37.771 I0.822 J-1.685 F1400
G1 X45.267 Y17.763
G3 X46.31 Y15.888 I1.865 J-0.19
X47.067 Y15.699 I0.822 J1.685 F1000
G1 X52.928 F1400
X53.509 Y15.728
X54.097 Y15.805
X54.7 Y15.934
X55.386 Y16.14
X56.077 Y16.409
X56.849 Y16.784
X57.611 Y17.232
X58.441 Y17.815
X59.257 Y18.492
X60.085 Y19.3
X60.926 Y20.265
X61.715 Y21.331
X62.466 Y22.538
X63.169 Y23.899
X63.775 Y25.349
X64.266 Y26.841
X64.641 Y28.366
X64.898 Y29.915
X65.035 Y31.48
X65.048 Y32.928
X64.958 Y34.193
X64.783 Y35.336
X64.538 Y36.374
X64.236 Y37.311
X64.192 Y37.416
X63.974 Y37.85
X63.694 Y38.247
X63.359 Y38.599
X62.977 Y38.898
X62.554 Y39.137
X62.101 Y39.312
X61.627 Y39.418
X61.143 Y39.454
X55.171
G3 X54.415 Y39.265 I0.065 J-1.873 F1000
X53.374 Y37.789 I0.822 J-1.685 F1400
G1 X51.13 Y17.781
G3 X52.171 Y15.888 I1.863 J-0.209
X52.928 Y15.699 I0.822 J1.685 F1000
G1 X58.845 F1400
X59.387 Y15.726
X59.975 Y15.803
X60.583 Y15.933
X61.272 Y16.14
X61.97 Y16.412
X62.749 Y16.789
X63.518 Y17.243
X64.359 Y17.833
X65.18 Y18.514
X66.021 Y19.335
X66.872 Y20.311
X67.67 Y21.389
X68.43 Y22.61
X69.139 Y23.985
X69.745 Y25.434
X70.236 Y26.926
X70.612 Y28.451
X70.87 Y30
X71.007 Y31.565
X71.02 Y32.988
X70.93 Y34.231
X70.758 Y35.356
X70.514 Y36.388
X70.213 Y37.321
X70.172 Y37.418
X69.954 Y37.851
X69.675 Y38.248
X69.34 Y38.599
X68.957 Y38.898
X68.535 Y39.137
X68.082 Y39.312
X67.608 Y39.418
X67.124 Y39.454
X61.143
G3 X60.387 Y39.265 I0.065 J-1.873 F1000
X59.346 Y37.794 I0.822 J-1.685 F1400
G1 X57.048 Y17.786
G3 X58.089 Y15.888 I1.862 J-0.214
X58.845 Y15.699 I0.822 J1.685 F1000
G1 X64.707 F1400
X65.3 Y15.729
X65.89 Y15.806
X66.504 Y15.937
X67.194 Y16.144
X67.9 Y16.419
X68.681 Y16.798
X69.458 Y17.256
X70.305 Y17.85
X71.129 Y18.534
X71.977 Y19.362
X72.833 Y20.343
X73.633 Y21.425
X74.398 Y22.653
X75.11 Y24.034
X75.716 Y25.484
X76.208 Y26.975
X76.584 Y28.5
X76.841 Y30.05
X76.977 Y31.615
X76.988 Y33.028
X76.898 Y34.264
X76.726 Y35.381
X76.481 Y36.409
X76.18 Y37.34
X76.138 Y37.441
X75.921 Y37.869
X75.644 Y38.262
X75.313 Y38.609
X74.934 Y38.904
X74.516 Y39.141
X74.068 Y39.314
X73.599 Y39.419
X73.12 Y39.454
X67.124
G3 X66.368 Y39.265 I0.065 J-1.873 F1000
X65.328 Y37.805 I0.822 J-1.685 F1400
G1 X62.911 Y17.797
G3 X63.95 Y15.888 I1.861 J-0.225
X64.707 Y15.699 I0.822 J1.685 F1000
G1 X70.877 F1400
X71.228 Y15.717
X71.819 Y15.794
X72.439 Y15.927
X73.129 Y16.134
X73.842 Y16.411
X74.625 Y16.791
X75.407 Y17.252
X76.258 Y17.849
X77.084 Y18.535
X77.938 Y19.369
X78.796 Y20.352
X79.598 Y21.435
X80.365 Y22.669
X81.08 Y24.053
X81.686 Y25.503
X82.177 Y26.994
X82.553 Y28.519
X82.81 Y30.069
X82.946 Y31.634
X82.957 Y33.047
X82.866 Y34.283
X82.694 Y35.399
X82.45 Y36.425
X82.148 Y37.354
X82.12 Y37.422
X81.902 Y37.854
X81.622 Y38.25
X81.287 Y38.601
X80.905 Y38.899
X80.483 Y39.138
X80.03 Y39.312
X79.557 Y39.418
X79.073 Y39.454
X73.12
G3 X72.364 Y39.265 I0.065 J-1.873 F1000
X71.323 Y37.789 I0.822 J-1.685 F1400
G1 X69.079 Y17.781
G3 X70.12 Y15.888 I1.863 J-0.209
X70.877 Y15.699 I0.822 J1.685 F1000
G1 X76.486 F1400
X77.198 Y15.735
X77.789 Y15.812
X78.408 Y15.945
X79.099 Y16.152
X79.81 Y16.429
X80.594 Y16.809
X81.376 Y17.27
X82.227 Y17.867
X83.053 Y18.553
X83.908 Y19.387
X84.766 Y20.37
X85.567 Y21.453
X86.335 Y22.687
X87.049 Y24.071
X87.655 Y25.52
X88.146 Y27.012
X88.522 Y28.537
X88.779 Y30.087
X88.915 Y31.652
X88.925 Y33.057
X88.835 Y34.286
X88.663 Y35.398
X88.419 Y36.423
X88.118 Y37.351
X88.088 Y37.422
X87.869 Y37.855
X87.59 Y38.251
X87.255 Y38.601
X86.872 Y38.899
X86.45 Y39.138
X85.998 Y39.312
X85.525 Y39.418
X85.041 Y39.454
X79.073
G3 X78.317 Y39.265 I0.065 J-1.873 F1000
X77.28 Y37.821 I0.822 J-1.685 F1400
G1 X74.692 Y17.813
G3 X75.729 Y15.888 I1.859 J-0.24
X76.486 Y15.699 I0.822 J1.685 F1000
G1 X82.655 F1400
X83.146 Y15.724
X83.737 Y15.801
X84.359 Y15.934
X85.05 Y16.141
X85.766 Y16.42
X86.549 Y16.8
X87.335 Y17.263
X88.187 Y17.861
X89.015 Y18.548
X89.872 Y19.384
X90.731 Y20.369
X91.533 Y21.453
X92.302 Y22.689
X93.017 Y24.075
X93.623 Y25.525
X94.115 Y27.016
X94.49 Y28.542
X94.747 Y30.091
X94.883 Y31.656
X94.893 Y33.061
X94.803 Y34.289
X94.631 Y35.401
X94.386 Y36.426
X94.085 Y37.354
X94.033 Y37.477
X93.82 Y37.898
X93.548 Y38.284
X93.222 Y38.625
X92.85 Y38.914
X92.44 Y39.147
X92 Y39.316
X91.539 Y39.419
X91.069 Y39.454
X85.041
G3 X84.285 Y39.265 I0.065 J-1.873 F1000
X83.246 Y37.802 I0.822 J-1.685 F1400
G1 X80.86 Y17.794
G3 X81.899 Y15.888 I1.861 J-0.222
X82.655 Y15.699 I0.822 J1.685 F1000
G1 X88.573 F1400
X89.114 Y15.726
X89.705 Y15.804
X90.327 Y15.937
X91.018 Y16.144
X91.733 Y16.422
X92.517 Y16.803
X93.303 Y17.265
X94.155 Y17.864
X94.983 Y18.551
X95.84 Y19.387
X96.699 Y20.372
X97.501 Y21.456
X98.27 Y22.692
X98.985 Y24.078
X99.591 Y25.528
X100.083 Y27.019
X100.458 Y28.545
X100.715 Y30.094
X100.851 Y31.659
X100.861 Y33.075
X100.77 Y34.311
X100.597 Y35.427
X100.353 Y36.451
X100.051 Y37.377
X100.032 Y37.423
X99.814 Y37.856
X99.534 Y38.251
X99.199 Y38.602
X98.817 Y38.9
X98.395 Y39.138
X97.943 Y39.312
X97.47 Y39.418
X96.986 Y39.454
X91.069
G3 X90.312 Y39.265 I0.065 J-1.873 F1000
X89.274 Y37.813 I0.822 J-1.685 F1400
G1 X86.778 Y17.805
G3 X87.816 Y15.888 I1.86 J-0.232
X88.573 Y15.699 I0.822 J1.685 F1000
G1 X94.434 F1400
X95.084 Y15.732
X95.675 Y15.809
X96.296 Y15.942
X96.987 Y16.149
X97.702 Y16.428
X98.486 Y16.808
X99.272 Y17.27
X100.124 Y17.869
X100.435 Y18.127
X100.783 Y18.462
X101.078 Y18.843
X101.314 Y19.264
X101.487 Y19.714
X101.592 Y20.185
X101.627 Y20.666
G3 X101.439 Y21.423 I-1.873 J-0.065 F1000
X98.818 Y22.225 I-1.685 J-0.822 F1400
G1 X93.564 Y19.197
G3 X93.678 Y15.888 I0.936 J-1.624
X94.434 Y15.699 I0.822 J1.685 F1000
G1 X99.482 F1400
X100.043 Y15.724
X100.324 Y15.793
X100.604 Y15.912
X100.749 Y15.996
X100.893 Y16.099
X101.029 Y16.216
X101.165 Y16.358
X101.283 Y16.508
X101.379 Y16.658
X101.51 Y16.938
X101.59 Y17.218
X101.625 Y17.498
X101.627 Y17.778
Y37.375
X101.625 Y37.655
X101.59 Y37.935
X101.51 Y38.215
X101.379 Y38.495
X101.283 Y38.645
X101.165 Y38.795
X101.029 Y38.937
X100.893 Y39.054
X100.749 Y39.157
X100.604 Y39.241
X100.324 Y39.36
X100.043 Y39.429
X99.482 Y39.454
X96.986
G3 X96.23 Y39.265 I0.065 J-1.873 F1000
G1 X96.083 Y39.194 Z-12.193
X95.937 Y39.123 Z-12.172
X95.794 Y39.053 Z-12.136
X95.653 Y38.984 Z-12.087
X95.518 Y38.918 Z-12.024
X95.387 Y38.854 Z-11.949
X95.263 Y38.794 Z-11.861
X95.147 Y38.737 Z-11.761
X95.038 Y38.684 Z-11.651
X94.939 Y38.636 Z-11.53
X94.85 Y38.592 Z-11.401
X94.771 Y38.553 Z-11.263
X94.703 Y38.52 Z-11.118
X94.647 Y38.493 Z-10.967
X94.602 Y38.471 Z-10.811
X94.571 Y38.456 Z-10.651
X94.551 Y38.446 Z-10.489
X94.545 Y38.443 Z-10.325
G0 Z15
M30
%
