%
(top5-1_8)
(T1  D=3.17 CR=0 - ZMIN=-12.2 - flat end mill)
G90 G94
G17
G21

(Rough-1_8)
M9
T1 M6
S5000 M3
G54
M8
G0 X21.053 Y46.588
Z15
Z5
Z-4.366
G1 Z-4.683 F1000
X21.046 Y46.592 Z-4.754
X21.026 Y46.604 Z-4.821
X20.994 Y46.624 Z-4.881
X20.951 Y46.649 Z-4.931
X20.899 Y46.68 Z-4.969
X20.841 Y46.714 Z-4.992
X20.781 Y46.75 Z-5
G3 X19.108 Y47.242 I-1.795 J-3.02
G1 X16.193
X15.866 Y47.225
X15.631 Y47.194
X15.371 Y47.139
X15.076 Y47.051
X14.744 Y46.921
X14.38 Y46.744
X13.985 Y46.512
X13.575 Y46.224
X13.137 Y45.86
X12.713 Y45.447
X12.291 Y44.963
X11.909 Y44.447
X11.698 Y44.113
X11.636 Y43.989
X11.598 Y43.856
X11.585 Y43.719
G3 X12.091 Y43.476 I0.317 J0.011
G1 X12.168 Y43.533
X16.369 Y46.668
X16.372 Y46.671
G3 X16.193 Y47.242 I-0.19 J0.254
G1 X14.153
X14.003 Y47.234
X13.82 Y47.208
X13.608 Y47.159
X13.391 Y47.091
X13.126 Y46.984
X12.86 Y46.85
X12.54 Y46.656
X12.222 Y46.427
X11.856 Y46.114
X11.801 Y46.059
X11.684 Y45.906
X11.61 Y45.728
X11.585 Y45.537
G3 X12.068 Y45.278 I0.317 J0.011
G1 X12.173 Y45.343
X14.308 Y46.655
G3 X14.153 Y47.242 I-0.166 J0.27
G1 X12.549
X12.4 Y47.234
X12.244 Y47.21
X12.096 Y47.175
X11.89 Y47.07
X11.726 Y46.906
X11.621 Y46.7
X11.585 Y46.471
G3 X12.083 Y46.222 I0.317 J0.011
G1 X12.17 Y46.282
X12.719 Y46.664
G3 X12.549 Y47.242 I-0.181 J0.26
G1 X11.966
X11.894 Y47.241
X11.857 Y47.236
X11.821 Y47.227
X11.792 Y47.217
X11.764 Y47.203
X11.735 Y47.186
X11.707 Y47.164
X11.675 Y47.132
X11.65 Y47.104
X11.631 Y47.075
X11.615 Y47.047
X11.604 Y47.018
X11.593 Y46.982
X11.587 Y46.945
X11.585 Y46.872
Y39.882
G3 X12.158 Y39.707 I0.317 J0.011
G1 X12.2 Y39.764 Z-4.992
X12.239 Y39.818 Z-4.969
X12.274 Y39.866 Z-4.931
X12.304 Y39.907 Z-4.881
X12.326 Y39.938 Z-4.821
X12.34 Y39.957 Z-4.754
X12.345 Y39.963 Z-4.683
G0 Z5
X12.238 Y17.362
Z-4.366
G1 Z-4.683 F1000
X12.234 Y17.355 Z-4.754
X12.222 Y17.335 Z-4.821
X12.203 Y17.302 Z-4.881
X12.177 Y17.259 Z-4.931
X12.147 Y17.208 Z-4.969
X12.112 Y17.15 Z-4.992
X12.076 Y17.089 Z-5
G3 X11.585 Y15.417 I3.02 J-1.795
G1 Y12.504
X11.6 Y12.196
X11.631 Y11.962
X11.688 Y11.696
X11.777 Y11.399
X11.905 Y11.07
X12.081 Y10.708
X12.31 Y10.319
X12.605 Y9.899
X12.958 Y9.473
X13.387 Y9.034
X13.861 Y8.62
X14.377 Y8.239
X14.717 Y8.025
X14.84 Y7.963
X14.973 Y7.924
X15.11 Y7.912
G3 X15.353 Y8.419 I-0.011 J0.317
G1 X15.296 Y8.494
X12.158 Y12.679
X12.155 Y12.683
G3 X11.585 Y12.504 I-0.254 J-0.19
G1 Y10.465
X11.592 Y10.315
X11.621 Y10.129
X11.67 Y9.919
X11.742 Y9.698
X11.854 Y9.428
X11.99 Y9.16
X12.191 Y8.835
X12.424 Y8.519
X12.74 Y8.154
X12.77 Y8.124
X12.922 Y8.008
X13.099 Y7.936
X13.289 Y7.912
G3 X13.547 Y8.395 I-0.011 J0.317
G1 X13.482 Y8.5
X12.171 Y10.621
G3 X11.585 Y10.465 I-0.27 J-0.167
G1 Y8.863
X11.592 Y8.713
X11.619 Y8.554
X11.638 Y8.474
X11.71 Y8.292
X11.827 Y8.134
X11.981 Y8.014
X12.162 Y7.937
X12.356 Y7.912
G3 X12.604 Y8.412 I-0.011 J0.317
G1 X12.544 Y8.496
X12.16 Y9.036
G3 X11.585 Y8.863 I-0.258 J-0.184
G1 Y8.281
X11.587 Y8.208
X11.593 Y8.171
X11.604 Y8.135
X11.615 Y8.106
X11.631 Y8.078
X11.65 Y8.049
X11.675 Y8.021
X11.707 Y7.989
X11.735 Y7.967
X11.764 Y7.95
X11.792 Y7.936
X11.821 Y7.926
X11.857 Y7.917
X11.894 Y7.912
X12.112
X18.962
G3 X19.138 Y8.485 I-0.011 J0.317
G1 X19.081 Y8.526 Z-4.992
X19.026 Y8.566 Z-4.969
X18.978 Y8.601 Z-4.931
X18.937 Y8.63 Z-4.881
X18.907 Y8.653 Z-4.821
X18.888 Y8.667 Z-4.754
X18.881 Y8.671 Z-4.683
G0 Z5
X99.947 Y8.565
Z-4.366
G1 Z-4.683 F1000
X99.954 Y8.561 Z-4.754
X99.974 Y8.549 Z-4.821
X100.006 Y8.53 Z-4.881
X100.049 Y8.504 Z-4.931
X100.101 Y8.473 Z-4.969
X100.159 Y8.439 Z-4.992
X100.219 Y8.403 Z-5
G3 X101.892 Y7.912 I1.795 J3.02
G1 X104.807
X105.134 Y7.928
X105.365 Y7.958
X105.629 Y8.015
X105.927 Y8.104
X106.255 Y8.232
X106.616 Y8.407
X107.008 Y8.637
X107.432 Y8.936
X107.857 Y9.289
X108.289 Y9.71
X108.711 Y10.193
X109.093 Y10.709
X109.302 Y11.042
X109.364 Y11.165
X109.402 Y11.298
X109.415 Y11.435
G3 X108.909 Y11.678 I-0.317 J-0.011
G1 X108.832 Y11.621
X104.631 Y8.485
X104.628 Y8.482
G3 X104.807 Y7.912 I0.19 J-0.254
G1 X106.847
X106.997 Y7.919
X107.18 Y7.946
X107.391 Y7.994
X107.608 Y8.062
X107.874 Y8.17
X108.14 Y8.303
X108.461 Y8.498
X108.779 Y8.728
X109.146 Y9.041
X109.199 Y9.094
X109.316 Y9.247
X109.39 Y9.426
X109.415 Y9.617
G3 X108.932 Y9.876 I-0.317 J-0.011
G1 X108.827 Y9.811
X106.692 Y8.498
G3 X106.847 Y7.912 I0.166 J-0.27
G1 X108.451
X108.6 Y7.919
X108.756 Y7.943
X108.904 Y7.978
X109.11 Y8.083
X109.274 Y8.247
X109.379 Y8.453
X109.415 Y8.682
G3 X108.917 Y8.931 I-0.317 J-0.011
G1 X108.83 Y8.871
X108.281 Y8.489
G3 X108.451 Y7.912 I0.181 J-0.26
G1 X109.034
X109.106
X109.143 Y7.917
X109.179 Y7.926
X109.208 Y7.936
X109.236 Y7.95
X109.265 Y7.967
X109.293 Y7.989
X109.325 Y8.021
X109.35 Y8.049
X109.369 Y8.078
X109.385 Y8.106
X109.396 Y8.135
X109.407 Y8.171
X109.413 Y8.208
X109.415 Y8.281
Y15.271
G3 X108.842 Y15.446 I-0.317 J-0.011
G1 X108.8 Y15.389 Z-4.992
X108.761 Y15.335 Z-4.969
X108.726 Y15.287 Z-4.931
X108.696 Y15.246 Z-4.881
X108.674 Y15.215 Z-4.821
X108.66 Y15.196 Z-4.754
X108.655 Y15.19 Z-4.683
G0 Z5
X108.762 Y37.791
Z-4.366
G1 Z-4.683 F1000
X108.766 Y37.798 Z-4.754
X108.778 Y37.818 Z-4.821
X108.797 Y37.851 Z-4.881
X108.823 Y37.894 Z-4.931
X108.853 Y37.945 Z-4.969
X108.888 Y38.003 Z-4.992
X108.924 Y38.064 Z-5
G3 X109.415 Y39.737 I-3.02 J1.795
G1 Y42.649
X109.399 Y42.961
X109.369 Y43.195
X109.313 Y43.456
X109.224 Y43.752
X109.096 Y44.081
X108.918 Y44.448
X108.689 Y44.837
X108.394 Y45.257
X108.042 Y45.681
X107.615 Y46.118
X107.135 Y46.537
X106.619 Y46.919
X106.285 Y47.128
X106.162 Y47.19
X106.03 Y47.229
X105.892 Y47.242
G3 X105.65 Y46.735 I0.011 J-0.317
G1 X105.706 Y46.659
X108.842 Y42.474
X108.844 Y42.47
G3 X109.415 Y42.649 I0.254 J0.19
G1 Y44.688
X109.408 Y44.838
X109.379 Y45.024
X109.33 Y45.233
X109.259 Y45.454
X109.147 Y45.724
X109.011 Y45.991
X108.81 Y46.317
X108.578 Y46.633
X108.262 Y46.999
X108.231 Y47.029
X108.079 Y47.144
X107.902 Y47.217
X107.713 Y47.242
G3 X107.454 Y46.758 I0.011 J-0.317
G1 X107.519 Y46.653
X108.828 Y44.532
G3 X109.415 Y44.688 I0.27 J0.167
G1 Y46.29
X109.408 Y46.44
X109.382 Y46.599
X109.362 Y46.679
X109.29 Y46.861
X109.173 Y47.018
X109.019 Y47.139
X108.838 Y47.216
X108.644 Y47.242
G3 X108.396 Y46.741 I0.011 J-0.317
G1 X108.456 Y46.657
X108.84 Y46.117
G3 X109.415 Y46.29 I0.258 J0.184
G1 Y46.872
X109.413 Y46.945
X109.407 Y46.982
X109.396 Y47.018
X109.385 Y47.047
X109.369 Y47.075
X109.35 Y47.104
X109.325 Y47.132
X109.293 Y47.164
X109.265 Y47.186
X109.236 Y47.203
X109.208 Y47.217
X109.179 Y47.227
X109.143 Y47.236
X109.106 Y47.241
X108.888 Y47.242
X102.103
G3 X101.798 Y46.943 I0.011 J-0.317
G1 X101.797 Y46.925 Z-4.999
X101.811 Y46.871 Z-4.991
X101.824 Y46.82 Z-4.973
X101.836 Y46.773 Z-4.946
X101.867 Y46.737 Z-4.907
X101.893 Y46.708 Z-4.859
X101.912 Y46.686 Z-4.804
X101.924 Y46.673 Z-4.745
X101.928 Y46.668 Z-4.683
G0 Z5
X21.053 Y46.588
Z-9.366
G1 Z-9.683 F1000
X21.046 Y46.592 Z-9.754
X21.026 Y46.604 Z-9.821
X20.994 Y46.624 Z-9.881
X20.951 Y46.649 Z-9.931
X20.899 Y46.68 Z-9.969
X20.841 Y46.714 Z-9.992
X20.781 Y46.75 Z-10
G3 X19.108 Y47.242 I-1.795 J-3.02
G1 X16.193
X15.866 Y47.225
X15.631 Y47.194
X15.371 Y47.139
X15.076 Y47.051
X14.744 Y46.921
X14.38 Y46.744
X13.985 Y46.512
X13.575 Y46.224
X13.137 Y45.86
X12.713 Y45.447
X12.291 Y44.963
X11.909 Y44.447
X11.698 Y44.113
X11.636 Y43.989
X11.598 Y43.856
X11.585 Y43.719
G3 X12.091 Y43.476 I0.317 J0.011
G1 X12.168 Y43.533
X16.369 Y46.668
X16.372 Y46.671
G3 X16.193 Y47.242 I-0.19 J0.254
G1 X14.153
X14.003 Y47.234
X13.82 Y47.208
X13.608 Y47.159
X13.391 Y47.091
X13.126 Y46.984
X12.86 Y46.85
X12.54 Y46.656
X12.222 Y46.427
X11.856 Y46.114
X11.801 Y46.059
X11.684 Y45.906
X11.61 Y45.728
X11.585 Y45.537
G3 X12.068 Y45.278 I0.317 J0.011
G1 X12.173 Y45.343
X14.308 Y46.655
G3 X14.153 Y47.242 I-0.166 J0.27
G1 X12.549
X12.4 Y47.234
X12.244 Y47.21
X12.096 Y47.175
X11.89 Y47.07
X11.726 Y46.906
X11.621 Y46.7
X11.585 Y46.471
G3 X12.083 Y46.222 I0.317 J0.011
G1 X12.17 Y46.282
X12.719 Y46.664
G3 X12.549 Y47.242 I-0.181 J0.26
G1 X11.966
X11.894 Y47.241
X11.857 Y47.236
X11.821 Y47.227
X11.792 Y47.217
X11.764 Y47.203
X11.735 Y47.186
X11.707 Y47.164
X11.675 Y47.132
X11.65 Y47.104
X11.631 Y47.075
X11.615 Y47.047
X11.604 Y47.018
X11.593 Y46.982
X11.587 Y46.945
X11.585 Y46.872
Y39.882
G3 X12.158 Y39.707 I0.317 J0.011
G1 X12.2 Y39.764 Z-9.992
X12.239 Y39.818 Z-9.969
X12.274 Y39.866 Z-9.931
X12.304 Y39.907 Z-9.881
X12.326 Y39.938 Z-9.821
X12.34 Y39.957 Z-9.754
X12.345 Y39.963 Z-9.683
G0 Z5
X12.238 Y17.362
Z-9.366
G1 Z-9.683 F1000
X12.234 Y17.355 Z-9.754
X12.222 Y17.335 Z-9.821
X12.203 Y17.302 Z-9.881
X12.177 Y17.259 Z-9.931
X12.147 Y17.208 Z-9.969
X12.112 Y17.15 Z-9.992
X12.076 Y17.089 Z-10
G3 X11.585 Y15.417 I3.02 J-1.795
G1 Y12.504
X11.6 Y12.196
X11.631 Y11.962
X11.688 Y11.696
X11.777 Y11.399
X11.905 Y11.07
X12.081 Y10.708
X12.31 Y10.319
X12.605 Y9.899
X12.958 Y9.473
X13.387 Y9.034
X13.861 Y8.62
X14.377 Y8.239
X14.717 Y8.025
X14.84 Y7.963
X14.973 Y7.924
X15.11 Y7.912
G3 X15.353 Y8.419 I-0.011 J0.317
G1 X15.296 Y8.494
X12.158 Y12.679
X12.155 Y12.683
G3 X11.585 Y12.504 I-0.254 J-0.19
G1 Y10.465
X11.592 Y10.315
X11.621 Y10.129
X11.67 Y9.919
X11.742 Y9.698
X11.854 Y9.428
X11.99 Y9.16
X12.191 Y8.835
X12.424 Y8.519
X12.74 Y8.154
X12.77 Y8.124
X12.922 Y8.008
X13.099 Y7.936
X13.289 Y7.912
G3 X13.547 Y8.395 I-0.011 J0.317
G1 X13.482 Y8.5
X12.171 Y10.621
G3 X11.585 Y10.465 I-0.27 J-0.167
G1 Y8.863
X11.592 Y8.713
X11.619 Y8.554
X11.638 Y8.474
X11.71 Y8.292
X11.827 Y8.134
X11.981 Y8.014
X12.162 Y7.937
X12.356 Y7.912
G3 X12.604 Y8.412 I-0.011 J0.317
G1 X12.544 Y8.496
X12.16 Y9.036
G3 X11.585 Y8.863 I-0.258 J-0.184
G1 Y8.281
X11.587 Y8.208
X11.593 Y8.171
X11.604 Y8.135
X11.615 Y8.106
X11.631 Y8.078
X11.65 Y8.049
X11.675 Y8.021
X11.707 Y7.989
X11.735 Y7.967
X11.764 Y7.95
X11.792 Y7.936
X11.821 Y7.926
X11.857 Y7.917
X11.894 Y7.912
X12.112
X18.962
G3 X19.138 Y8.485 I-0.011 J0.317
G1 X19.081 Y8.526 Z-9.992
X19.026 Y8.566 Z-9.969
X18.978 Y8.601 Z-9.931
X18.937 Y8.63 Z-9.881
X18.907 Y8.653 Z-9.821
X18.888 Y8.667 Z-9.754
X18.881 Y8.671 Z-9.683
G0 Z5
X99.947 Y8.565
Z-9.366
G1 Z-9.683 F1000
X99.954 Y8.561 Z-9.754
X99.974 Y8.549 Z-9.821
X100.006 Y8.53 Z-9.881
X100.049 Y8.504 Z-9.931
X100.101 Y8.473 Z-9.969
X100.159 Y8.439 Z-9.992
X100.219 Y8.403 Z-10
G3 X101.892 Y7.912 I1.795 J3.02
G1 X104.807
X105.134 Y7.928
X105.365 Y7.958
X105.629 Y8.015
X105.927 Y8.104
X106.255 Y8.232
X106.616 Y8.407
X107.008 Y8.637
X107.432 Y8.936
X107.857 Y9.289
X108.289 Y9.71
X108.711 Y10.193
X109.093 Y10.709
X109.302 Y11.042
X109.364 Y11.165
X109.402 Y11.298
X109.415 Y11.435
G3 X108.909 Y11.678 I-0.317 J-0.011
G1 X108.832 Y11.621
X104.631 Y8.485
X104.628 Y8.482
G3 X104.807 Y7.912 I0.19 J-0.254
G1 X106.847
X106.997 Y7.919
X107.18 Y7.946
X107.391 Y7.994
X107.608 Y8.062
X107.874 Y8.17
X108.14 Y8.303
X108.461 Y8.498
X108.779 Y8.728
X109.146 Y9.041
X109.199 Y9.094
X109.316 Y9.247
X109.39 Y9.426
X109.415 Y9.617
G3 X108.932 Y9.876 I-0.317 J-0.011
G1 X108.827 Y9.811
X106.692 Y8.498
G3 X106.847 Y7.912 I0.166 J-0.27
G1 X108.451
X108.6 Y7.919
X108.756 Y7.943
X108.904 Y7.978
X109.11 Y8.083
X109.274 Y8.247
X109.379 Y8.453
X109.415 Y8.682
G3 X108.917 Y8.931 I-0.317 J-0.011
G1 X108.83 Y8.871
X108.281 Y8.489
G3 X108.451 Y7.912 I0.181 J-0.26
G1 X109.034
X109.106
X109.143 Y7.917
X109.179 Y7.926
X109.208 Y7.936
X109.236 Y7.95
X109.265 Y7.967
X109.293 Y7.989
X109.325 Y8.021
X109.35 Y8.049
X109.369 Y8.078
X109.385 Y8.106
X109.396 Y8.135
X109.407 Y8.171
X109.413 Y8.208
X109.415 Y8.281
Y15.271
G3 X108.842 Y15.446 I-0.317 J-0.011
G1 X108.8 Y15.389 Z-9.992
X108.761 Y15.335 Z-9.969
X108.726 Y15.287 Z-9.931
X108.696 Y15.246 Z-9.881
X108.674 Y15.215 Z-9.821
X108.66 Y15.196 Z-9.754
X108.655 Y15.19 Z-9.683
G0 Z5
X108.762 Y37.791
Z-9.366
G1 Z-9.683 F1000
X108.766 Y37.798 Z-9.754
X108.778 Y37.818 Z-9.821
X108.797 Y37.851 Z-9.881
X108.823 Y37.894 Z-9.931
X108.853 Y37.945 Z-9.969
X108.888 Y38.003 Z-9.992
X108.924 Y38.064 Z-10
G3 X109.415 Y39.737 I-3.02 J1.795
G1 Y42.649
X109.399 Y42.961
X109.369 Y43.195
X109.313 Y43.456
X109.224 Y43.752
X109.096 Y44.081
X108.918 Y44.448
X108.689 Y44.837
X108.394 Y45.257
X108.042 Y45.681
X107.615 Y46.118
X107.135 Y46.537
X106.619 Y46.919
X106.285 Y47.128
X106.162 Y47.19
X106.03 Y47.229
X105.892 Y47.242
G3 X105.65 Y46.735 I0.011 J-0.317
G1 X105.706 Y46.659
X108.842 Y42.474
X108.844 Y42.47
G3 X109.415 Y42.649 I0.254 J0.19
G1 Y44.688
X109.408 Y44.838
X109.379 Y45.024
X109.33 Y45.233
X109.259 Y45.454
X109.147 Y45.724
X109.011 Y45.991
X108.81 Y46.317
X108.578 Y46.633
X108.262 Y46.999
X108.231 Y47.029
X108.079 Y47.144
X107.902 Y47.217
X107.713 Y47.242
G3 X107.454 Y46.758 I0.011 J-0.317
G1 X107.519 Y46.653
X108.828 Y44.532
G3 X109.415 Y44.688 I0.27 J0.167
G1 Y46.29
X109.408 Y46.44
X109.382 Y46.599
X109.362 Y46.679
X109.29 Y46.861
X109.173 Y47.018
X109.019 Y47.139
X108.838 Y47.216
X108.644 Y47.242
G3 X108.396 Y46.741 I0.011 J-0.317
G1 X108.456 Y46.657
X108.84 Y46.117
G3 X109.415 Y46.29 I0.258 J0.184
G1 Y46.872
X109.413 Y46.945
X109.407 Y46.982
X109.396 Y47.018
X109.385 Y47.047
X109.369 Y47.075
X109.35 Y47.104
X109.325 Y47.132
X109.293 Y47.164
X109.265 Y47.186
X109.236 Y47.203
X109.208 Y47.217
X109.179 Y47.227
X109.143 Y47.236
X109.106 Y47.241
X108.888 Y47.242
X102.103
G3 X101.798 Y46.943 I0.011 J-0.317
G1 X101.797 Y46.925 Z-9.999
X101.811 Y46.871 Z-9.991
X101.824 Y46.82 Z-9.973
X101.836 Y46.773 Z-9.946
X101.867 Y46.737 Z-9.907
X101.893 Y46.708 Z-9.859
X101.912 Y46.686 Z-9.804
X101.924 Y46.673 Z-9.745
X101.928 Y46.668 Z-9.683
G0 Z5
X21.053 Y46.588
Z-11.566
G1 Z-11.883 F1000
X21.046 Y46.592 Z-11.954
X21.026 Y46.604 Z-12.021
X20.994 Y46.624 Z-12.081
X20.951 Y46.649 Z-12.131
X20.899 Y46.68 Z-12.169
X20.841 Y46.714 Z-12.192
X20.781 Y46.75 Z-12.2
G3 X19.108 Y47.242 I-1.795 J-3.02
G1 X16.193
X15.866 Y47.225
X15.631 Y47.194
X15.371 Y47.139
X15.076 Y47.051
X14.744 Y46.921
X14.38 Y46.744
X13.985 Y46.512
X13.575 Y46.224
X13.137 Y45.86
X12.713 Y45.447
X12.291 Y44.963
X11.909 Y44.447
X11.698 Y44.113
X11.636 Y43.989
X11.598 Y43.856
X11.585 Y43.719
G3 X12.091 Y43.476 I0.317 J0.011
G1 X12.168 Y43.533
X16.369 Y46.668
X16.372 Y46.671
G3 X16.193 Y47.242 I-0.19 J0.254
G1 X14.153
X14.003 Y47.234
X13.82 Y47.208
X13.608 Y47.159
X13.391 Y47.091
X13.126 Y46.984
X12.86 Y46.85
X12.54 Y46.656
X12.222 Y46.427
X11.856 Y46.114
X11.801 Y46.059
X11.684 Y45.906
X11.61 Y45.728
X11.585 Y45.537
G3 X12.068 Y45.278 I0.317 J0.011
G1 X12.173 Y45.343
X14.308 Y46.655
G3 X14.153 Y47.242 I-0.166 J0.27
G1 X12.549
X12.4 Y47.234
X12.244 Y47.21
X12.096 Y47.175
X11.89 Y47.07
X11.726 Y46.906
X11.621 Y46.7
X11.585 Y46.471
G3 X12.083 Y46.222 I0.317 J0.011
G1 X12.17 Y46.282
X12.719 Y46.664
G3 X12.549 Y47.242 I-0.181 J0.26
G1 X11.966
X11.894 Y47.241
X11.857 Y47.236
X11.821 Y47.227
X11.792 Y47.217
X11.764 Y47.203
X11.735 Y47.186
X11.707 Y47.164
X11.675 Y47.132
X11.65 Y47.104
X11.631 Y47.075
X11.615 Y47.047
X11.604 Y47.018
X11.593 Y46.982
X11.587 Y46.945
X11.585 Y46.872
Y39.882
G3 X12.158 Y39.707 I0.317 J0.011
G1 X12.2 Y39.764 Z-12.192
X12.239 Y39.818 Z-12.169
X12.274 Y39.866 Z-12.131
X12.304 Y39.907 Z-12.081
X12.326 Y39.938 Z-12.021
X12.34 Y39.957 Z-11.954
X12.345 Y39.963 Z-11.883
G0 Z5
X12.238 Y17.362
Z-11.566
G1 Z-11.883 F1000
X12.234 Y17.355 Z-11.954
X12.222 Y17.335 Z-12.021
X12.203 Y17.302 Z-12.081
X12.177 Y17.259 Z-12.131
X12.147 Y17.208 Z-12.169
X12.112 Y17.15 Z-12.192
X12.076 Y17.089 Z-12.2
G3 X11.585 Y15.417 I3.02 J-1.795
G1 Y12.504
X11.6 Y12.196
X11.631 Y11.962
X11.688 Y11.696
X11.777 Y11.399
X11.905 Y11.07
X12.081 Y10.708
X12.31 Y10.319
X12.605 Y9.899
X12.958 Y9.473
X13.387 Y9.034
X13.861 Y8.62
X14.377 Y8.239
X14.717 Y8.025
X14.84 Y7.963
X14.973 Y7.924
X15.11 Y7.912
G3 X15.353 Y8.419 I-0.011 J0.317
G1 X15.296 Y8.494
X12.158 Y12.679
X12.155 Y12.683
G3 X11.585 Y12.504 I-0.254 J-0.19
G1 Y10.465
X11.592 Y10.315
X11.621 Y10.129
X11.67 Y9.919
X11.742 Y9.698
X11.854 Y9.428
X11.99 Y9.16
X12.191 Y8.835
X12.424 Y8.519
X12.74 Y8.154
X12.77 Y8.124
X12.922 Y8.008
X13.099 Y7.936
X13.289 Y7.912
G3 X13.547 Y8.395 I-0.011 J0.317
G1 X13.482 Y8.5
X12.171 Y10.621
G3 X11.585 Y10.465 I-0.27 J-0.167
G1 Y8.863
X11.592 Y8.713
X11.619 Y8.554
X11.638 Y8.474
X11.71 Y8.292
X11.827 Y8.134
X11.981 Y8.014
X12.162 Y7.937
X12.356 Y7.912
G3 X12.604 Y8.412 I-0.011 J0.317
G1 X12.544 Y8.496
X12.16 Y9.036
G3 X11.585 Y8.863 I-0.258 J-0.184
G1 Y8.281
X11.587 Y8.208
X11.593 Y8.171
X11.604 Y8.135
X11.615 Y8.106
X11.631 Y8.078
X11.65 Y8.049
X11.675 Y8.021
X11.707 Y7.989
X11.735 Y7.967
X11.764 Y7.95
X11.792 Y7.936
X11.821 Y7.926
X11.857 Y7.917
X11.894 Y7.912
X12.112
X18.962
G3 X19.138 Y8.485 I-0.011 J0.317
G1 X19.081 Y8.526 Z-12.192
X19.026 Y8.566 Z-12.169
X18.978 Y8.601 Z-12.131
X18.937 Y8.63 Z-12.081
X18.907 Y8.653 Z-12.021
X18.888 Y8.667 Z-11.954
X18.881 Y8.671 Z-11.883
G0 Z5
X99.947 Y8.565
Z-11.566
G1 Z-11.883 F1000
X99.954 Y8.561 Z-11.954
X99.974 Y8.549 Z-12.021
X100.006 Y8.53 Z-12.081
X100.049 Y8.504 Z-12.131
X100.101 Y8.473 Z-12.169
X100.159 Y8.439 Z-12.192
X100.219 Y8.403 Z-12.2
G3 X101.892 Y7.912 I1.795 J3.02
G1 X104.807
X105.134 Y7.928
X105.365 Y7.958
X105.629 Y8.015
X105.927 Y8.104
X106.255 Y8.232
X106.616 Y8.407
X107.008 Y8.637
X107.432 Y8.936
X107.857 Y9.289
X108.289 Y9.71
X108.711 Y10.193
X109.093 Y10.709
X109.302 Y11.042
X109.364 Y11.165
X109.402 Y11.298
X109.415 Y11.435
G3 X108.909 Y11.678 I-0.317 J-0.011
G1 X108.832 Y11.621
X104.631 Y8.485
X104.628 Y8.482
G3 X104.807 Y7.912 I0.19 J-0.254
G1 X106.847
X106.997 Y7.919
X107.18 Y7.946
X107.391 Y7.994
X107.608 Y8.062
X107.874 Y8.17
X108.14 Y8.303
X108.461 Y8.498
X108.779 Y8.728
X109.146 Y9.041
X109.199 Y9.094
X109.316 Y9.247
X109.39 Y9.426
X109.415 Y9.617
G3 X108.932 Y9.876 I-0.317 J-0.011
G1 X108.827 Y9.811
X106.692 Y8.498
G3 X106.847 Y7.912 I0.166 J-0.27
G1 X108.451
X108.6 Y7.919
X108.756 Y7.943
X108.904 Y7.978
X109.11 Y8.083
X109.274 Y8.247
X109.379 Y8.453
X109.415 Y8.682
G3 X108.917 Y8.931 I-0.317 J-0.011
G1 X108.83 Y8.871
X108.281 Y8.489
G3 X108.451 Y7.912 I0.181 J-0.26
G1 X109.034
X109.106
X109.143 Y7.917
X109.179 Y7.926
X109.208 Y7.936
X109.236 Y7.95
X109.265 Y7.967
X109.293 Y7.989
X109.325 Y8.021
X109.35 Y8.049
X109.369 Y8.078
X109.385 Y8.106
X109.396 Y8.135
X109.407 Y8.171
X109.413 Y8.208
X109.415 Y8.281
Y15.271
G3 X108.842 Y15.446 I-0.317 J-0.011
G1 X108.8 Y15.389 Z-12.192
X108.761 Y15.335 Z-12.169
X108.726 Y15.287 Z-12.131
X108.696 Y15.246 Z-12.081
X108.674 Y15.215 Z-12.021
X108.66 Y15.196 Z-11.954
X108.655 Y15.19 Z-11.883
G0 Z5
X108.762 Y37.791
Z-11.566
G1 Z-11.883 F1000
X108.766 Y37.798 Z-11.954
X108.778 Y37.818 Z-12.021
X108.797 Y37.851 Z-12.081
X108.823 Y37.894 Z-12.131
X108.853 Y37.945 Z-12.169
X108.888 Y38.003 Z-12.192
X108.924 Y38.064 Z-12.2
G3 X109.415 Y39.737 I-3.02 J1.795
G1 Y42.649
X109.399 Y42.961
X109.369 Y43.195
X109.313 Y43.456
X109.224 Y43.752
X109.096 Y44.081
X108.918 Y44.448
X108.689 Y44.837
X108.394 Y45.257
X108.042 Y45.681
X107.615 Y46.118
X107.135 Y46.537
X106.619 Y46.919
X106.285 Y47.128
X106.162 Y47.19
X106.03 Y47.229
X105.892 Y47.242
G3 X105.65 Y46.735 I0.011 J-0.317
G1 X105.706 Y46.659
X108.842 Y42.474
X108.844 Y42.47
G3 X109.415 Y42.649 I0.254 J0.19
G1 Y44.688
X109.408 Y44.838
X109.379 Y45.024
X109.33 Y45.233
X109.259 Y45.454
X109.147 Y45.724
X109.011 Y45.991
X108.81 Y46.317
X108.578 Y46.633
X108.262 Y46.999
X108.231 Y47.029
X108.079 Y47.144
X107.902 Y47.217
X107.713 Y47.242
G3 X107.454 Y46.758 I0.011 J-0.317
G1 X107.519 Y46.653
X108.828 Y44.532
G3 X109.415 Y44.688 I0.27 J0.167
G1 Y46.29
X109.408 Y46.44
X109.382 Y46.599
X109.362 Y46.679
X109.29 Y46.861
X109.173 Y47.018
X109.019 Y47.139
X108.838 Y47.216
X108.644 Y47.242
G3 X108.396 Y46.741 I0.011 J-0.317
G1 X108.456 Y46.657
X108.84 Y46.117
G3 X109.415 Y46.29 I0.258 J0.184
G1 Y46.872
X109.413 Y46.945
X109.407 Y46.982
X109.396 Y47.018
X109.385 Y47.047
X109.369 Y47.075
X109.35 Y47.104
X109.325 Y47.132
X109.293 Y47.164
X109.265 Y47.186
X109.236 Y47.203
X109.208 Y47.217
X109.179 Y47.227
X109.143 Y47.236
X109.106 Y47.241
X108.888 Y47.242
X102.103
G3 X101.928 Y46.668 I0.011 J-0.317
G1 X101.985 Y46.627 Z-12.192
X102.039 Y46.587 Z-12.169
X102.088 Y46.552 Z-12.131
X102.128 Y46.523 Z-12.081
X102.159 Y46.5 Z-12.021
X102.178 Y46.487 Z-11.954
X102.184 Y46.482 Z-11.883
G0 Z15
M9
M30
%
