%
(top6-1_8_upcut)
(T1  D=3.17 CR=0 - ZMIN=-15.2 - flat end mill)
G90 G94
G17
G21

(PocketA-1/8)
M9
T1 M6
S5000 M3
G54
G0 X101.762 Y35.152
Z15
Z5
Z-14.566
G1 Z-14.883 F1000
X101.766 Y35.159 Z-14.954
X101.778 Y35.179 Z-15.021
X101.797 Y35.212 Z-15.081
X101.823 Y35.255 Z-15.131
X101.853 Y35.306 Z-15.169
X101.888 Y35.364 Z-15.192
X101.924 Y35.425 Z-15.2
G3 X102.415 Y37.097 I-3.02 J1.795
G1 Y37.287
X102.413 Y37.325
X102.314 Y37.438
X102.202 Y37.537
X102.077 Y37.627
X101.916 Y37.724
X101.71 Y37.827
X101.44 Y37.936
X101.075 Y38.05
X100.553 Y38.168
X99.918 Y38.259
X99.279 Y38.311
X98.638 Y38.342
X97.996 Y38.359
X97.355 Y38.37
X96.713 Y38.376
X96.071 Y38.379
X94.788 Y38.383
X91.58 Y38.384
X63.325
X63.096 Y38.348
X62.89 Y38.243
X62.726 Y38.08
X62.621 Y37.873
X62.585 Y37.645
G3 X63.158 Y37.469 I0.317 J0.011
G1 X63.2 Y37.526 Z-15.192
X63.239 Y37.581 Z-15.169
X63.274 Y37.629 Z-15.131
X63.304 Y37.67 Z-15.081
X63.326 Y37.7 Z-15.021
X63.34 Y37.719 Z-14.954
X63.345 Y37.726 Z-14.883
G0 Z5
X102.032 Y36.261
Z-14.566
G1 Z-14.883 F1000
X102.036 Y36.268 Z-14.954
X102.048 Y36.288 Z-15.021
X102.067 Y36.321 Z-15.081
X102.093 Y36.364 Z-15.131
X102.123 Y36.415 Z-15.169
X102.158 Y36.473 Z-15.192
X102.194 Y36.534 Z-15.2
G3 X102.415 Y37.287 I-1.36 J0.809
G1 Y37.724
X102.408 Y37.874
X102.342 Y38.009
X102.262 Y38.136
X102.17 Y38.255
X102.061 Y38.374
X101.916 Y38.507
X101.755 Y38.634
X101.552 Y38.769
X101.293 Y38.912
X100.992 Y39.049
X100.597 Y39.191
X100.074 Y39.332
X99.443 Y39.45
X98.806 Y39.524
X98.166 Y39.572
X97.525 Y39.602
X96.884 Y39.621
X96.242 Y39.633
X95.601 Y39.64
X94.959 Y39.645
X94.317 Y39.648
X93.034 Y39.651
X89.826 Y39.652
X64.8 Y39.653
X64.159 Y39.652
X63.836 Y39.627
X63.539 Y39.58
X63.323 Y39.528
X63.11 Y39.458
X63.038 Y39.427
X62.853 Y39.315
X62.709 Y39.155
X62.617 Y38.959
X62.585 Y38.746
G3 X63.158 Y38.57 I0.317 J0.011
G1 X63.2 Y38.627 Z-15.192
X63.239 Y38.681 Z-15.169
X63.274 Y38.73 Z-15.131
X63.304 Y38.77 Z-15.081
X63.326 Y38.801 Z-15.021
X63.34 Y38.82 Z-14.954
X63.345 Y38.826 Z-14.883
G0 Z5
X102.032 Y36.698
Z-14.566
G1 Z-14.883 F1000
X102.036 Y36.705 Z-14.954
X102.048 Y36.725 Z-15.021
X102.067 Y36.758 Z-15.081
X102.093 Y36.801 Z-15.131
X102.123 Y36.853 Z-15.169
X102.158 Y36.91 Z-15.192
X102.194 Y36.971 Z-15.2
G3 X102.415 Y37.724 I-1.36 J0.809
G1 Y38.409
X102.408 Y38.559
X102.372 Y38.704
X102.318 Y38.845
X102.251 Y38.979
X102.17 Y39.11
X102.071 Y39.244
X101.941 Y39.394
X101.794 Y39.538
X101.6 Y39.7
X101.379 Y39.856
X101.101 Y40.02
X100.768 Y40.184
X100.344 Y40.35
X99.824 Y40.507
X99.197 Y40.643
X98.562 Y40.735
X97.923 Y40.798
X97.283 Y40.84
X96.642 Y40.867
X96 Y40.886
X95.359 Y40.898
X94.717 Y40.906
X94.075 Y40.911
X93.434 Y40.915
X92.15 Y40.918
X89.584 Y40.92
X65.2
X64.559 Y40.905
X64.036 Y40.856
X63.68 Y40.794
X63.377 Y40.715
X63.16 Y40.64
X63.027 Y40.581
X62.846 Y40.468
X62.705 Y40.308
X62.616 Y40.115
X62.585 Y39.904
Y38.746
G3 X63.158 Y38.57 I0.317 J0.011
G1 X63.2 Y38.627 Z-15.192
X63.239 Y38.681 Z-15.169
X63.274 Y38.73 Z-15.131
X63.304 Y38.77 Z-15.081
X63.326 Y38.801 Z-15.021
X63.34 Y38.82 Z-14.954
X63.345 Y38.826 Z-14.883
G0 Z5
X102.032 Y37.383
Z-14.566
G1 Z-14.883 F1000
X102.036 Y37.39 Z-14.954
X102.048 Y37.41 Z-15.021
X102.067 Y37.442 Z-15.081
X102.093 Y37.486 Z-15.131
X102.123 Y37.537 Z-15.169
X102.158 Y37.595 Z-15.192
X102.194 Y37.655 Z-15.2
G3 X102.415 Y38.409 I-1.36 J0.809
G1 Y39.283
X102.408 Y39.433
X102.385 Y39.581
X102.345 Y39.726
X102.29 Y39.866
X102.223 Y40
X102.134 Y40.149
X102.025 Y40.301
X101.888 Y40.463
X101.719 Y40.633
X101.517 Y40.806
X101.265 Y40.989
X100.973 Y41.167
X100.606 Y41.352
X100.155 Y41.536
X99.606 Y41.71
X98.981 Y41.853
X98.347 Y41.956
X97.71 Y42.028
X97.07 Y42.078
X96.429 Y42.114
X95.788 Y42.138
X95.147 Y42.154
X94.505 Y42.166
X93.864 Y42.173
X93.222 Y42.178
X92.58 Y42.182
X91.297 Y42.186
X88.73 Y42.188
X66.272
X65.63 Y42.184
X64.989 Y42.163
X64.349 Y42.112
X63.855 Y42.034
X63.505 Y41.948
X63.241 Y41.861
X63.019 Y41.767
X62.983 Y41.749
X62.819 Y41.633
X62.692 Y41.476
X62.612 Y41.292
X62.585 Y41.093
Y39.904
G3 X63.158 Y39.729 I0.317 J0.011
G1 X63.2 Y39.786 Z-15.192
X63.239 Y39.84 Z-15.169
X63.274 Y39.888 Z-15.131
X63.304 Y39.929 Z-15.081
X63.326 Y39.96 Z-15.021
X63.34 Y39.979 Z-14.954
X63.345 Y39.985 Z-14.883
G0 Z5
X102.032 Y38.257
Z-14.566
G1 Z-14.883 F1000
X102.036 Y38.264 Z-14.954
X102.048 Y38.284 Z-15.021
X102.067 Y38.317 Z-15.081
X102.093 Y38.36 Z-15.131
X102.123 Y38.412 Z-15.169
X102.158 Y38.469 Z-15.192
X102.194 Y38.53 Z-15.2
G3 X102.415 Y39.283 I-1.36 J0.809
G1 Y40.304
X102.408 Y40.453
X102.388 Y40.602
X102.351 Y40.748
X102.301 Y40.889
X102.233 Y41.038
X102.15 Y41.185
X102.037 Y41.354
X101.905 Y41.521
X101.733 Y41.705
X101.531 Y41.889
X101.277 Y42.085
X100.982 Y42.278
X100.605 Y42.483
X100.18 Y42.672
X99.629 Y42.865
X99.008 Y43.028
X98.378 Y43.149
X97.742 Y43.237
X97.104 Y43.301
X96.464 Y43.347
X95.823 Y43.38
X95.182 Y43.403
X94.54 Y43.42
X93.899 Y43.431
X93.257 Y43.439
X92.616 Y43.445
X91.974 Y43.449
X90.691 Y43.453
X88.765 Y43.455
X81.065 Y43.456
X67.59
X66.949
X66.307 Y43.451
X65.665 Y43.437
X65.025 Y43.406
X64.386 Y43.341
X63.853 Y43.248
X63.504 Y43.157
X63.217 Y43.058
X63.002 Y42.963
X62.973 Y42.947
X62.813 Y42.831
X62.689 Y42.676
X62.612 Y42.493
X62.585 Y42.297
Y41.093
G3 X63.158 Y40.917 I0.317 J0.011
G1 X63.2 Y40.974 Z-15.192
X63.239 Y41.028 Z-15.169
X63.274 Y41.077 Z-15.131
X63.304 Y41.118 Z-15.081
X63.326 Y41.148 Z-15.021
X63.34 Y41.167 Z-14.954
X63.345 Y41.174 Z-14.883
G0 Z5
X102.032 Y39.278
Z-14.566
G1 Z-14.883 F1000
X102.036 Y39.284 Z-14.954
X102.048 Y39.305 Z-15.021
X102.067 Y39.337 Z-15.081
X102.093 Y39.38 Z-15.131
X102.123 Y39.432 Z-15.169
X102.158 Y39.489 Z-15.192
X102.194 Y39.55 Z-15.2
G3 X102.415 Y40.304 I-1.36 J0.809
G1 Y41.469
X102.408 Y41.619
X102.379 Y41.766
X102.336 Y41.91
X102.277 Y42.057
X102.201 Y42.211
X102.102 Y42.376
X101.974 Y42.555
X101.821 Y42.737
X101.627 Y42.933
X101.398 Y43.129
X101.109 Y43.339
X100.769 Y43.547
X100.359 Y43.755
X99.844 Y43.965
X99.232 Y44.159
X98.608 Y44.307
X97.976 Y44.418
X97.34 Y44.501
X96.701 Y44.563
X96.061 Y44.608
X95.42 Y44.642
X94.779 Y44.666
X94.137 Y44.683
X93.496 Y44.695
X92.854 Y44.704
X92.213 Y44.711
X91.571 Y44.715
X90.288 Y44.72
X88.363 Y44.723
X83.229 Y44.724
X67.829
X67.188 Y44.722
X66.546 Y44.715
X65.904 Y44.698
X65.264 Y44.663
X64.625 Y44.601
X64.04 Y44.509
X63.608 Y44.405
X63.292 Y44.302
X63.064 Y44.207
X62.985 Y44.166
X62.82 Y44.05
X62.693 Y43.893
X62.612 Y43.708
X62.585 Y43.509
Y42.297
G3 X63.158 Y42.121 I0.317 J0.011
G1 X63.2 Y42.178 Z-15.192
X63.239 Y42.232 Z-15.169
X63.274 Y42.281 Z-15.131
X63.304 Y42.322 Z-15.081
X63.326 Y42.352 Z-15.021
X63.34 Y42.371 Z-14.954
X63.345 Y42.377 Z-14.883
G0 Z5
X102.032 Y40.443
Z-14.566
G1 Z-14.883 F1000
X102.036 Y40.45 Z-14.954
X102.048 Y40.47 Z-15.021
X102.067 Y40.503 Z-15.081
X102.093 Y40.546 Z-15.131
X102.123 Y40.598 Z-15.169
X102.158 Y40.655 Z-15.192
X102.194 Y40.716 Z-15.2
G3 X102.415 Y41.469 I-1.36 J0.809
G1 Y42.57
X102.408 Y42.72
X102.383 Y42.867
X102.343 Y43.012
X102.288 Y43.159
X102.217 Y43.312
X102.119 Y43.486
X102.003 Y43.657
X101.845 Y43.854
X101.667 Y44.042
X101.425 Y44.26
X101.161 Y44.462
X100.806 Y44.69
X100.409 Y44.904
X99.911 Y45.121
X99.304 Y45.33
X98.683 Y45.492
X98.054 Y45.617
X97.419 Y45.712
X96.782 Y45.785
X96.142 Y45.84
X95.502 Y45.881
X94.861 Y45.912
X94.22 Y45.934
X93.578 Y45.951
X92.937 Y45.963
X92.295 Y45.971
X91.654 Y45.978
X91.012 Y45.982
X89.729 Y45.987
X87.804 Y45.991
X83.312 Y45.992
X68.553
X67.912 Y45.99
X67.27 Y45.985
X66.629 Y45.974
X65.987 Y45.951
X65.347 Y45.912
X64.708 Y45.847
X64.08 Y45.747
X63.631 Y45.637
X63.301 Y45.528
X63.069 Y45.43
X62.983 Y45.385
X62.819 Y45.269
X62.692 Y45.113
X62.612 Y44.929
X62.585 Y44.729
Y43.509
G3 X63.158 Y43.333 I0.317 J0.011
G1 X63.2 Y43.39 Z-15.192
X63.239 Y43.444 Z-15.169
X63.274 Y43.493 Z-15.131
X63.304 Y43.533 Z-15.081
X63.326 Y43.564 Z-15.021
X63.34 Y43.583 Z-14.954
X63.345 Y43.589 Z-14.883
G0 Z5
X102.032 Y41.544
Z-14.566
G1 Z-14.883 F1000
X102.036 Y41.55 Z-14.954
X102.048 Y41.571 Z-15.021
X102.067 Y41.603 Z-15.081
X102.093 Y41.646 Z-15.131
X102.123 Y41.698 Z-15.169
X102.158 Y41.756 Z-15.192
X102.194 Y41.816 Z-15.2
G3 X102.415 Y42.57 I-1.36 J0.809
G1 Y43.736
X102.408 Y43.885
X102.381 Y44.033
X102.341 Y44.177
X102.287 Y44.32
X102.211 Y44.483
X102.112 Y44.656
X101.988 Y44.839
X101.83 Y45.035
X101.639 Y45.236
X101.398 Y45.452
X101.111 Y45.67
X100.758 Y45.897
X100.318 Y46.131
X99.806 Y46.354
X99.199 Y46.561
X98.578 Y46.724
X97.949 Y46.851
X97.315 Y46.95
X96.678 Y47.026
X96.039 Y47.085
X95.399 Y47.13
X94.759 Y47.164
X94.117 Y47.19
X93.476 Y47.209
X92.834 Y47.223
X92.193 Y47.233
X91.502 Y47.242
X68.07
X67.429 Y47.209
X66.787 Y47.212
X66.146 Y47.197
X65.505 Y47.161
X64.866 Y47.1
X64.232 Y47.005
X63.721 Y46.89
X63.375 Y46.782
X63.121 Y46.68
X62.994 Y46.617
X62.826 Y46.501
X62.696 Y46.344
X62.613 Y46.157
X62.585 Y45.955
G3 X62.96 Y45.654 I0.317 J0.011
G1 X63.196 Y45.698
X68.117 Y46.613
G3 X68.07 Y47.242 I-0.058 J0.312
G1 X63.114
X63.07
X63.039
X62.889 Y47.234
X62.767 Y47.176
X62.67 Y47.083
X62.607 Y46.964
X62.585 Y46.831
G3 X62.708 Y46.528 I0.475 J0.017
X63.34 Y47.101 I0.316 J0.286
X63.039 Y47.242 I-0.316 J-0.286
G1 X62.895 Y47.241
X62.859 Y47.236
X62.822 Y47.227
X62.791 Y47.216
X62.759 Y47.2
X62.727 Y47.18
X62.696 Y47.153
X62.676 Y47.133
X62.649 Y47.102
X62.628 Y47.07
X62.612 Y47.039
X62.6 Y47.007
X62.591 Y46.971
X62.586 Y46.934
X62.585 Y46.862
Y44.729
G3 X63.158 Y44.554 I0.317 J0.011
G1 X63.2 Y44.611 Z-15.192
X63.239 Y44.665 Z-15.169
X63.274 Y44.714 Z-15.131
X63.304 Y44.754 Z-15.081
X63.326 Y44.785 Z-15.021
X63.34 Y44.804 Z-14.954
X63.345 Y44.81 Z-14.883
G0 Z5
X102.032 Y42.71
Z-14.566
G1 Z-14.883 F1000
X102.036 Y42.716 Z-14.954
X102.048 Y42.737 Z-15.021
X102.067 Y42.769 Z-15.081
X102.093 Y42.812 Z-15.131
X102.123 Y42.864 Z-15.169
X102.158 Y42.921 Z-15.192
X102.194 Y42.982 Z-15.2
G3 X102.415 Y43.736 I-1.36 J0.809
G1 Y44.901
X102.408 Y45.051
X102.382 Y45.199
X102.341 Y45.343
X102.286 Y45.493
X102.211 Y45.654
X102.109 Y45.834
X101.987 Y46.014
X101.82 Y46.222
X101.632 Y46.422
X101.378 Y46.651
X101.097 Y46.866
X100.729 Y47.104
X100.637 Y47.153
X100.526 Y47.202
X100.408 Y47.232
X100.287 Y47.242
G3 X100.062 Y46.713 I0.011 J-0.317
G1 X100.106 Y46.663
X101.841 Y44.725
X101.862 Y44.701
G3 X102.415 Y44.901 I0.236 J0.211
G1 Y46.067
X102.408 Y46.217
X102.383 Y46.365
X102.345 Y46.51
X102.29 Y46.662
X102.219 Y46.821
X102.198 Y46.859
X102.081 Y47.017
X101.926 Y47.139
X101.745 Y47.215
X101.55 Y47.242
G3 X101.294 Y46.755 I0.011 J-0.317
G1 X101.357 Y46.654
X101.831 Y45.909
G3 X102.415 Y46.067 I0.268 J0.17
G1 Y46.862
X102.414 Y46.934
X102.409 Y46.971
X102.4 Y47.007
X102.388 Y47.039
X102.372 Y47.07
X102.351 Y47.102
X102.324 Y47.133
X102.304 Y47.153
X102.273 Y47.18
X102.241 Y47.2
X102.209 Y47.216
X102.178 Y47.227
X102.141 Y47.236
X102.105 Y47.241
X101.886 Y47.242
X91.502
G3 X91.327 Y46.668 I0.011 J-0.317
G1 X91.384 Y46.627 Z-15.192
X91.438 Y46.587 Z-15.169
X91.487 Y46.552 Z-15.131
X91.527 Y46.523 Z-15.081
X91.558 Y46.5 Z-15.021
X91.577 Y46.487 Z-14.954
X91.583 Y46.482 Z-14.883
G0 Z15
M30
%
