%
(top7-1_8_upcut)
(T1  D=3.17 CR=0 - ZMIN=-16.2 - flat end mill)
G90 G94
G17
G21

(PocketB-1/8)
M9
T1 M6
S5000 M3
G54
G0 X37.786 Y32.213
Z15
Z5
Z-15.566
G1 Z-15.883 F1000
X37.779 Y32.217 Z-15.954
X37.759 Y32.229 Z-16.021
X37.726 Y32.249 Z-16.081
X37.683 Y32.274 Z-16.131
X37.632 Y32.305 Z-16.169
X37.574 Y32.339 Z-16.192
X37.513 Y32.375 Z-16.2
G3 X35.841 Y32.867 I-1.795 J-3.02
G1 X35.695
X35.658 Y32.865
X35.541 Y32.77
X35.439 Y32.661
X35.348 Y32.541
X35.253 Y32.39
X35.151 Y32.197
X35.044 Y31.945
X34.931 Y31.608
X34.814 Y31.136
X34.71 Y30.502
X34.65 Y29.863
X34.616 Y29.223
X34.596 Y28.581
X34.584 Y27.94
X34.577 Y27.298
X34.573 Y26.656
X34.569 Y25.373
X34.567 Y22.806
Y20.776
X34.603 Y20.548
X34.708 Y20.341
X34.872 Y20.178
X35.078 Y20.073
X35.307 Y20.037
G3 X35.482 Y20.61 I-0.011 J0.317
G1 X35.425 Y20.651 Z-16.192
X35.371 Y20.691 Z-16.169
X35.322 Y20.726 Z-16.131
X35.282 Y20.755 Z-16.081
X35.251 Y20.778 Z-16.021
X35.232 Y20.791 Z-15.954
X35.226 Y20.796 Z-15.883
G0 Z5
X36.721 Y32.483
Z-15.566
G1 Z-15.883 F1000
X36.714 Y32.487 Z-15.954
X36.694 Y32.499 Z-16.021
X36.662 Y32.519 Z-16.081
X36.618 Y32.544 Z-16.131
X36.567 Y32.575 Z-16.169
X36.509 Y32.609 Z-16.192
X36.449 Y32.645 Z-16.2
G3 X35.695 Y32.867 I-0.809 J-1.36
G1 X35.259
X35.109 Y32.859
X34.972 Y32.797
X34.844 Y32.72
X34.723 Y32.63
X34.601 Y32.521
X34.472 Y32.386
X34.346 Y32.231
X34.207 Y32.027
X34.068 Y31.786
X33.929 Y31.49
X33.788 Y31.116
X33.646 Y30.622
X33.519 Y29.993
X33.438 Y29.357
X33.387 Y28.717
X33.354 Y28.076
X33.333 Y27.435
X33.32 Y26.793
X33.312 Y26.152
X33.307 Y25.51
X33.304 Y24.868
X33.301 Y23.585
X33.3 Y21.66
X33.322 Y21.325
X33.367 Y21.021
X33.418 Y20.799
X33.485 Y20.588
X33.522 Y20.497
X33.633 Y20.309
X33.794 Y20.162
X33.991 Y20.069
X34.207 Y20.037
G3 X34.382 Y20.61 I-0.011 J0.317
G1 X34.325 Y20.651 Z-16.192
X34.271 Y20.691 Z-16.169
X34.223 Y20.726 Z-16.131
X34.182 Y20.755 Z-16.081
X34.151 Y20.778 Z-16.021
X34.132 Y20.791 Z-15.954
X34.126 Y20.796 Z-15.883
G0 Z5
X36.285 Y32.483
Z-15.566
G1 Z-15.883 F1000
X36.278 Y32.487 Z-15.954
X36.258 Y32.499 Z-16.021
X36.225 Y32.519 Z-16.081
X36.182 Y32.544 Z-16.131
X36.13 Y32.575 Z-16.169
X36.073 Y32.609 Z-16.192
X36.012 Y32.645 Z-16.2
G3 X35.259 Y32.867 I-0.809 J-1.36
G1 X34.575
X34.425 Y32.859
X34.279 Y32.826
X34.138 Y32.776
X34.003 Y32.711
X33.874 Y32.634
X33.738 Y32.538
X33.591 Y32.415
X33.447 Y32.272
X33.283 Y32.082
X33.131 Y31.874
X32.963 Y31.6
X32.802 Y31.284
X32.634 Y30.876
X32.477 Y30.383
X32.331 Y29.758
X32.231 Y29.124
X32.164 Y28.486
X32.119 Y27.846
X32.089 Y27.205
X32.069 Y26.563
X32.055 Y25.922
X32.047 Y25.28
X32.041 Y24.639
X32.038 Y23.997
X32.034 Y22.714
X32.046 Y22.072
X32.091 Y21.535
X32.152 Y21.166
X32.23 Y20.855
X32.304 Y20.635
X32.369 Y20.484
X32.481 Y20.301
X32.642 Y20.159
X32.836 Y20.068
X33.049 Y20.037
X34.207
G3 X34.513 Y20.344 I-0.011 J0.317
G1 X34.522 Y20.652
X34.872 Y32.251
X34.881 Y32.54
G3 X34.575 Y32.867 I-0.317 J0.01
G1 X33.622
X33.473 Y32.859
X33.326 Y32.829
X33.183 Y32.783
X33.045 Y32.724
X32.904 Y32.648
X32.753 Y32.551
X32.598 Y32.433
X32.427 Y32.279
X32.261 Y32.105
X32.076 Y31.874
X31.903 Y31.621
X31.711 Y31.283
X31.535 Y30.908
X31.355 Y30.425
X31.18 Y29.807
X31.054 Y29.178
X30.965 Y28.543
X30.902 Y27.904
X30.858 Y27.264
X30.828 Y26.623
X30.807 Y25.982
X30.792 Y25.34
X30.783 Y24.699
X30.776 Y24.057
X30.773 Y23.415
X30.78 Y22.774
X30.811 Y22.133
X30.877 Y21.556
X30.956 Y21.15
X31.048 Y20.823
X31.132 Y20.597
X31.193 Y20.465
X31.307 Y20.289
X31.466 Y20.153
X31.657 Y20.066
X31.864 Y20.037
X33.049
G3 X33.354 Y20.338 I-0.011 J0.317
G1 X33.369 Y20.651
X33.915 Y32.251
X33.928 Y32.535
G3 X33.622 Y32.867 I-0.317 J0.015
G1 X32.604
X32.454 Y32.859
X32.306 Y32.833
X32.162 Y32.792
X32.023 Y32.737
X31.875 Y32.665
X31.715 Y32.57
X31.552 Y32.455
X31.373 Y32.306
X31.196 Y32.131
X31.001 Y31.906
X30.814 Y31.651
X30.695 Y31.459
X30.635 Y31.337
X30.598 Y31.206
X30.585 Y31.071
G3 X31.11 Y30.842 I0.317 J0.011
G1 X31.164 Y30.89
X32.78 Y32.292
X32.801 Y32.31
G3 X32.604 Y32.867 I-0.208 J0.239
G1 X31.52
X31.37 Y32.859
X31.222 Y32.835
X31.078 Y32.796
X31.068 Y32.792
X30.872 Y32.683
X30.718 Y32.521
X30.619 Y32.32
X30.585 Y32.098
G3 X31.088 Y31.853 I0.317 J0.011
G1 X31.169 Y31.911
X31.695 Y32.293
G3 X31.52 Y32.867 I-0.186 J0.257
G1 X30.938
X30.866 Y32.862
X30.829 Y32.854
X30.793 Y32.842
X30.749 Y32.819
X30.706 Y32.787
X30.673 Y32.753
X30.647 Y32.719
X30.623 Y32.68
X30.605 Y32.641
X30.594 Y32.605
X30.587 Y32.569
X30.585 Y32.496
Y20.618
Y20.582
Y20.553
X30.593 Y20.403
X30.651 Y20.257
X30.755 Y20.14
X30.892 Y20.063
X31.047 Y20.037
G3 X31.392 Y20.175 I-0.019 J0.545
X30.746 Y20.897 I-0.323 J0.361
X30.585 Y20.553 I0.323 J-0.361
G1 Y20.407
X30.587 Y20.334
X30.594 Y20.298
X30.605 Y20.262
X30.623 Y20.223
X30.647 Y20.184
X30.673 Y20.15
X30.706 Y20.116
X30.749 Y20.084
X30.793 Y20.061
X30.829 Y20.049
X30.866 Y20.041
X30.938 Y20.037
X31.864
G3 X32.04 Y20.61 I-0.011 J0.317
G1 X31.983 Y20.651 Z-16.192
X31.928 Y20.691 Z-16.169
X31.88 Y20.726 Z-16.131
X31.839 Y20.755 Z-16.081
X31.809 Y20.778 Z-16.021
X31.79 Y20.791 Z-15.954
X31.783 Y20.796 Z-15.883
G0 Z15
M30
%
