%
(top8-1_8_upcut)
(T1  D=3.17 CR=0 - ZMIN=-14 - flat end mill)
G90 G94
G17
G21

(PocketC-1/8)
M9
T1 M6
S5000 M3
G54
G0 X21.519 Y39.626
Z15
Z5
Z-13.366
G1 Z-13.683 F1000
X21.527 Y39.625 Z-13.754
X21.549 Y39.619 Z-13.821
X21.586 Y39.609 Z-13.881
X21.635 Y39.597 Z-13.931
X21.693 Y39.582 Z-13.969
X21.758 Y39.565 Z-13.992
X21.826 Y39.548 Z-14
G3 X23.552 Y39.3 I2.008 J7.84
G1 X23.689
X23.792 Y39.409
X23.858 Y39.544
X23.895 Y39.689
X23.912 Y39.838
X23.916 Y39.992
X23.906 Y40.152
X23.885 Y40.3
X23.848 Y40.454
X23.789 Y40.638
X23.697 Y40.859
X23.558 Y41.128
X23.437 Y41.323
X23.296 Y41.515
X23.098 Y41.743
X22.813 Y42.022
X22.55 Y42.24
X22.304 Y42.414
X21.961 Y42.616
X21.509 Y42.837
X21.229 Y42.946
X20.849 Y43.061
X20.298 Y43.179
X19.979 Y43.221
X19.584 Y43.242
X19.023 Y43.225
X18.659 Y43.186
X18.271 Y43.111
X17.732 Y42.962
X17.371 Y42.83
X17.013 Y42.666
X16.526 Y42.393
X16.201 Y42.174
X15.893 Y41.93
X15.487 Y41.55
X15.22 Y41.256
X14.98 Y40.946
X14.677 Y40.482
X14.486 Y40.13
X14.328 Y39.772
X14.145 Y39.251
X14.043 Y38.861
X13.975 Y38.477
X13.922 Y37.929
X13.916 Y37.523
X13.941 Y37.134
X14.02 Y36.591
X14.112 Y36.193
X14.229 Y35.823
X14.435 Y35.316
X14.62 Y34.948
X14.822 Y34.617
X15.142 Y34.176
X15.411 Y33.861
X15.685 Y33.589
X16.1 Y33.237
X16.438 Y32.995
X16.769 Y32.796
X17.254 Y32.555
X17.643 Y32.399
X18.011 Y32.285
X18.538 Y32.167
X18.956 Y32.108
X19.339 Y32.085
X19.878 Y32.096
X20.299 Y32.139
X20.676 Y32.208
X21.195 Y32.347
X21.597 Y32.49
X21.945 Y32.647
X22.415 Y32.905
X22.773 Y33.141
X23.073 Y33.375
X23.466 Y33.737
X23.759 Y34.054
X23.994 Y34.353
X24.289 Y34.796
X24.499 Y35.176
X24.655 Y35.522
X24.835 Y36.021
X24.949 Y36.442
X25.019 Y36.814
X25.073 Y37.341
X25.089 Y37.982
X25.116 Y38.623
X25.14 Y39.246
X25.122 Y39.675
X25.075 Y40.061
X24.997 Y40.442
X24.894 Y40.799
X24.765 Y41.137
X24.608 Y41.47
X24.41 Y41.812
X24.182 Y42.144
X23.929 Y42.454
X23.639 Y42.756
X23.318 Y43.042
X22.943 Y43.324
X22.567 Y43.563
X22.161 Y43.777
X21.687 Y43.98
X21.226 Y44.135
X20.755 Y44.252
X20.226 Y44.34
X19.715 Y44.382
X19.21 Y44.384
X18.663 Y44.342
X18.142 Y44.259
X17.642 Y44.138
X17.115 Y43.964
X16.622 Y43.757
X16.161 Y43.517
X15.688 Y43.221
X15.256 Y42.9
X14.864 Y42.556
X14.474 Y42.155
X14.131 Y41.739
X13.832 Y41.31
X13.549 Y40.827
X13.314 Y40.341
X13.126 Y39.852
X12.967 Y39.317
X12.855 Y38.787
X12.788 Y38.268
X12.762 Y37.71
X12.78 Y37.169
X12.839 Y36.649
X12.946 Y36.101
X13.093 Y35.579
X13.275 Y35.088
X13.509 Y34.582
X13.777 Y34.11
X14.07 Y33.676
X14.419 Y33.241
X14.791 Y32.846
X15.18 Y32.495
X15.622 Y32.157
X16.078 Y31.862
X16.539 Y31.614
X17.049 Y31.39
X17.563 Y31.213
X18.07 Y31.082
X18.618 Y30.987
X19.159 Y30.937
X19.683 Y30.931
X20.237 Y30.969
X20.776 Y31.05
X21.286 Y31.17
X21.814 Y31.339
X22.318 Y31.546
X22.785 Y31.784
X23.257 Y32.074
X23.698 Y32.396
X24.095 Y32.738
X24.484 Y33.133
X24.835 Y33.551
X25.138 Y33.978
X25.422 Y34.453
X25.663 Y34.943
X25.856 Y35.43
X26.017 Y35.959
X26.154 Y36.582
X26.241 Y37.218
X26.303 Y37.857
X26.345 Y38.497
X26.35 Y39.138
X26.309 Y39.73
X26.231 Y40.253
X26.116 Y40.746
X25.964 Y41.224
X25.774 Y41.686
X25.549 Y42.13
X25.287 Y42.557
X24.988 Y42.966
X24.648 Y43.362
X24.273 Y43.732
X23.866 Y44.075
X23.417 Y44.394
X22.938 Y44.681
X22.431 Y44.931
X21.901 Y45.141
X21.336 Y45.314
X20.753 Y45.443
X20.161 Y45.525
X19.547 Y45.559
X18.93 Y45.545
X18.319 Y45.481
X17.702 Y45.366
X17.096 Y45.201
X16.51 Y44.99
X15.932 Y44.729
X15.378 Y44.422
X14.856 Y44.075
X14.355 Y43.681
X13.889 Y43.249
X13.463 Y42.786
X13.07 Y42.283
X12.719 Y41.751
X12.416 Y41.199
X12.154 Y40.617
X11.94 Y40.016
X11.777 Y39.407
X11.662 Y38.779
X11.598 Y38.144
X11.585 Y37.514
X11.623 Y36.876
X11.713 Y36.244
X11.851 Y35.629
X12.04 Y35.019
X12.277 Y34.427
X12.558 Y33.862
X12.888 Y33.315
X13.26 Y32.796
X13.667 Y32.315
X14.117 Y31.862
X14.602 Y31.448
X15.113 Y31.077
X15.658 Y30.745
X16.229 Y30.458
X16.813 Y30.221
X17.422 Y30.029
X18.044 Y29.886
X18.668 Y29.795
X19.305 Y29.753
X19.943 Y29.763
X20.571 Y29.824
X21.199 Y29.936
X21.817 Y30.098
X22.412 Y30.306
X22.995 Y30.565
X23.557 Y30.87
X24.085 Y31.214
X24.59 Y31.604
X25.062 Y32.034
X25.493 Y32.496
X25.889 Y32.995
X26.245 Y33.525
X26.554 Y34.076
X26.82 Y34.655
X27.04 Y35.258
X27.214 Y35.875
X27.346 Y36.503
X27.406 Y36.885
X27.411 Y36.923
X27.414 Y36.961
X27.415 Y36.999
Y39.3
X27.383 Y39.941
X27.331 Y40.424
X27.236 Y40.931
X27.094 Y41.449
X26.906 Y41.97
X26.671 Y42.486
X26.389 Y42.991
X26.063 Y43.481
X25.692 Y43.95
X25.279 Y44.394
X24.821 Y44.814
X24.321 Y45.203
X23.785 Y45.555
X23.222 Y45.863
X22.636 Y46.126
X22.032 Y46.343
X21.414 Y46.514
X20.784 Y46.637
X20.147 Y46.714
X19.506 Y46.745
X18.865 Y46.729
X18.226 Y46.668
X17.593 Y46.56
X16.971 Y46.406
X16.36 Y46.207
X15.766 Y45.965
X15.19 Y45.682
X14.636 Y45.359
X14.106 Y44.998
X13.601 Y44.601
X13.126 Y44.17
X12.683 Y43.705
X12.275 Y43.21
X11.904 Y42.687
X11.693 Y42.341
X11.634 Y42.22
X11.597 Y42.09
X11.585 Y41.956
Y34.348
X11.595 Y34.157
X11.626 Y33.919
X11.682 Y33.657
X11.777 Y33.34
X11.902 Y33.018
X12.087 Y32.638
X12.325 Y32.233
X12.616 Y31.818
X12.986 Y31.373
X13.423 Y30.925
X13.907 Y30.503
X14.421 Y30.12
X14.963 Y29.776
X15.529 Y29.474
X16.116 Y29.214
X16.72 Y28.998
X17.338 Y28.824
X17.966 Y28.693
X18.602 Y28.607
X19.242 Y28.565
X19.884 Y28.568
X20.524 Y28.617
X21.158 Y28.713
X21.784 Y28.853
X22.399 Y29.037
X23 Y29.263
X23.583 Y29.53
X24.147 Y29.837
X24.688 Y30.182
X25.202 Y30.566
X25.687 Y30.985
X26.142 Y31.439
X26.563 Y31.923
X26.95 Y32.435
X27.3 Y32.972
X27.322 Y33.011
X27.373 Y33.126
X27.404 Y33.247
X27.415 Y33.371
Y36.999
G3 X26.842 Y37.175 I-0.317 J-0.011
G1 X26.8 Y37.118 Z-13.992
X26.761 Y37.064 Z-13.969
X26.726 Y37.015 Z-13.931
X26.696 Y36.974 Z-13.881
X26.674 Y36.944 Z-13.821
X26.66 Y36.925 Z-13.754
X26.655 Y36.918 Z-13.683
G0 Z5
X11.968 Y35.374
Z-13.366
G1 Z-13.683 F1000
X11.964 Y35.367 Z-13.754
X11.952 Y35.347 Z-13.821
X11.933 Y35.315 Z-13.881
X11.907 Y35.272 Z-13.931
X11.877 Y35.22 Z-13.969
X11.842 Y35.162 Z-13.992
X11.806 Y35.102 Z-14
G3 X11.585 Y34.348 I1.36 J-0.809
G1 Y32.455
X11.593 Y32.285
X11.617 Y32.108
X11.662 Y31.895
X11.726 Y31.682
X11.826 Y31.425
X11.961 Y31.147
X12.142 Y30.839
X12.375 Y30.508
X12.687 Y30.132
X13.045 Y29.766
X13.486 Y29.381
X14.001 Y28.999
X14.546 Y28.659
X15.113 Y28.36
X15.7 Y28.1
X16.302 Y27.878
X16.917 Y27.695
X17.543 Y27.552
X18.176 Y27.45
X18.815 Y27.387
X19.456 Y27.364
X20.097 Y27.381
X20.736 Y27.438
X21.371 Y27.535
X21.998 Y27.67
X22.615 Y27.845
X23.221 Y28.058
X23.811 Y28.309
X24.385 Y28.596
X24.94 Y28.917
X25.475 Y29.273
X25.986 Y29.661
X26.472 Y30.08
X26.931 Y30.528
X27.225 Y30.853
X27.328 Y31.001
X27.393 Y31.17
X27.415 Y31.349
Y33.371
G3 X26.842 Y33.547 I-0.317 J-0.011
G1 X26.8 Y33.49 Z-13.992
X26.761 Y33.436 Z-13.969
X26.726 Y33.387 Z-13.931
X26.696 Y33.346 Z-13.881
X26.674 Y33.316 Z-13.821
X26.66 Y33.297 Z-13.754
X26.655 Y33.29 Z-13.683
G0 Z5
X11.968 Y33.481
Z-13.366
G1 Z-13.683 F1000
X11.964 Y33.474 Z-13.754
X11.952 Y33.454 Z-13.821
X11.933 Y33.422 Z-13.881
X11.907 Y33.379 Z-13.931
X11.877 Y33.327 Z-13.969
X11.842 Y33.269 Z-13.992
X11.806 Y33.209 Z-14
G3 X11.585 Y32.455 I1.36 J-0.809
G1 Y30.853
X11.593 Y30.685
X11.613 Y30.533
X11.651 Y30.358
X11.712 Y30.153
X11.792 Y29.948
X11.912 Y29.7
X12.061 Y29.448
X12.266 Y29.156
X12.514 Y28.857
X12.846 Y28.517
X13.232 Y28.18
X13.706 Y27.829
X14.251 Y27.49
X14.82 Y27.193
X15.407 Y26.936
X16.01 Y26.716
X16.625 Y26.532
X17.25 Y26.385
X17.566 Y26.33
X17.883 Y26.284
X18.6 Y26.199
X19.241 Y26.164
X19.882 Y26.166
X20.523 Y26.205
X21.16 Y26.28
X21.792 Y26.39
X22.417 Y26.535
X23.033 Y26.715
X23.638 Y26.928
X24.231 Y27.175
X24.809 Y27.454
X25.369 Y27.766
X25.912 Y28.109
X26.434 Y28.482
X26.935 Y28.883
X27.169 Y29.092
X27.302 Y29.25
X27.386 Y29.439
X27.415 Y29.643
Y31.349
G3 X27.096 Y31.655 I-0.317 J-0.011
G1 X26.8 Y31.653
X11.707 Y31.55
X11.706
X11.666 Y31.557
X11.63 Y31.577
X11.604 Y31.608
X11.59 Y31.647
X11.591 Y31.687
X11.605 Y31.726
X11.631 Y31.757
X11.666 Y31.777
X11.707 Y31.784
X11.747 Y31.776
X11.782 Y31.755
X11.808 Y31.724
X11.821 Y31.686
Y31.645
X11.806 Y31.607
G3 X11.585 Y30.853 I1.36 J-0.809
G1 Y29.397
X11.594 Y29.227
X11.613 Y29.078
X11.649 Y28.91
X11.701 Y28.738
X11.781 Y28.533
X11.884 Y28.322
X12.025 Y28.083
X12.207 Y27.825
X12.436 Y27.549
X12.725 Y27.254
X13.098 Y26.929
X13.53 Y26.611
X14.064 Y26.28
X14.635 Y25.986
X15.224 Y25.734
X15.829 Y25.519
X16.523 Y25.32
X16.601 Y25.303
G3 X16.855 Y25.863 I0.057 J0.312
G1 X12.166 Y29.581
X12.099 Y29.634
G3 X11.585 Y29.397 I-0.197 J-0.248
G1 Y27.941
X11.592 Y27.791
X11.617 Y27.643
X11.655 Y27.488
X11.717 Y27.305
X11.799 Y27.113
X11.91 Y26.902
X12.059 Y26.667
X12.241 Y26.425
X12.486 Y26.15
X12.775 Y25.872
X13.138 Y25.576
X13.596 Y25.26
X14.148 Y24.941
X14.438 Y24.803
X14.585 Y24.739
X14.733 Y24.678
X14.865 Y24.586
X14.973 Y24.467
X15.054 Y24.329
X15.102 Y24.176
X15.131 Y23.856
X15.044 Y23.22
X14.841 Y22.612
X14.607 Y22.014
X14.375 Y21.416
X14.271 Y21.112
X14.091 Y20.496
X13.986 Y20.012
X13.924 Y19.554
X13.889 Y18.914
X13.898 Y18.576
X13.946 Y18.121
X14.056 Y17.538
X14.144 Y17.212
X14.299 Y16.783
X14.536 Y16.263
X14.699 Y15.969
X14.952 Y15.59
X15.3 Y15.148
X15.529 Y14.902
X15.863 Y14.595
X16.305 Y14.251
X16.585 Y14.067
X16.982 Y13.849
X17.494 Y13.62
X17.809 Y13.508
X18.245 Y13.392
X18.798 Y13.292
X19.13 Y13.259
X19.58 Y13.25
X20.142 Y13.285
X20.471 Y13.331
X20.91 Y13.43
X21.449 Y13.598
X21.757 Y13.722
X22.158 Y13.922
X22.643 Y14.215
X22.912 Y14.409
X23.253 Y14.698
X23.655 Y15.1
X23.87 Y15.351
X24.131 Y15.713
X24.427 Y16.2
X24.575 Y16.495
X24.742 Y16.907
X24.913 Y17.453
X24.986 Y17.774
X25.05 Y18.213
X25.086 Y18.786
X25.081 Y19.115
X25.038 Y19.555
X24.936 Y20.122
X24.852 Y20.439
X24.706 Y20.855
X24.471 Y21.383
X24.314 Y21.67
X24.073 Y22.038
X23.718 Y22.497
X23.498 Y22.738
X23.177 Y23.037
X22.949 Y23.217
X22.769 Y23.35
X22.703 Y23.396
X22.437 Y23.576
X22.298 Y23.655
X22.226 Y23.692
X21.509 Y24.011
X12.182 Y28.152
X12.03 Y28.219
G3 X11.585 Y27.941 I-0.129 J-0.29
G1 Y26.63
X11.592 Y26.48
X11.614 Y26.332
X11.649 Y26.181
X11.702 Y26.017
X11.78 Y25.825
X11.877 Y25.636
X12.015 Y25.411
X12.181 Y25.184
X12.402 Y24.927
X12.859 Y24.476
X13.145 Y23.902
X13.226 Y23.265
X13.185 Y22.625
X13.084 Y21.991
X12.961 Y21.361
X12.846 Y20.73
X12.758 Y20.094
X12.704 Y19.455
X12.7 Y18.823
X12.744 Y18.218
X12.831 Y17.655
X12.969 Y17.074
X13.138 Y16.552
X13.349 Y16.046
X13.614 Y15.53
X13.896 Y15.075
X14.216 Y14.642
X14.592 Y14.21
X14.97 Y13.839
X15.381 Y13.497
X15.846 Y13.169
X16.3 Y12.9
X16.779 Y12.667
X17.308 Y12.46
X17.812 Y12.308
X18.331 Y12.196
X18.895 Y12.121
X19.42 Y12.094
X19.95 Y12.109
X20.515 Y12.171
X21.032 Y12.27
X21.542 Y12.411
X22.076 Y12.606
X22.554 Y12.825
X23.016 Y13.084
X23.489 Y13.401
X23.9 Y13.728
X24.287 Y14.09
X24.67 Y14.51
X24.992 Y14.926
X25.281 Y15.369
X25.553 Y15.87
X25.766 Y16.35
X25.941 Y16.849
X26.085 Y17.4
X26.178 Y17.918
X26.228 Y18.444
X26.237 Y19.014
X26.203 Y19.538
X26.127 Y20.061
X25.999 Y20.617
X25.841 Y21.118
X25.643 Y21.607
X25.386 Y22.117
X25.113 Y22.566
X24.803 Y22.993
X24.46 Y23.394
X24.266 Y23.588
X24.148 Y23.697
X24.088 Y23.75
X23.967 Y23.855
X23.872 Y23.984
X23.806 Y24.131
X23.774 Y24.288
X23.776 Y24.448
X23.813 Y24.604
X23.952 Y24.893
X24.364 Y25.385
X24.849 Y25.805
X25.366 Y26.186
X25.893 Y26.552
X26.418 Y26.921
X26.934 Y27.302
X27.139 Y27.467
X27.287 Y27.628
X27.382 Y27.826
X27.415 Y28.043
Y29.643
G3 X26.842 Y29.819 I-0.317 J-0.011
G1 X26.8 Y29.762 Z-13.992
X26.761 Y29.707 Z-13.969
X26.726 Y29.659 Z-13.931
X26.696 Y29.618 Z-13.881
X26.674 Y29.588 Z-13.821
X26.66 Y29.569 Z-13.754
X26.655 Y29.562 Z-13.683
G0 Z5
X11.968 Y27.656
Z-13.366
G1 Z-13.683 F1000
X11.964 Y27.649 Z-13.754
X11.952 Y27.629 Z-13.821
X11.933 Y27.597 Z-13.881
X11.907 Y27.553 Z-13.931
X11.877 Y27.502 Z-13.969
X11.842 Y27.444 Z-13.992
X11.806 Y27.383 Z-14
G3 X11.585 Y26.63 I1.36 J-0.809
G1 Y25.319
X11.592 Y25.169
X11.685 Y24.534
X11.786 Y23.901
X11.813 Y23.26
X11.78 Y22.619
X11.714 Y21.981
X11.636 Y21.344
X11.587 Y20.909
X11.586 Y20.881
X11.585 Y20.853
G3 X12.219 Y20.864 I0.317 J0.011
G1 Y25.308
G3 X11.585 Y25.319 I-0.317
G1 Y18.912
X11.617 Y18.271
X11.661 Y17.74
X11.754 Y17.177
X11.897 Y16.6
X12.096 Y16.009
X12.341 Y15.434
X12.634 Y14.879
X12.977 Y14.337
X13.36 Y13.829
X13.78 Y13.355
X14.243 Y12.911
X14.736 Y12.508
X15.256 Y12.149
X15.812 Y11.828
X16.386 Y11.554
X16.976 Y11.33
X17.592 Y11.15
X18.214 Y11.022
X18.841 Y10.945
X19.482 Y10.917
X20.116 Y10.941
X20.743 Y11.015
X21.372 Y11.142
X21.982 Y11.316
X22.573 Y11.538
X23.154 Y11.811
X23.704 Y12.126
X24.225 Y12.482
X24.724 Y12.886
X25.184 Y13.323
X25.604 Y13.793
X25.992 Y14.304
X26.335 Y14.839
X26.631 Y15.395
X26.886 Y15.984
X27.09 Y16.585
X27.245 Y17.196
X27.352 Y17.829
X27.408 Y18.461
X27.412 Y19.091
X27.365 Y19.731
X27.268 Y20.358
X27.122 Y20.972
X26.924 Y21.582
X26.68 Y22.168
X26.392 Y22.729
X26.223 Y23.001
X26.15 Y23.144
X26.067 Y23.454
X26.077 Y23.775
X26.225 Y24.399
X26.546 Y24.955
X26.953 Y25.451
X27.207 Y25.714
X27.32 Y25.865
X27.391 Y26.04
X27.415 Y26.228
Y28.043
G3 X26.842 Y28.219 I-0.317 J-0.011
G1 X26.8 Y28.162 Z-13.992
X26.761 Y28.107 Z-13.969
X26.726 Y28.059 Z-13.931
X26.696 Y28.018 Z-13.881
X26.674 Y27.988 Z-13.821
X26.66 Y27.969 Z-13.754
X26.655 Y27.962 Z-13.683
G0 Z5
X11.968 Y19.938
Z-13.366
G1 Z-13.683 F1000
X11.964 Y19.931 Z-13.754
X11.952 Y19.911 Z-13.821
X11.933 Y19.878 Z-13.881
X11.907 Y19.835 Z-13.931
X11.877 Y19.783 Z-13.969
X11.842 Y19.726 Z-13.992
X11.806 Y19.665 Z-14
G3 X11.585 Y18.912 I1.36 J-0.809
G1 Y15.562
X11.598 Y15.312
X11.63 Y15.063
X11.685 Y14.809
X11.776 Y14.503
X11.904 Y14.174
X12.09 Y13.79
X12.314 Y13.41
X12.617 Y12.979
X12.993 Y12.526
X13.425 Y12.083
X13.904 Y11.665
X14.42 Y11.284
X14.963 Y10.942
X15.53 Y10.642
X16.117 Y10.382
X16.72 Y10.164
X17.338 Y9.989
X17.966 Y9.858
X18.601 Y9.77
X19.242 Y9.73
X19.883 Y9.735
X20.523 Y9.786
X21.158 Y9.881
X21.784 Y10.02
X22.399 Y10.203
X23 Y10.427
X23.584 Y10.693
X24.147 Y11.001
X24.687 Y11.348
X25.2 Y11.733
X25.686 Y12.153
X26.141 Y12.605
X26.563 Y13.088
X26.951 Y13.599
X27.303 Y14.136
X27.322 Y14.171
X27.373 Y14.285
X27.404 Y14.406
X27.415 Y14.53
Y26.228
G3 X26.842 Y26.403 I-0.317 J-0.011
G1 X26.8 Y26.346 Z-13.992
X26.761 Y26.292 Z-13.969
X26.726 Y26.243 Z-13.931
X26.696 Y26.203 Z-13.881
X26.674 Y26.172 Z-13.821
X26.66 Y26.153 Z-13.754
X26.655 Y26.147 Z-13.683
G0 Z5
X11.968 Y16.588
Z-13.366
G1 Z-13.683 F1000
X11.964 Y16.581 Z-13.754
X11.952 Y16.561 Z-13.821
X11.933 Y16.529 Z-13.881
X11.907 Y16.486 Z-13.931
X11.877 Y16.434 Z-13.969
X11.842 Y16.376 Z-13.992
X11.806 Y16.316 Z-14
G3 X11.585 Y15.562 I1.36 J-0.809
G1 Y13.669
X11.596 Y13.444
X11.62 Y13.266
X11.665 Y13.053
X11.729 Y12.839
X11.829 Y12.582
X11.964 Y12.305
X12.145 Y11.997
X12.376 Y11.669
X12.684 Y11.297
X13.035 Y10.937
X13.474 Y10.554
X13.99 Y10.173
X14.534 Y9.833
X15.102 Y9.533
X15.688 Y9.271
X16.289 Y9.048
X16.904 Y8.863
X17.529 Y8.719
X18.162 Y8.616
X18.801 Y8.553
X19.442 Y8.53
X20.084 Y8.548
X20.723 Y8.604
X21.357 Y8.7
X21.985 Y8.834
X22.603 Y9.006
X23.209 Y9.218
X23.8 Y9.468
X24.374 Y9.755
X24.929 Y10.076
X25.463 Y10.432
X25.974 Y10.819
X26.461 Y11.238
X26.921 Y11.685
X27.223 Y12.018
X27.328 Y12.166
X27.393 Y12.335
X27.415 Y12.515
Y14.53
G3 X26.842 Y14.706 I-0.317 J-0.011
G1 X26.8 Y14.649 Z-13.992
X26.761 Y14.594 Z-13.969
X26.726 Y14.546 Z-13.931
X26.696 Y14.505 Z-13.881
X26.674 Y14.475 Z-13.821
X26.66 Y14.456 Z-13.754
X26.655 Y14.449 Z-13.683
G0 Z5
X11.968 Y14.695
Z-13.366
G1 Z-13.683 F1000
X11.964 Y14.688 Z-13.754
X11.952 Y14.668 Z-13.821
X11.933 Y14.636 Z-13.881
X11.907 Y14.592 Z-13.931
X11.877 Y14.541 Z-13.969
X11.842 Y14.483 Z-13.992
X11.806 Y14.423 Z-14
G3 X11.585 Y13.669 I1.36 J-0.809
G1 Y12.067
X11.596 Y11.843
X11.616 Y11.692
X11.653 Y11.517
X11.714 Y11.315
X11.794 Y11.11
X11.914 Y10.862
X12.061 Y10.613
X12.266 Y10.321
X12.512 Y10.024
X12.842 Y9.686
X13.23 Y9.347
X13.704 Y8.997
X14.249 Y8.658
X14.818 Y8.361
X15.405 Y8.103
X15.804 Y7.957
X15.887 Y7.932
X15.972 Y7.917
X16.059 Y7.912
G3 X16.263 Y8.461 I-0.011 J0.317
G1 X16.236 Y8.486
X12.163 Y12.247
X12.117 Y12.289
G3 X11.585 Y12.067 I-0.215 J-0.233
G1 Y10.531
X11.592 Y10.381
X11.613 Y10.232
X11.651 Y10.064
X11.704 Y9.89
X11.788 Y9.681
X11.892 Y9.471
X12.037 Y9.229
X12.221 Y8.972
X12.458 Y8.691
X12.749 Y8.397
X13.129 Y8.072
X13.154 Y8.053
X13.288 Y7.976
X13.435 Y7.928
X13.589 Y7.912
G3 X13.834 Y8.416 I-0.011 J0.317
G1 X13.776 Y8.495
X12.158 Y10.706
Y10.707
G3 X11.585 Y10.531 I-0.256 J-0.187
G1 Y9.154
X11.592 Y9.005
X11.612 Y8.856
X11.645 Y8.707
X11.696 Y8.537
X11.774 Y8.341
X11.781 Y8.326
X11.897 Y8.155
X12.054 Y8.024
X12.242 Y7.94
X12.445 Y7.912
G3 X12.708 Y8.388 I-0.011 J0.317
G1 X12.642 Y8.501
X12.176 Y9.303
G3 X11.585 Y9.154 I-0.274 J-0.159
G1 Y8.281
X11.587 Y8.208
X11.593 Y8.171
X11.604 Y8.135
X11.621 Y8.095
X11.645 Y8.056
X11.672 Y8.023
X11.705 Y7.989
X11.748 Y7.958
X11.791 Y7.936
X11.827 Y7.923
X11.864 Y7.915
X11.936 Y7.912
X21.827
X22.41 Y7.941
X22.841 Y7.997
X23.308 Y8.097
X23.862 Y8.263
X24.46 Y8.496
X25.038 Y8.774
X25.596 Y9.09
X26.134 Y9.44
X26.65 Y9.821
X27.144 Y10.231
X27.183 Y10.268
X27.309 Y10.424
X27.388 Y10.607
X27.415 Y10.806
G3 X26.959 Y11.08 I-0.317 J-0.011
G1 X26.82 Y11.012
X21.699 Y8.513
G3 X21.827 Y7.912 I0.139 J-0.285
G1 X24.736
X24.954 Y7.922
X25.194 Y7.954
X25.488 Y8.017
X25.804 Y8.111
X26.192 Y8.262
X26.633 Y8.476
X27.013 Y8.7
X27.101 Y8.762
X27.232 Y8.88
X27.332 Y9.026
X27.394 Y9.191
X27.415 Y9.367
G3 X26.961 Y9.642 I-0.317 J-0.011
G1 X26.82 Y9.574
X24.61 Y8.514
G3 X24.736 Y7.912 I0.137 J-0.286
G1 X26.627
X26.819 Y7.921
X27.008 Y7.974
X27.175 Y8.079
X27.304 Y8.227
X27.387 Y8.406
X27.415 Y8.6
G3 X26.903 Y8.838 I-0.317 J-0.011
G1 X26.834 Y8.784
X26.452 Y8.485
X26.443 Y8.478
G3 X26.627 Y7.912 I0.196 J-0.249
G1 X27.064
X27.136 Y7.915
X27.173 Y7.923
X27.209 Y7.936
X27.252 Y7.958
X27.295 Y7.989
X27.328 Y8.023
X27.355 Y8.056
X27.379 Y8.095
X27.396 Y8.135
X27.407 Y8.171
X27.413 Y8.208
X27.415 Y8.281
Y12.515
G3 X26.842 Y12.69 I-0.317 J-0.011
G1 X26.8 Y12.633 Z-13.992
X26.761 Y12.579 Z-13.969
X26.726 Y12.53 Z-13.931
X26.696 Y12.49 Z-13.881
X26.674 Y12.459 Z-13.821
X26.66 Y12.44 Z-13.754
X26.655 Y12.434 Z-13.683
G0 Z5
X27.032 Y38.274
Z-13.366
G1 Z-13.683 F1000
X27.036 Y38.28 Z-13.754
X27.048 Y38.301 Z-13.821
X27.067 Y38.333 Z-13.881
X27.093 Y38.376 Z-13.931
X27.123 Y38.428 Z-13.969
X27.158 Y38.485 Z-13.992
X27.194 Y38.546 Z-14
G3 X27.415 Y39.3 I-1.36 J0.809
G1 Y42.358
X27.404 Y42.577
X27.374 Y42.808
X27.323 Y43.043
X27.238 Y43.327
X27.121 Y43.627
X26.951 Y43.978
X26.745 Y44.328
X26.464 Y44.728
X26.115 Y45.149
X25.724 Y45.55
X25.255 Y45.959
X24.739 Y46.341
X24.195 Y46.682
X23.629 Y46.982
X23.189 Y47.178
X23.092 Y47.213
X22.991 Y47.234
X22.889 Y47.242
G3 X22.667 Y46.71 I0.011 J-0.317
G1 X22.709 Y46.664
X26.84 Y42.181
X26.865 Y42.154
G3 X27.415 Y42.358 I0.233 J0.215
G1 Y44.251
X27.407 Y44.401
X27.378 Y44.589
X27.332 Y44.781
X27.259 Y45.004
X27.155 Y45.254
X27.019 Y45.517
X26.829 Y45.823
X26.597 Y46.137
X26.298 Y46.48
X25.915 Y46.854
X25.654 Y47.071
X25.511 Y47.164
X25.351 Y47.222
X25.181 Y47.242
G3 X24.935 Y46.74 I0.011 J-0.317
G1 X24.994 Y46.658
X26.84 Y44.078
G3 X27.415 Y44.251 I0.258 J0.185
G1 Y45.707
X27.405 Y45.913
X27.385 Y46.064
X27.35 Y46.228
X27.291 Y46.426
X27.212 Y46.628
X27.103 Y46.852
X27.088 Y46.877
X26.971 Y47.028
X26.818 Y47.144
X26.641 Y47.217
X26.451 Y47.242
G3 X26.182 Y46.777 I0.011 J-0.317
G1 X26.249 Y46.649
X26.818 Y45.57
G3 X27.415 Y45.707 I0.28 J0.148
G1 Y46.872
X27.413 Y46.945
X27.407 Y46.982
X27.396 Y47.018
X27.379 Y47.058
X27.355 Y47.097
X27.328 Y47.13
X27.295 Y47.164
X27.252 Y47.195
X27.209 Y47.217
X27.173 Y47.23
X27.136 Y47.238
X27.064 Y47.242
X17.027
X16.529 Y47.217
X16.182 Y47.171
X15.789 Y47.087
X15.321 Y46.947
X14.83 Y46.756
X14.286 Y46.492
X13.733 Y46.166
X13.207 Y45.8
X12.707 Y45.398
X12.235 Y44.963
X11.792 Y44.499
X11.758 Y44.458
X11.664 Y44.315
X11.605 Y44.154
X11.585 Y43.983
G3 X12.059 Y43.719 I0.317 J0.011
G1 X12.175 Y43.785
X17.174 Y46.65
G3 X17.027 Y47.242 I-0.158 J0.275
G1 X14.409
X14.233 Y47.233
X14.013 Y47.204
X13.757 Y47.149
X13.481 Y47.066
X13.146 Y46.936
X12.789 Y46.763
X12.38 Y46.522
X11.919 Y46.198
X11.852 Y46.143
X11.708 Y45.982
X11.616 Y45.787
X11.585 Y45.573
G3 X12.052 Y45.305 I0.317 J0.011
G1 X12.177 Y45.373
X14.548 Y46.645
G3 X14.409 Y47.242 I-0.15 J0.279
G1 X12.518
X12.368 Y47.234
X12.22 Y47.212
X12.153 Y47.196
X11.969 Y47.125
X11.811 Y47.008
X11.688 Y46.853
X11.611 Y46.672
X11.585 Y46.476
G3 X12.088 Y46.23 I0.317 J0.011
G1 X12.169 Y46.289
X12.693 Y46.668
G3 X12.518 Y47.242 I-0.186 J0.257
G1 X11.936
X11.864 Y47.238
X11.827 Y47.23
X11.791 Y47.217
X11.748 Y47.195
X11.705 Y47.164
X11.672 Y47.13
X11.645 Y47.097
X11.621 Y47.058
X11.604 Y47.018
X11.593 Y46.982
X11.587 Y46.945
X11.585 Y46.872
Y41.956
G3 X12.158 Y41.781 I0.317 J0.011
G1 X12.2 Y41.838 Z-13.992
X12.239 Y41.892 Z-13.969
X12.274 Y41.941 Z-13.931
X12.304 Y41.981 Z-13.881
X12.326 Y42.012 Z-13.821
X12.34 Y42.031 Z-13.754
X12.345 Y42.037 Z-13.683
G0 Z15
M30
%
